;FLAVOR:Marlin
;TIME:5800
;Filament used: 6.25384m
;Layer height: 0.2
;Generated with Cura_SteamEngine 1.2.1
M190 S35
M104 S235
M109 S235
G28
G1 Z50.00 F400
G92 E0
G1 F200 E3
G92 E0
M132 X Y Z A
M907 X100 Y100 Z50 A100
;LAYER_COUNT:15
;LAYER:0
M107
G0 F3000 X-70.767 Y-69.116 Z0.3
;TYPE:SKIRT
G1 F1500 X-70.727 Y-69.604 E0.02443
G1 X-70.608 Y-70.079 E0.04886
G1 X-70.414 Y-70.528 E0.07326
G1 X-70.149 Y-70.94 E0.0977
G1 X-69.888 Y-71.237 E0.11743
G1 X-69.771 Y-71.354 E0.12568
G1 X-69.398 Y-71.671 E0.1501
G1 X-68.978 Y-71.923 E0.17454
G1 X-68.523 Y-72.103 E0.19895
G1 X-68.045 Y-72.207 E0.22336
G1 X-67.65 Y-72.233 E0.24311
G1 X71.816 Y-72.233 E7.20109
G1 X72.304 Y-72.193 E7.22552
G1 X72.779 Y-72.074 E7.24995
G1 X73.228 Y-71.88 E7.27435
G1 X73.64 Y-71.615 E7.29879
G1 X73.937 Y-71.354 E7.31852
G1 X74.054 Y-71.237 E7.32677
G1 X74.371 Y-70.864 E7.35119
G1 X74.623 Y-70.444 E7.37563
G1 X74.803 Y-69.989 E7.40004
G1 X74.907 Y-69.511 E7.42445
G1 X74.933 Y-69.116 E7.4442
G1 X74.933 Y70.35 E14.40218
G1 X74.893 Y70.838 E14.42661
G1 X74.774 Y71.313 E14.45104
G1 X74.58 Y71.762 E14.47545
G1 X74.315 Y72.174 E14.49988
G1 X74.054 Y72.471 E14.51961
G1 X73.937 Y72.588 E14.52787
G1 X73.564 Y72.905 E14.55229
G1 X73.144 Y73.157 E14.57672
G1 X72.689 Y73.337 E14.60114
G1 X72.211 Y73.441 E14.62554
G1 X71.816 Y73.467 E14.64529
G1 X-67.65 Y73.467 E21.60328
G1 X-68.138 Y73.427 E21.6277
G1 X-68.613 Y73.308 E21.65214
G1 X-69.062 Y73.114 E21.67654
G1 X-69.474 Y72.849 E21.70098
G1 X-69.771 Y72.588 E21.7207
G1 X-69.888 Y72.471 E21.72896
G1 X-70.205 Y72.098 E21.75338
G1 X-70.457 Y71.678 E21.77782
G1 X-70.637 Y71.223 E21.80223
G1 X-70.741 Y70.745 E21.82663
G1 X-70.767 Y70.35 E21.84638
G1 X-70.767 Y-69.116 E28.80437
G0 F3000 X-70.367 Y-69.116
G1 F1500 X-70.327 Y-69.57 E28.82711
G1 X-70.209 Y-70.01 E28.84983
G1 X-70.015 Y-70.422 E28.87255
G1 X-69.605 Y-70.954 E28.90606
G1 X-69.488 Y-71.071 E28.91432
G1 X-69.139 Y-71.364 E28.93705
G1 X-68.744 Y-71.591 E28.95978
G1 X-68.316 Y-71.746 E28.98249
G1 X-67.65 Y-71.833 E29.016
G1 X71.816 Y-71.833 E35.97399
G1 X72.27 Y-71.793 E35.99673
G1 X72.71 Y-71.675 E36.01945
G1 X73.122 Y-71.481 E36.04217
G1 X73.654 Y-71.071 E36.07568
G1 X73.771 Y-70.954 E36.08394
G1 X74.064 Y-70.605 E36.10667
G1 X74.291 Y-70.21 E36.1294
G1 X74.446 Y-69.782 E36.15211
G1 X74.533 Y-69.116 E36.18562
G1 X74.533 Y70.35 E43.14361
G1 X74.493 Y70.804 E43.16634
G1 X74.375 Y71.244 E43.18907
G1 X74.181 Y71.656 E43.21179
G1 X73.771 Y72.188 E43.2453
G1 X73.654 Y72.305 E43.25356
G1 X73.305 Y72.598 E43.27629
G1 X72.91 Y72.825 E43.29902
G1 X72.482 Y72.98 E43.32173
G1 X71.816 Y73.067 E43.35524
G1 X-67.65 Y73.067 E50.31322
G1 X-68.104 Y73.027 E50.33596
G1 X-68.544 Y72.909 E50.35869
G1 X-68.956 Y72.715 E50.38141
G1 X-69.488 Y72.305 E50.41492
G1 X-69.605 Y72.188 E50.42317
G1 X-69.898 Y71.839 E50.44591
G1 X-70.125 Y71.444 E50.46864
G1 X-70.28 Y71.016 E50.49135
G1 X-70.367 Y70.35 E50.52486
G1 X-70.367 Y-69.116 E57.48284
G0 F3000 X-69.967 Y-69.116
G1 F1500 X-69.927 Y-69.533 E57.50374
G1 X-69.809 Y-69.935 E57.52464
G1 X-69.616 Y-70.307 E57.54555
G1 X-69.323 Y-70.672 E57.5689
G1 X-69.206 Y-70.789 E57.57716
G1 X-68.882 Y-71.055 E57.59807
G1 X-68.515 Y-71.256 E57.61895
G1 X-68.115 Y-71.383 E57.63989
G1 X-67.65 Y-71.433 E57.66322
G1 X71.816 Y-71.433 E64.62121
G1 X72.233 Y-71.393 E64.64211
G1 X72.635 Y-71.275 E64.66301
G1 X73.007 Y-71.082 E64.68392
G1 X73.372 Y-70.789 E64.70727
G1 X73.489 Y-70.672 E64.71552
G1 X73.755 Y-70.348 E64.73644
G1 X73.956 Y-69.981 E64.75731
G1 X74.083 Y-69.581 E64.77825
G1 X74.133 Y-69.116 E64.80158
G1 X74.133 Y70.35 E71.75957
G1 X74.093 Y70.767 E71.78047
G1 X73.975 Y71.169 E71.80137
G1 X73.782 Y71.541 E71.82228
G1 X73.489 Y71.906 E71.84563
G1 X73.372 Y72.023 E71.85389
G1 X73.048 Y72.289 E71.8748
G1 X72.681 Y72.49 E71.89568
G1 X72.281 Y72.617 E71.91661
G1 X71.816 Y72.667 E71.93995
G1 X-67.65 Y72.667 E78.89793
G1 X-68.067 Y72.627 E78.91883
G1 X-68.469 Y72.509 E78.93974
G1 X-68.841 Y72.316 E78.96064
G1 X-69.206 Y72.023 E78.984
G1 X-69.323 Y71.906 E78.99225
G1 X-69.589 Y71.582 E79.01317
G1 X-69.79 Y71.215 E79.03404
G1 X-69.917 Y70.815 E79.05498
G1 X-69.967 Y70.35 E79.07831
G1 X-69.967 Y-69.116 E86.0363
G0 F3000 X-69.567 Y-69.116
G1 F1500 X-69.527 Y-69.493 E86.05521
G1 X-69.409 Y-69.853 E86.07411
G1 X-69.219 Y-70.18 E86.09298
G1 X-69.04 Y-70.389 E86.10671
G1 X-68.923 Y-70.506 E86.11496
G1 X-68.628 Y-70.744 E86.13388
G1 X-68.29 Y-70.915 E86.15277
G1 X-67.924 Y-71.012 E86.17166
G1 X-67.65 Y-71.033 E86.18537
G1 X71.816 Y-71.033 E93.14336
G1 X72.193 Y-70.993 E93.16227
G1 X72.553 Y-70.875 E93.18118
G1 X72.88 Y-70.685 E93.20004
G1 X73.089 Y-70.506 E93.21377
G1 X73.206 Y-70.389 E93.22203
G1 X73.444 Y-70.094 E93.24094
G1 X73.615 Y-69.756 E93.25984
G1 X73.712 Y-69.39 E93.27873
G1 X73.733 Y-69.116 E93.29244
G1 X73.733 Y70.35 E100.25042
G1 X73.693 Y70.727 E100.26934
G1 X73.575 Y71.087 E100.28824
G1 X73.385 Y71.414 E100.30711
G1 X73.206 Y71.623 E100.32083
G1 X73.089 Y71.74 E100.32909
G1 X72.794 Y71.978 E100.348
G1 X72.456 Y72.149 E100.3669
G1 X72.09 Y72.246 E100.38579
G1 X71.816 Y72.267 E100.3995
G1 X-67.65 Y72.267 E107.35748
G1 X-68.027 Y72.227 E107.3764
G1 X-68.387 Y72.109 E107.3953
G1 X-68.714 Y71.919 E107.41417
G1 X-68.923 Y71.74 E107.4279
G1 X-69.04 Y71.623 E107.43615
G1 X-69.278 Y71.328 E107.45506
G1 X-69.449 Y70.99 E107.47396
G1 X-69.546 Y70.624 E107.49285
G1 X-69.567 Y70.35 E107.50656
G1 X-69.567 Y-69.116 E114.46455
G0 F3000 X-69.167 Y-69.116
G1 F1500 X-69.127 Y-69.448 E114.48123
G1 X-69.01 Y-69.76 E114.49785
G1 X-68.757 Y-70.106 E114.51924
G1 X-68.64 Y-70.223 E114.52749
G1 X-68.377 Y-70.429 E114.54416
G1 X-68.073 Y-70.568 E114.56084
G1 X-67.65 Y-70.633 E114.58219
G1 X71.816 Y-70.633 E121.54018
G1 X72.148 Y-70.593 E121.55686
G1 X72.46 Y-70.476 E121.57348
G1 X72.806 Y-70.223 E121.59487
G1 X72.923 Y-70.106 E121.60312
G1 X73.129 Y-69.843 E121.61979
G1 X73.268 Y-69.539 E121.63647
G1 X73.333 Y-69.116 E121.65782
G1 X73.333 Y70.35 E128.6158
G1 X73.293 Y70.682 E128.63249
G1 X73.176 Y70.994 E128.64911
G1 X72.923 Y71.34 E128.6705
G1 X72.806 Y71.457 E128.67875
G1 X72.543 Y71.663 E128.69542
G1 X72.239 Y71.802 E128.7121
G1 X71.816 Y71.867 E128.73345
G1 X-67.65 Y71.867 E135.69143
G1 X-67.982 Y71.827 E135.70812
G1 X-68.294 Y71.71 E135.72474
G1 X-68.64 Y71.457 E135.74613
G1 X-68.757 Y71.34 E135.75438
G1 X-68.963 Y71.077 E135.77105
G1 X-69.102 Y70.773 E135.78772
G1 X-69.167 Y70.35 E135.80908
G1 X-69.167 Y-69.116 E142.76706
G0 F3000 X-68.767 Y-69.116
G1 F1500 X-68.727 Y-69.395 E142.78112
G1 X-68.611 Y-69.652 E142.79519
G1 X-68.474 Y-69.823 E142.80612
G1 X-68.357 Y-69.94 E142.81438
G1 X-68.131 Y-70.109 E142.82846
G1 X-67.867 Y-70.209 E142.84254
G1 X-67.65 Y-70.233 E142.85343
G1 X71.816 Y-70.233 E149.81142
G1 X72.095 Y-70.193 E149.82548
G1 X72.352 Y-70.077 E149.83955
G1 X72.523 Y-69.94 E149.85048
G1 X72.64 Y-69.823 E149.85874
G1 X72.809 Y-69.597 E149.87282
G1 X72.909 Y-69.333 E149.8869
G1 X72.933 Y-69.116 E149.89779
G1 X72.933 Y70.35 E156.85578
G1 X72.893 Y70.629 E156.86984
G1 X72.777 Y70.886 E156.88391
G1 X72.64 Y71.057 E156.89484
G1 X72.523 Y71.174 E156.90309
G1 X72.297 Y71.343 E156.91717
G1 X72.033 Y71.443 E156.93126
G1 X71.816 Y71.467 E156.94215
G1 X-67.65 Y71.467 E163.90014
G1 X-67.929 Y71.427 E163.9142
G1 X-68.186 Y71.311 E163.92827
G1 X-68.357 Y71.174 E163.9392
G1 X-68.474 Y71.057 E163.94745
G1 X-68.643 Y70.831 E163.96153
G1 X-68.743 Y70.567 E163.97562
G1 X-68.767 Y70.35 E163.98651
G1 X-68.767 Y-69.116 E170.9445
G0 F3000 X-68.367 Y-69.116
G1 F1500 X-68.327 Y-69.331 E170.95541
G1 X-68.191 Y-69.54 E170.96785
G1 X-68.074 Y-69.657 E170.9761
G1 X-67.895 Y-69.781 E170.98696
G1 X-67.65 Y-69.833 E170.99946
G1 X71.816 Y-69.833 E177.95745
G1 X72.031 Y-69.793 E177.96836
G1 X72.24 Y-69.657 E177.9808
G1 X72.357 Y-69.54 E177.98905
G1 X72.481 Y-69.361 E177.99992
G1 X72.533 Y-69.116 E178.01241
G1 X72.533 Y70.35 E184.9704
G1 X72.493 Y70.565 E184.98131
G1 X72.357 Y70.774 E184.99375
G1 X72.24 Y70.891 E185.002
G1 X72.061 Y71.015 E185.01287
G1 X71.816 Y71.067 E185.02536
G1 X-67.65 Y71.067 E191.98335
G1 X-67.865 Y71.027 E191.99426
G1 X-68.074 Y70.891 E192.0067
G1 X-68.191 Y70.774 E192.01496
G1 X-68.315 Y70.595 E192.02582
G1 X-68.367 Y70.35 E192.03832
G1 X-68.367 Y-69.116 E198.9963
G0 F3000 X-67.967 Y-69.116
G1 F1500 X-67.908 Y-69.257 E199.00393
G1 X-67.791 Y-69.374 E199.01218
G1 X-67.65 Y-69.433 E199.01981
G1 X71.816 Y-69.433 E205.9778
G1 X71.957 Y-69.374 E205.98542
G1 X72.074 Y-69.257 E205.99368
G1 X72.133 Y-69.116 E206.0013
G1 X72.133 Y70.35 E212.95929
G1 X72.074 Y70.491 E212.96691
G1 X71.957 Y70.608 E212.97517
G1 X71.816 Y70.667 E212.98279
G1 X-67.65 Y70.667 E219.94078
G1 X-67.791 Y70.608 E219.94841
G1 X-67.908 Y70.491 E219.95666
G1 X-67.967 Y70.35 E219.96429
G1 X-67.967 Y-69.116 E226.92228
G1 F1500 E224.92228
G0 F3000 X-68.432 Y-69.116
G0 X-68.421 Y-69.105
G0 X-68.362 Y-69.05
G0 X-61.135 Y-62.264
G0 X-61.077 Y-62.209
G0 X-60.688 Y-61.844
G1 F1500 E227.00543
G1 X-60.689 Y-61.845 E227.0055
G1 X-60.544 Y-61.995 E227.0159
G1 X-60.353 Y-62.176 E227.02903
G1 X-60.273 Y-62.244 E227.03427
G1 X-60.19 Y-62.318 E227.03982
G1 X-60.123 Y-62.372 E227.04411
G1 X-60.027 Y-62.449 E227.05025
G1 X-59.844 Y-62.582 E227.06154
G1 X-59.52 Y-62.791 E227.08077
G1 X-59.438 Y-62.839 E227.08551
G1 X-59.414 Y-62.852 E227.08688
G1 X-59.269 Y-62.932 E227.09514
G1 X-59.044 Y-63.043 E227.10765
G1 X-58.891 Y-63.11 E227.11599
G1 X-58.633 Y-63.211 E227.12981
G1 X-58.411 Y-63.285 E227.14149
G1 X-58.212 Y-63.343 E227.15183
G1 X-57.997 Y-63.396 E227.16287
G1 X-57.853 Y-63.425 E227.1702
G1 X-57.773 Y-63.44 E227.17426
G1 X-57.565 Y-63.472 E227.18476
G1 X-57.359 Y-63.494 E227.1951
G1 X-57.069 Y-63.512 E227.20959
G1 X-56.878 Y-63.518 E227.21913
G1 X-56.687 Y-63.512 E227.22866
G1 X-56.397 Y-63.494 E227.24316
G1 X-56.192 Y-63.473 E227.25344
G1 X-56.121 Y-63.462 E227.25702
G1 X-55.975 Y-63.439 E227.2644
G1 X-55.937 Y-63.432 E227.26632
G1 X-55.745 Y-63.393 E227.2761
G1 X-55.551 Y-63.345 E227.28607
G1 X-55.475 Y-63.323 E227.29002
G1 X-55.345 Y-63.285 E227.29677
G1 X-55.123 Y-63.211 E227.30845
G1 X-54.876 Y-63.115 E227.32167
G1 X-54.751 Y-63.06 E227.32848
G1 X-54.451 Y-62.912 E227.34517
G1 X-54.287 Y-62.823 E227.35448
G1 X-54.237 Y-62.793 E227.35739
G1 X-54.159 Y-62.746 E227.36193
G1 X-54.101 Y-62.711 E227.36531
G1 X-53.906 Y-62.58 E227.37703
G1 X-53.758 Y-62.473 E227.38614
G1 X-53.728 Y-62.448 E227.38809
G1 X-53.565 Y-62.317 E227.39853
G1 X-53.378 Y-62.153 E227.41094
G1 X-53.213 Y-61.996 E227.4223
G1 X-53.167 Y-61.949 E227.42558
G1 X-53.076 Y-61.853 E227.43218
G1 X-52.921 Y-61.678 E227.44384
G1 X-52.766 Y-61.485 E227.45619
G1 X-52.661 Y-61.341 E227.46508
G1 X-52.506 Y-61.112 E227.47888
G1 X-52.44 Y-61.003 E227.48524
G1 X-52.42 Y-60.97 E227.48716
G1 X-52.287 Y-60.729 E227.50089
G1 X-52.194 Y-60.543 E227.51127
G1 X-52.105 Y-60.342 E227.52224
G1 X-52.009 Y-60.097 E227.53536
G1 X-51.944 Y-59.904 E227.54552
G1 X-51.922 Y-59.828 E227.54947
G1 X-51.872 Y-59.655 E227.55845
G1 X-51.833 Y-59.496 E227.56662
G1 X-51.782 Y-59.238 E227.57974
G1 X-51.747 Y-59.018 E227.59086
G1 X-51.74 Y-58.949 E227.59432
G1 X-51.729 Y-58.842 E227.59968
G1 X-51.709 Y-58.536 E227.61498
G1 X-51.703 Y-58.361 E227.62372
G1 X-51.708 Y-58.151 E227.6342
G1 X-51.722 Y-57.912 E227.64614
G1 X-51.749 Y-57.671 E227.65824
G1 X-51.782 Y-57.454 E227.66919
G1 X-51.822 Y-57.242 E227.67996
G1 X-51.821 Y-57.242 E227.68001
G1 X-51.866 Y-57.061 E227.68931
G1 X-51.877 Y-57.016 E227.69162
G1 X-51.937 Y-56.81 E227.70233
G1 X-52.022 Y-56.557 E227.71564
G1 X-52.088 Y-56.386 E227.72479
G1 X-52.169 Y-56.2 E227.73491
G1 X-52.187 Y-56.158 E227.73719
G1 X-52.285 Y-55.959 E227.74825
G1 X-52.286 Y-55.959 E227.7483
G1 X-52.4 Y-55.75 E227.76018
G1 X-52.399 Y-55.75 E227.76023
G1 X-52.504 Y-55.577 E227.77033
G1 X-52.621 Y-55.403 E227.78079
G1 X-52.781 Y-55.183 E227.79436
G1 X-52.904 Y-55.028 E227.80423
G1 X-53.053 Y-54.86 E227.81543
G1 X-53.063 Y-54.849 E227.81618
G1 X-53.228 Y-54.675 E227.82814
G1 X-53.361 Y-54.548 E227.83731
G1 X-53.362 Y-54.549 E227.83739
G1 X-53.554 Y-54.381 E227.85011
G1 X-53.553 Y-54.38 E227.85018
G1 X-53.638 Y-54.311 E227.85565
G1 X-53.743 Y-54.227 E227.86235
G1 X-53.796 Y-54.188 E227.86564
G1 X-53.908 Y-54.106 E227.87256
G1 X-54.106 Y-53.975 E227.88441
G1 X-54.172 Y-53.934 E227.88828
G1 X-54.314 Y-53.849 E227.89654
G1 X-54.314 Y-53.848 E227.89659
G1 X-54.451 Y-53.773 E227.90438
G1 X-54.482 Y-53.756 E227.90615
G1 X-54.69 Y-53.655 E227.91768
G1 X-54.891 Y-53.565 E227.92867
G1 X-55.075 Y-53.494 E227.93851
G1 X-55.324 Y-53.408 E227.95165
G1 X-55.569 Y-53.339 E227.96435
G1 X-55.76 Y-53.291 E227.97418
G1 X-55.965 Y-53.25 E227.98461
G1 X-56.211 Y-53.212 E227.99702
G1 X-56.213 Y-53.212 E227.99712
G1 X-56.243 Y-53.209 E227.99863
G1 X-56.437 Y-53.189 E228.00836
G1 X-56.55 Y-53.18 E228.01401
G1 X-56.55 Y-53.181 E228.01406
G1 X-56.658 Y-53.174 E228.01946
G1 X-56.877 Y-53.168 E228.03039
G1 X-57.078 Y-53.174 E228.04043
G1 X-57.326 Y-53.191 E228.05283
G1 X-57.45 Y-53.203 E228.05904
G1 X-57.555 Y-53.213 E228.0643
G1 X-57.561 Y-53.214 E228.06461
G1 X-57.641 Y-53.226 E228.06864
G1 X-57.778 Y-53.247 E228.07556
G1 X-58.005 Y-53.293 E228.08711
G1 X-58.216 Y-53.345 E228.09796
G1 X-58.432 Y-53.407 E228.10917
G1 X-58.644 Y-53.479 E228.12034
G1 X-58.644 Y-53.48 E228.12039
G1 X-58.877 Y-53.57 E228.13285
G1 X-59.079 Y-53.662 E228.14392
G1 X-59.094 Y-53.669 E228.14475
G1 X-59.272 Y-53.756 E228.15463
G1 X-59.313 Y-53.778 E228.15695
G1 X-59.489 Y-53.876 E228.167
G1 X-59.66 Y-53.98 E228.17699
G1 X-59.841 Y-54.101 E228.18785
G1 X-60.017 Y-54.231 E228.19877
G1 X-60.049 Y-54.256 E228.20079
G1 X-60.201 Y-54.379 E228.21055
G1 X-60.241 Y-54.414 E228.2132
G1 X-60.389 Y-54.545 E228.22306
G1 X-60.501 Y-54.651 E228.23075
G1 X-60.542 Y-54.69 E228.23358
G1 X-60.689 Y-54.842 E228.24413
G1 X-60.688 Y-54.843 E228.2442
G1 X-60.849 Y-55.027 E228.2564
G1 X-61.002 Y-55.217 E228.26857
G1 X-61.114 Y-55.37 E228.27803
G1 X-61.253 Y-55.578 E228.29051
G1 X-61.357 Y-55.75 E228.30053
G1 X-61.356 Y-55.75 E228.30058
G1 X-61.47 Y-55.959 E228.31246
G1 X-61.567 Y-56.154 E228.32333
G1 X-61.657 Y-56.362 E228.33463
G1 X-61.714 Y-56.508 E228.34245
G1 X-61.741 Y-56.577 E228.34615
G1 X-61.808 Y-56.773 E228.35648
G1 X-61.815 Y-56.796 E228.35768
G1 X-61.88 Y-57.02 E228.36932
G1 X-61.931 Y-57.23 E228.3801
G1 X-61.973 Y-57.437 E228.39064
G1 X-62.006 Y-57.66 E228.40189
G1 X-62.037 Y-57.944 E228.41614
G1 X-62.047 Y-58.115 E228.42469
G1 X-62.053 Y-58.334 E228.43562
G1 X-62.047 Y-58.565 E228.44714
G1 X-62.036 Y-58.756 E228.45669
G1 X-62.006 Y-59.02 E228.46994
G1 X-61.965 Y-59.29 E228.48357
G1 X-61.932 Y-59.455 E228.49196
G1 X-61.925 Y-59.483 E228.4934
G1 X-61.884 Y-59.655 E228.50223
G1 X-61.834 Y-59.829 E228.51126
G1 X-61.828 Y-59.851 E228.5124
G1 X-61.757 Y-60.016 E228.52136
G1 X-61.757 Y-60.063 E228.5237
G1 X-61.74 Y-60.111 E228.52624
G1 X-61.688 Y-60.247 E228.53351
G1 X-61.663 Y-60.31 E228.53689
G1 X-61.572 Y-60.521 E228.54835
G1 X-61.455 Y-60.757 E228.56149
G1 X-61.359 Y-60.932 E228.57145
G1 X-61.319 Y-60.999 E228.57534
G1 X-61.291 Y-61.045 E228.57803
G1 X-61.242 Y-61.125 E228.58271
G1 X-61.12 Y-61.307 E228.59364
G1 X-60.996 Y-61.477 E228.60414
G1 X-60.849 Y-61.66 E228.61585
G1 X-60.688 Y-61.844 E228.62805
G0 F3000 X-61.291 Y-60.162
G1 F1500 X-61.292 Y-60.162 E228.6281
G1 X-61.214 Y-60.343 E228.63793
G1 X-61.104 Y-60.565 E228.65029
G1 X-61.008 Y-60.74 E228.66025
G1 X-60.978 Y-60.791 E228.6632
G1 X-60.977 Y-60.791 E228.66325
G1 X-60.95 Y-60.836 E228.66587
G1 X-60.91 Y-60.902 E228.66972
G1 X-60.797 Y-61.071 E228.67986
G1 X-60.684 Y-61.226 E228.68943
G1 X-60.537 Y-61.409 E228.70114
G1 X-60.381 Y-61.588 E228.71299
G1 X-60.256 Y-61.717 E228.72195
G1 X-60.094 Y-61.871 E228.7331
G1 X-60.01 Y-61.942 E228.73859
G1 X-59.924 Y-62.019 E228.74435
G1 X-59.872 Y-62.061 E228.74768
G1 X-59.792 Y-62.125 E228.7528
G1 X-59.614 Y-62.255 E228.76379
G1 X-59.303 Y-62.455 E228.78224
G1 X-59.247 Y-62.487 E228.78546
G1 X-59.222 Y-62.501 E228.78689
G1 X-59.092 Y-62.573 E228.7943
G1 X-58.867 Y-62.684 E228.80682
G1 X-58.745 Y-62.738 E228.81347
G1 X-58.493 Y-62.837 E228.82698
G1 X-58.299 Y-62.901 E228.83717
G1 X-58.1 Y-62.959 E228.84751
