;FLAVOR:Marlin
;TIME:2905
;Filament used: 3.06361m
;Layer height: 0.2
;Generated with Cura_SteamEngine 1.2.1
M190 S35
M104 S235
M109 S235
G28
G1 Z50.00 F400
G92 E0
G1 F200 E3
G92 E0
M132 X Y Z A
M907 X100 Y100 Z50 A100
;LAYER_COUNT:7
;LAYER:0
M107
G0 F3000 X2.549 Y19.666 Z0.3
;TYPE:SKIRT
G1 F1500 X69.058 Y-46.804 E4.69119
G1 X69.407 Y-47.097 E4.71393
G1 X69.802 Y-47.324 E4.73666
G1 X70.231 Y-47.478 E4.7594
G1 X70.896 Y-47.565 E4.79286
G1 X100.983 Y-47.565 E6.2939
G1 X101.437 Y-47.525 E6.31664
G1 X101.877 Y-47.407 E6.33937
G1 X102.289 Y-47.213 E6.36209
G1 X102.662 Y-46.95 E6.38486
G1 X102.983 Y-46.627 E6.40758
G1 X103.242 Y-46.252 E6.43031
G1 X103.383 Y-45.966 E6.44622
G1 X103.486 Y-45.719 E6.45957
G1 X103.624 Y-45.284 E6.48234
G1 X103.683 Y-44.833 E6.50503
G1 X103.664 Y-44.378 E6.52775
G1 X103.565 Y-43.933 E6.5505
G1 X103.389 Y-43.512 E6.57326
G1 X103.144 Y-43.129 E6.59595
G1 X102.924 Y-42.88 E6.61252
G1 X4.469 Y55.573 E13.55898
G1 X4.12 Y55.866 E13.58172
G1 X3.725 Y56.093 E13.60445
G1 X3.297 Y56.248 E13.62716
G1 X2.631 Y56.335 E13.66067
G1 X2.465 Y56.335 E13.66895
G1 X2.011 Y56.295 E13.69169
G1 X1.571 Y56.177 E13.71441
G1 X1.159 Y55.983 E13.73713
G1 X0.627 Y55.573 E13.77064
G1 X-97.827 Y-42.88 E20.71707
G1 X-98.12 Y-43.229 E20.7398
G1 X-98.347 Y-43.624 E20.76253
G1 X-98.502 Y-44.052 E20.78524
G1 X-98.58 Y-44.501 E20.80798
G1 X-98.578 Y-44.957 E20.83073
G1 X-98.497 Y-45.405 E20.85344
G1 X-98.389 Y-45.719 E20.87001
G1 X-98.286 Y-45.966 E20.88336
G1 X-98.074 Y-46.369 E20.90608
G1 X-97.795 Y-46.73 E20.92884
G1 X-97.458 Y-47.036 E20.95155
G1 X-97.072 Y-47.279 E20.97431
G1 X-96.65 Y-47.45 E20.99702
G1 X-96.205 Y-47.545 E21.01972
G1 X-95.883 Y-47.565 E21.03582
G1 X-65.724 Y-47.535 E22.54046
G1 X-65.271 Y-47.495 E22.56315
G1 X-64.831 Y-47.376 E22.58589
G1 X-64.418 Y-47.182 E22.60865
G1 X-63.888 Y-46.773 E22.64205
G1 X2.549 Y19.666 E27.32961
G0 F3000 X2.549 Y20.231
G1 F1500 X69.341 Y-46.521 E32.04074
G1 X69.664 Y-46.788 E32.06164
G1 X70.032 Y-46.988 E32.08254
G1 X70.431 Y-47.115 E32.10343
G1 X70.896 Y-47.165 E32.12676
G1 X100.983 Y-47.165 E33.62781
G1 X101.4 Y-47.125 E33.64871
G1 X101.802 Y-47.007 E33.66961
G1 X102.174 Y-46.814 E33.69052
G1 X102.503 Y-46.555 E33.71141
G1 X102.777 Y-46.238 E33.73231
G1 X103.014 Y-45.812 E33.75663
G1 X103.117 Y-45.565 E33.76999
G1 X103.24 Y-45.164 E33.79091
G1 X103.286 Y-44.748 E33.81179
G1 X103.252 Y-44.33 E33.83272
G1 X103.139 Y-43.927 E33.8536
G1 X102.951 Y-43.552 E33.87452
G1 X102.642 Y-43.162 E33.89935
G1 X4.187 Y55.291 E40.84581
G1 X3.863 Y55.557 E40.86672
G1 X3.496 Y55.758 E40.8876
G1 X3.096 Y55.885 E40.90854
G1 X2.631 Y55.935 E40.93187
G1 X2.465 Y55.935 E40.94015
G1 X2.048 Y55.895 E40.96105
G1 X1.646 Y55.777 E40.98195
G1 X1.274 Y55.584 E41.00286
G1 X0.909 Y55.291 E41.02621
G1 X-97.545 Y-43.162 E47.97264
G1 X-97.811 Y-43.486 E47.99355
G1 X-98.012 Y-43.853 E48.01443
G1 X-98.139 Y-44.253 E48.03537
G1 X-98.188 Y-44.669 E48.05627
G1 X-98.158 Y-45.087 E48.07717
G1 X-98.02 Y-45.565 E48.102
G1 X-97.917 Y-45.812 E48.11535
G1 X-97.719 Y-46.181 E48.13624
G1 X-97.455 Y-46.507 E48.15717
G1 X-97.134 Y-46.776 E48.17806
G1 X-96.768 Y-46.98 E48.19897
G1 X-96.37 Y-47.111 E48.21987
G1 X-95.884 Y-47.165 E48.24427
G1 X-65.725 Y-47.135 E49.74891
G1 X-65.308 Y-47.095 E49.76981
G1 X-64.906 Y-46.976 E49.79072
G1 X-64.534 Y-46.783 E49.81163
G1 X-64.171 Y-46.491 E49.83487
G1 X2.549 Y20.231 E54.5424
G0 F3000 X2.549 Y20.797
G1 F1500 X69.624 Y-46.238 E59.27349
G1 X69.918 Y-46.476 E59.29236
G1 X70.256 Y-46.648 E59.31128
G1 X70.623 Y-46.744 E59.33021
G1 X70.896 Y-46.765 E59.34387
G1 X100.983 Y-46.765 E60.84492
G1 X101.36 Y-46.725 E60.86383
G1 X101.72 Y-46.607 E60.88273
G1 X102.047 Y-46.417 E60.9016
G1 X102.328 Y-46.162 E60.92053
G1 X102.548 Y-45.853 E60.93945
G1 X102.644 Y-45.658 E60.9503
G1 X102.747 Y-45.411 E60.96365
G1 X102.856 Y-45.048 E60.98256
G1 X102.885 Y-44.67 E61.00147
G1 X102.835 Y-44.294 E61.0204
G1 X102.708 Y-43.937 E61.0393
G1 X102.509 Y-43.615 E61.05819
G1 X102.359 Y-43.445 E61.0695
G1 X3.904 Y55.008 E68.01596
G1 X3.609 Y55.246 E68.03487
G1 X3.271 Y55.417 E68.05377
G1 X2.905 Y55.514 E68.07266
G1 X2.631 Y55.535 E68.08637
G1 X2.465 Y55.535 E68.09465
G1 X2.088 Y55.495 E68.11356
G1 X1.728 Y55.377 E68.13246
G1 X1.401 Y55.187 E68.15133
G1 X1.192 Y55.008 E68.16506
G1 X-97.262 Y-43.445 E75.11149
G1 X-97.5 Y-43.74 E75.1304
G1 X-97.671 Y-44.078 E75.14929
G1 X-97.768 Y-44.444 E75.16818
G1 X-97.786 Y-44.823 E75.18711
G1 X-97.724 Y-45.197 E75.20603
G1 X-97.65 Y-45.411 E75.21732
G1 X-97.547 Y-45.658 E75.23068
G1 X-97.365 Y-45.99 E75.24957
G1 X-97.118 Y-46.277 E75.26846
G1 X-96.816 Y-46.506 E75.28736
G1 X-96.473 Y-46.667 E75.30627
G1 X-96.104 Y-46.752 E75.32516
G1 X-95.884 Y-46.765 E75.33616
G1 X-65.725 Y-46.735 E76.84079
G1 X-65.348 Y-46.695 E76.85971
G1 X-64.988 Y-46.576 E76.87862
G1 X-64.661 Y-46.385 E76.89752
G1 X-64.454 Y-46.208 E76.91111
G1 X2.549 Y20.797 E81.6386
G0 F3000 X2.548 Y21.362
G1 F1500 X69.906 Y-45.955 E86.38962
G1 X70.169 Y-46.162 E86.40632
G1 X70.473 Y-46.3 E86.42298
G1 X70.896 Y-46.365 E86.44433
G1 X100.983 Y-46.365 E87.94538
G1 X101.315 Y-46.325 E87.96206
G1 X101.627 Y-46.208 E87.97868
G1 X101.904 Y-46.02 E87.99539
G1 X102.127 Y-45.772 E88.01203
G1 X102.275 Y-45.504 E88.0273
G1 X102.378 Y-45.257 E88.04065
G1 X102.469 Y-44.935 E88.05734
G1 X102.481 Y-44.602 E88.07397
G1 X102.414 Y-44.274 E88.09067
G1 X102.271 Y-43.972 E88.10734
G1 X102.076 Y-43.728 E88.12292
G1 X3.621 Y54.725 E95.06939
G1 X3.358 Y54.931 E95.08605
G1 X3.054 Y55.07 E95.10273
G1 X2.631 Y55.135 E95.12408
G1 X2.465 Y55.135 E95.13236
G1 X2.133 Y55.095 E95.14905
G1 X1.821 Y54.978 E95.16567
G1 X1.475 Y54.725 E95.18705
G1 X-96.979 Y-43.728 E102.13348
G1 X-97.185 Y-43.991 E102.15015
G1 X-97.324 Y-44.295 E102.16682
G1 X-97.386 Y-44.623 E102.18348
G1 X-97.368 Y-44.957 E102.20017
G1 X-97.281 Y-45.257 E102.21575
G1 X-97.178 Y-45.504 E102.2291
G1 X-97.014 Y-45.795 E102.24577
G1 X-96.785 Y-46.038 E102.26242
G1 X-96.505 Y-46.221 E102.27911
G1 X-96.19 Y-46.332 E102.29577
G1 X-95.885 Y-46.365 E102.31108
G1 X-65.726 Y-46.335 E103.81572
G1 X-65.394 Y-46.295 E103.8324
G1 X-65.081 Y-46.177 E103.84909
G1 X-64.737 Y-45.925 E103.87037
G1 X2.548 Y21.362 E108.61776
G0 F3000 X2.548 Y21.928
G1 F1500 X70.189 Y-45.672 E113.38875
G1 X70.415 Y-45.842 E113.40286
G1 X70.679 Y-45.941 E113.41692
G1 X70.896 Y-45.965 E113.42782
G1 X100.983 Y-45.965 E114.92886
G1 X101.262 Y-45.925 E114.94292
G1 X101.519 Y-45.809 E114.95699
G1 X101.734 Y-45.626 E114.97108
G1 X101.906 Y-45.35 E114.9873
G1 X102.009 Y-45.103 E115.00065
G1 X102.08 Y-44.83 E115.01473
G1 X102.071 Y-44.548 E115.0288
G1 X101.985 Y-44.279 E115.04289
G1 X101.793 Y-44.011 E115.05934
G1 X3.338 Y54.442 E122.0058
G1 X3.112 Y54.611 E122.01988
G1 X2.848 Y54.711 E122.03396
G1 X2.631 Y54.735 E122.04486
G1 X2.465 Y54.735 E122.05314
G1 X2.186 Y54.695 E122.0672
G1 X1.929 Y54.579 E122.08127
G1 X1.758 Y54.442 E122.0922
G1 X-96.696 Y-44.011 E129.03863
G1 X-96.865 Y-44.237 E129.0527
G1 X-96.965 Y-44.501 E129.06679
G1 X-96.987 Y-44.782 E129.08085
G1 X-96.912 Y-45.103 E129.0973
G1 X-96.809 Y-45.35 E129.11065
G1 X-96.665 Y-45.592 E129.1247
G1 X-96.459 Y-45.785 E129.13878
G1 X-96.207 Y-45.912 E129.15286
G1 X-95.885 Y-45.965 E129.16914
G1 X-65.726 Y-45.935 E130.67378
G1 X-65.447 Y-45.895 E130.68784
G1 X-65.19 Y-45.778 E130.70193
G1 X-65.02 Y-45.642 E130.71279
G1 X2.548 Y21.928 E135.48015
G0 F3000 X2.548 Y22.494
G1 F1500 X70.472 Y-45.389 E140.27111
G1 X70.652 Y-45.513 E140.28201
G1 X70.896 Y-45.565 E140.29446
G1 X100.983 Y-45.565 E141.79551
G1 X101.198 Y-45.525 E141.80642
G1 X101.384 Y-45.412 E141.81727
G1 X101.537 Y-45.196 E141.83048
G1 X101.64 Y-44.949 E141.84383
G1 X101.686 Y-44.736 E141.8547
G1 X101.652 Y-44.52 E141.86561
G1 X101.51 Y-44.294 E141.87893
G1 X3.055 Y54.159 E148.82539
G1 X2.876 Y54.283 E148.83625
G1 X2.631 Y54.335 E148.84875
G1 X2.465 Y54.335 E148.85703
G1 X2.25 Y54.295 E148.86794
G1 X2.041 Y54.159 E148.88038
G1 X-96.413 Y-44.294 E155.82681
G1 X-96.537 Y-44.473 E155.83767
G1 X-96.588 Y-44.686 E155.8486
G1 X-96.543 Y-44.949 E155.86191
G1 X-96.44 Y-45.196 E155.87526
G1 X-96.321 Y-45.379 E155.88615
G1 X-96.144 Y-45.507 E155.89705
G1 X-95.885 Y-45.565 E155.91029
G1 X-65.726 Y-45.535 E157.41493
G1 X-65.512 Y-45.495 E157.42579
G1 X-65.303 Y-45.359 E157.43823
G1 X2.548 Y22.494 E162.22556
G0 F3000 X2.548 Y23.06
G1 F1500 X70.755 Y-45.106 E167.03648
G1 X70.896 Y-45.165 E167.04411
G1 X100.983 Y-45.165 E168.54516
G1 X101.102 Y-45.126 E168.5514
G1 X101.168 Y-45.042 E168.55673
G1 X101.271 Y-44.795 E168.57008
G1 X101.28 Y-44.67 E168.57634
G1 X101.227 Y-44.577 E168.58168
G1 X2.772 Y53.876 E175.52814
G1 X2.631 Y53.935 E175.53576
G1 X2.465 Y53.935 E175.54405
G1 X2.324 Y53.876 E175.55167
G1 X-96.13 Y-44.577 E182.4981
G1 X-96.187 Y-44.688 E182.50432
G1 X-96.174 Y-44.795 E182.5097
G1 X-96.071 Y-45.042 E182.52305
G1 X-95.989 Y-45.136 E182.52927
G1 X-95.886 Y-45.165 E182.53461
G1 X-65.727 Y-45.135 E184.03925
G1 X-65.586 Y-45.076 E184.04688
G1 X2.548 Y23.06 E188.85417
G0 F3000 X2.548 Y23.624
;TYPE:WALL-OUTER
G1 F1500 X2.689 Y23.483 E188.86412
G1 X70.937 Y-44.765 E193.67938
G1 X100.849 Y-44.765 E195.1717
G1 X2.548 Y53.535 E202.10733
G1 X-95.752 Y-44.765 E209.04293
G1 X-65.84 Y-44.765 E210.53524
G1 X2.407 Y23.483 E215.35047
G1 X2.548 Y23.624 E215.3569
G0 F3000 X2.689 Y23.483
G0 X3.041 Y23.837
G0 X2.407 Y27.048
G0 X2.407 Y27.548
G1 F1500 X2.126 Y27.573 E215.37097
G1 X1.847 Y27.622 E215.3851
G1 X1.575 Y27.695 E215.39915
G1 X1.311 Y27.792 E215.41318
G1 X1.055 Y27.91 E215.42725
G1 X0.81 Y28.052 E215.44138
G1 X0.579 Y28.214 E215.45545
G1 X0.363 Y28.395 E215.46951
G1 X0.163 Y28.595 E215.48362
G1 X-0.018 Y28.811 E215.49768
G1 X-.18 Y29.042 E215.51176
G1 X-.321 Y29.286 E215.52582
G1 X-.441 Y29.543 E215.53997
G1 X-.537 Y29.808 E215.55403
G1 X-.61 Y30.08 E215.56808
G1 X-.659 Y30.358 E215.58216
G1 X-.684 Y30.639 E215.59624
G1 X-.684 Y30.922 E215.61036
G1 X-.659 Y31.203 E215.62443
G1 X-.61 Y31.481 E215.63852
G1 X-.537 Y31.753 E215.65257
G1 X-.441 Y32.018 E215.66663
G1 X-.321 Y32.275 E215.68078
G1 X-.18 Y32.519 E215.69484
G1 X-0.018 Y32.75 E215.70891
G1 X0.163 Y32.966 E215.72297
G1 X0.363 Y33.166 E215.73708
G1 X0.579 Y33.347 E215.75114
G1 X0.81 Y33.509 E215.76522
G1 X1.055 Y33.651 E215.77935
G1 X1.311 Y33.769 E215.79341
G1 X1.575 Y33.866 E215.80744
G1 X1.847 Y33.939 E215.82149
G1 X2.126 Y33.988 E215.83563
G1 X2.407 Y34.013 E215.8497
G1 X2.69 Y34.013 E215.86382
G1 X2.971 Y33.988 E215.87789
G1 X3.249 Y33.939 E215.89198
G1 X3.521 Y33.866 E215.90603
G1 X3.786 Y33.769 E215.92011
G1 X4.042 Y33.651 E215.93417
G1 X4.287 Y33.509 E215.9483
G1 X4.518 Y33.347 E215.96237
G1 X4.734 Y33.166 E215.97643
G1 X4.934 Y32.966 E215.99054
G1 X5.115 Y32.75 E216.0046
G1 X5.277 Y32.519 E216.01868
G1 X5.418 Y32.274 E216.03278
G1 X5.537 Y32.019 E216.04682
G1 X5.634 Y31.753 E216.06095
G1 X5.706 Y31.48 E216.07503
G1 X5.755 Y31.203 E216.08907
G1 X5.78 Y30.922 E216.10314
G1 X5.78 Y30.639 E216.11726
G1 X5.755 Y30.358 E216.13134
G1 X5.706 Y30.081 E216.14537
G1 X5.634 Y29.808 E216.15946
G1 X5.537 Y29.542 E216.17358
G1 X5.418 Y29.287 E216.18762
G1 X5.277 Y29.042 E216.20172
G1 X5.115 Y28.811 E216.2158
G1 X4.934 Y28.595 E216.22986
G1 X4.734 Y28.395 E216.24397
G1 X4.518 Y28.214 E216.25803
G1 X4.287 Y28.052 E216.27211
G1 X4.042 Y27.91 E216.28623
G1 X3.786 Y27.792 E216.3003
G1 X3.521 Y27.695 E216.31438
G1 X3.249 Y27.622 E216.32843
G1 X2.971 Y27.573 E216.34251
G1 X2.69 Y27.548 E216.35658
G1 X2.407 Y27.548 E216.3707
G0 F3000 X2.208 Y27.565
G0 X2.074 Y27.176
;TYPE:WALL-INNER
G1 F1500 X1.76 Y27.231 E216.38661
G1 X1.454 Y27.313 E216.40241
G1 X1.158 Y27.422 E216.41815
G1 X0.871 Y27.555 E216.43393
G1 X0.594 Y27.715 E216.44989
G1 X0.335 Y27.896 E216.46565
G1 X0.093 Y28.1 E216.48144
G1 X-.132 Y28.325 E216.49732
G1 X-.336 Y28.567 E216.51311
G1 X-.518 Y28.827 E216.52894
G1 X-.676 Y29.101 E216.54472
G1 X-.811 Y29.39 E216.56064
G1 X-.919 Y29.688 E216.57645
G1 X-1.001 Y29.993 E216.59221
G1 X-1.056 Y30.305 E216.60801
G1 X-1.084 Y30.621 E216.62384
G1 X-1.084 Y30.94 E216.63976
G1 X-1.056 Y31.256 E216.65558
G1 X-1.001 Y31.568 E216.67139
G1 X-.919 Y31.873 E216.68715
G1 X-.811 Y32.171 E216.70296
G1 X-.676 Y32.46 E216.71887
G1 X-.518 Y32.734 E216.73465
G1 X-.336 Y32.994 E216.75049
G1 X-.132 Y33.236 E216.76628
G1 X0.093 Y33.461 E216.78215
G1 X0.335 Y33.665 E216.79794
G1 X0.594 Y33.846 E216.81371
G1 X0.871 Y34.006 E216.82967
G1 X1.158 Y34.139 E216.84545
G1 X1.454 Y34.248 E216.86118
G1 X1.76 Y34.33 E216.87699
G1 X2.074 Y34.385 E216.89289
G1 X2.389 Y34.413 E216.90867
G1 X2.708 Y34.413 E216.92459
G1 X3.024 Y34.385 E216.94041
G1 X3.336 Y34.33 E216.95622
G1 X3.642 Y34.248 E216.97202
G1 X3.939 Y34.139 E216.98781
G1 X4.226 Y34.006 E217.00359
G1 X4.503 Y33.846 E217.01955
G1 X4.762 Y33.665 E217.03531
G1 X5.004 Y33.461 E217.0511
G1 X5.229 Y33.236 E217.06698
G1 X5.433 Y32.994 E217.08277
G1 X5.615 Y32.734 E217.0986
G1 X5.773 Y32.459 E217.11443
G1 X5.907 Y32.172 E217.13023
G1 X6.016 Y31.873 E217.14611
G1 X6.097 Y31.566 E217.16195
G1 X6.152 Y31.256 E217.17765
G1 X6.18 Y30.94 E217.19348
G1 X6.18 Y30.621 E217.2094
G1 X6.152 Y30.305 E217.22522
G1 X6.097 Y29.995 E217.24093
G1 X6.016 Y29.688 E217.25677
G1 X5.907 Y29.389 E217.27265
G1 X5.773 Y29.102 E217.28845
G1 X5.615 Y28.827 E217.30427
G1 X5.433 Y28.567 E217.32011
G1 X5.229 Y28.325 E217.3359
G1 X5.004 Y28.1 E217.35177
G1 X4.762 Y27.896 E217.36756
G1 X4.503 Y27.715 E217.38333
G1 X4.226 Y27.555 E217.39929
G1 X3.939 Y27.422 E217.41507
G1 X3.642 Y27.313 E217.43085
G1 X3.336 Y27.231 E217.44666
G1 X3.024 Y27.176 E217.46246
G1 X2.708 Y27.148 E217.47829
G1 X2.389 Y27.148 E217.4942
G1 X2.074 Y27.176 E217.50998
G0 F3000 X2.061 Y27.077
G0 X2.548 Y24.29
G0 X2.548 Y24.19
G1 F1500 X2.689 Y24.049 E217.51993
G1 X71.103 Y-44.365 E222.34691
G1 X99.883 Y-44.365 E223.78275
G1 X2.548 Y52.969 E230.65022
G1 X-94.786 Y-44.365 E237.51766
G1 X-66.006 Y-44.365 E238.9535
G1 X2.407 Y24.049 E243.78044
G1 X2.548 Y24.19 E243.78687
G0 F3000 X2.548 Y24.756
G1 F1500 X2.689 Y24.615 E243.79682
G1 X71.269 Y-43.965 E248.63551
G1 X98.917 Y-43.965 E250.01487
G1 X2.548 Y52.403 E256.81419
G1 X-93.82 Y-43.965 E263.61347
G1 X-66.172 Y-43.965 E264.99284
G1 X2.407 Y24.615 E269.83149
G1 X2.548 Y24.756 E269.83791
G0 F3000 X2.371 Y26.748
G1 F1500 X2.022 Y26.779 E269.85539
G1 X1.674 Y26.84 E269.87302
G1 X1.333 Y26.931 E269.89063
G1 X1.005 Y27.052 E269.90807
G1 X0.687 Y27.2 E269.92557
G1 X0.379 Y27.377 E269.94329
G1 X0.091 Y27.578 E269.96081
G1 X-.178 Y27.805 E269.97837
G1 X-.427 Y28.054 E269.99594
G1 X-.653 Y28.323 E270.01347
G1 X-.856 Y28.612 E270.03109
G1 X-1.031 Y28.916 E270.04859
G1 X-1.181 Y29.237 E270.06627
G1 X-1.301 Y29.568 E270.08383
G1 X-1.392 Y29.906 E270.1013
G1 X-1.453 Y30.253 E270.11887
G1 X-1.484 Y30.603 E270.1364
G1 X-1.484 Y30.958 E270.15411
G1 X-1.453 Y31.308 E270.17164
G1 X-1.392 Y31.655 E270.18922
G1 X-1.301 Y31.993 E270.20668
G1 X-1.181 Y32.324 E270.22425
G1 X-1.031 Y32.645 E270.24193
G1 X-.856 Y32.949 E270.25943
G1 X-.653 Y33.238 E270.27705
G1 X-.427 Y33.507 E270.29458
G1 X-.178 Y33.756 E270.31214
G1 X0.091 Y33.983 E270.3297
G1 X0.379 Y34.184 E270.34723
G1 X0.687 Y34.361 E270.36495
G1 X1.005 Y34.509 E270.38245
G1 X1.333 Y34.63 E270.39989
G1 X1.674 Y34.721 E270.4175
G1 X2.022 Y34.782 E270.43512
G1 X2.371 Y34.813 E270.4526
G1 X2.726 Y34.813 E270.47032
G1 X3.076 Y34.782 E270.48785
G1 X3.423 Y34.721 E270.50542
G1 X3.763 Y34.63 E270.52298
G1 X4.092 Y34.509 E270.54047
G1 X4.41 Y34.361 E270.55797
G1 X4.718 Y34.184 E270.57569
G1 X5.006 Y33.983 E270.59321
G1 X5.275 Y33.756 E270.61078
G1 X5.524 Y33.507 E270.62834
G1 X5.75 Y33.238 E270.64587
G1 X5.953 Y32.949 E270.66349
G1 X6.128 Y32.644 E270.68103
G1 X6.277 Y32.325 E270.6986
G1 X6.398 Y31.993 E270.71623
G1 X6.488 Y31.652 E270.73382
G1 X6.549 Y31.309 E270.75121
G1 X6.58 Y30.958 E270.76879
G1 X6.58 Y30.603 E270.7865
G1 X6.549 Y30.252 E270.80408
G1 X6.488 Y29.909 E270.82146
G1 X6.398 Y29.568 E270.83905
G1 X6.277 Y29.236 E270.85668
G1 X6.128 Y28.917 E270.87425
G1 X5.953 Y28.612 E270.89179
G1 X5.75 Y28.323 E270.90941
G1 X5.524 Y28.054 E270.92694
G1 X5.275 Y27.805 E270.94451
G1 X5.006 Y27.578 E270.96207
G1 X4.718 Y27.377 E270.97959
