;FLAVOR:Marlin
;TIME:1434
;Filament used: 1.63442m
;Layer height: 0.2
;Generated with Cura_SteamEngine 1.2.1
M190 S35
M104 S230
M109 S230
G28
G1 Z50.00 F400
G92 E0
G1 F200 E3
G92 E0
M132 X Y Z A
M907 X100 Y100 Z50 A100
;LAYER_COUNT:17
;LAYER:0
M107
G0 F3000 X25.055 Y-3.602 Z0.3
;TYPE:SKIRT
G1 F1500 X25.525 Y1.89 E0.275
G1 X26.306 Y7.359 E0.55062
G1 X27.396 Y12.78 E0.82648
G1 X28.053 Y15.453 E0.96381
G1 X28.959 Y18.733 E1.13358
G1 X28.991 Y18.86 E1.14011
G1 X29.257 Y20.079 E1.20236
G1 X29.312 Y20.585 E1.22775
G1 X29.323 Y25.019 E1.44897
G1 X29.279 Y25.483 E1.47222
G1 X28.984 Y27.001 E1.54937
G1 X28.923 Y27.245 E1.56192
G1 X28.571 Y28.395 E1.62192
G1 X28.462 Y28.684 E1.63733
G1 X27.443 Y30.932 E1.76046
G1 X27.294 Y31.21 E1.7762
G1 X26.27 Y32.853 E1.87279
G1 X26.148 Y33.03 E1.88351
G1 X25.427 Y33.985 E1.94321
G1 X25.201 Y34.244 E1.96036
G1 X22.042 Y37.375 E2.18226
G1 X21.751 Y37.621 E2.20127
G1 X19.202 Y39.447 E2.3577
G1 X18.954 Y39.603 E2.37232
G1 X16.408 Y40.993 E2.51704
G1 X16.253 Y41.07 E2.52567
G1 X14.824 Y41.721 E2.60402
G1 X14.602 Y41.809 E2.61593
G1 X10.205 Y43.304 E2.84763
G1 X9.953 Y43.375 E2.86069
G1 X7.206 Y43.986 E3.00109
G1 X7.062 Y44.013 E3.0084
G1 X5.542 Y44.255 E3.08519
G1 X5.393 Y44.274 E3.09268
G1 X2.457 Y44.554 E3.23982
G1 X2.205 Y44.565 E3.25241
G1 X-3.034 Y44.512 E3.5138
G1 X-3.28 Y44.497 E3.52609
G1 X-5.771 Y44.215 E3.65116
G1 X-5.969 Y44.184 E3.66116
G1 X-9.518 Y43.478 E3.84169
G1 X-9.81 Y43.401 E3.85676
G1 X-14.483 Y41.842 E4.10252
G1 X-14.699 Y41.757 E4.11411
G1 X-16.091 Y41.137 E4.19013
G1 X-16.232 Y41.069 E4.19794
G1 X-18.266 Y39.999 E4.3126
G1 X-18.442 Y39.897 E4.32275
G1 X-20.191 Y38.779 E4.42631
G1 X-20.381 Y38.644 E4.43794
G1 X-21.988 Y37.381 E4.53991
G1 X-22.202 Y37.191 E4.55419
G1 X-25.323 Y34.071 E4.77436
G1 X-25.578 Y33.771 E4.794
G1 X-26.52 Y32.455 E4.87474
G1 X-26.667 Y32.222 E4.88849
G1 X-27.811 Y30.16 E5.00613
G1 X-27.929 Y29.916 E5.01965
G1 X-28.46 Y28.636 E5.08879
G1 X-28.562 Y28.333 E5.10474
G1 X-29.191 Y25.97 E5.22674
G1 X-29.272 Y25.367 E5.25709
G1 X-29.298 Y20.758 E5.48704
G1 X-29.256 Y20.297 E5.51013
G1 X-28.347 Y15.505 E5.75347
G1 X-27.56 Y10.047 E6.02859
G1 X-27.081 Y4.539 E6.30442
G1 X-26.915 Y-.984 E6.58009
G1 X-27.061 Y-6.491 E6.85493
G1 X-27.519 Y-11.999 E7.13067
G1 X-28.289 Y-17.472 E7.40641
G1 X-29.154 Y-22.007 E7.63674
G1 X-29.196 Y-22.456 E7.65924
G1 X-29.197 Y-26.942 E7.88305
G1 X-29.144 Y-27.444 E7.90823
G1 X-28.964 Y-28.287 E7.95124
G1 X-28.904 Y-28.514 E7.96295
G1 X-28.455 Y-29.925 E8.03682
G1 X-28.354 Y-30.187 E8.05083
G1 X-27.723 Y-31.581 E8.12717
G1 X-27.612 Y-31.797 E8.13929
G1 X-26.853 Y-33.103 E8.21465
G1 X-26.732 Y-33.29 E8.22576
G1 X-25.932 Y-34.412 E8.29451
G1 X-25.673 Y-34.718 E8.31451
G1 X-22.444 Y-37.939 E8.54205
G1 X-22.129 Y-38.203 E8.56256
G1 X-19.987 Y-39.709 E8.69319
G1 X-19.752 Y-39.855 E8.707
G1 X-17.313 Y-41.179 E8.84545
G1 X-17.161 Y-41.255 E8.85393
G1 X-15.891 Y-41.832 E8.92352
G1 X-15.665 Y-41.921 E8.93564
G1 X-11.265 Y-43.405 E9.16731
G1 X-10.976 Y-43.483 E9.18224
G1 X-7.602 Y-44.168 E9.354
G1 X-7.406 Y-44.199 E9.3639
G1 X-5.156 Y-44.465 E9.47694
G1 X-4.884 Y-44.482 E9.49054
G1 X1.162 Y-44.507 E9.79217
G1 X1.469 Y-44.489 E9.80752
G1 X4.613 Y-44.097 E9.96559
G1 X4.825 Y-44.06 E9.97632
G1 X7.772 Y-43.421 E10.12677
G1 X8.048 Y-43.344 E10.14106
G1 X12.623 Y-41.76 E10.3826
G1 X12.935 Y-41.627 E10.39952
G1 X15.966 Y-40.069 E10.56955
G1 X16.229 Y-39.911 E10.58485
G1 X18.655 Y-38.242 E10.73176
G1 X18.989 Y-37.965 E10.75341
G1 X22.247 Y-34.72 E10.98282
G1 X22.489 Y-34.438 E11.00136
G1 X23.086 Y-33.623 E11.05177
G1 X23.212 Y-33.433 E11.06314
G1 X24.234 Y-31.716 E11.16283
G1 X24.382 Y-31.424 E11.17916
G1 X25.12 Y-29.681 E11.27359
G1 X25.222 Y-29.389 E11.28902
G1 X25.621 Y-27.956 E11.36324
G1 X25.695 Y-27.574 E11.38265
G1 X25.755 Y-27.028 E11.41005
G1 X25.769 Y-26.769 E11.42299
G1 X25.774 Y-22.46 E11.63797
G1 X25.757 Y-22.171 E11.65241
G1 X25.515 Y-20.152 E11.75386
G1 X25.049 Y-14.65 E12.02934
G1 X24.896 Y-9.125 E12.30509
G1 X25.055 Y-3.602 E12.58075
G0 F3000 X24.655 Y-3.59
G1 F1500 X25.128 Y1.942 E12.85775
G1 X25.912 Y7.426 E13.13413
G1 X27.01 Y12.886 E13.41198
G1 X27.652 Y15.502 E13.54637
G1 X28.574 Y18.84 E13.71914
G1 X28.6 Y18.946 E13.72458
G1 X28.866 Y20.165 E13.78683
G1 X28.912 Y20.586 E13.80796
G1 X28.923 Y25.02 E14.02917
G1 X28.886 Y25.407 E14.04857
G1 X28.591 Y26.925 E14.12572
G1 X28.54 Y27.128 E14.13616
G1 X28.188 Y28.278 E14.19616
G1 X28.098 Y28.519 E14.20899
G1 X27.079 Y30.767 E14.33213
G1 X26.954 Y30.999 E14.34528
G1 X25.93 Y32.642 E14.44187
G1 X25.829 Y32.789 E14.45076
G1 X25.108 Y33.744 E14.51046
G1 X24.92 Y33.959 E14.52471
G1 X21.761 Y37.09 E14.74661
G1 X21.518 Y37.296 E14.7625
G1 X18.969 Y39.122 E14.91894
G1 X18.762 Y39.251 E14.93111
G1 X16.216 Y40.641 E15.07582
G1 X16.087 Y40.706 E15.08303
G1 X14.658 Y41.357 E15.16137
G1 X14.473 Y41.431 E15.17131
G1 X10.076 Y42.926 E15.40301
G1 X9.866 Y42.984 E15.41388
G1 X7.119 Y43.595 E15.55428
G1 X6.999 Y43.618 E15.56038
G1 X5.479 Y43.86 E15.63716
G1 X5.355 Y43.876 E15.6434
G1 X2.419 Y44.156 E15.79054
G1 X2.209 Y44.165 E15.80103
G1 X-3.03 Y44.112 E16.06242
G1 X-3.235 Y44.099 E16.07267
G1 X-5.726 Y43.817 E16.19774
G1 X-5.891 Y43.792 E16.20606
G1 X-9.44 Y43.086 E16.38659
G1 X-9.683 Y43.021 E16.39914
G1 X-14.356 Y41.462 E16.64491
G1 X-14.537 Y41.392 E16.65459
G1 X-15.929 Y40.772 E16.73062
G1 X-16.046 Y40.715 E16.73711
G1 X-18.08 Y39.645 E16.85177
G1 X-18.226 Y39.56 E16.8602
G1 X-19.975 Y38.442 E16.96376
G1 X-20.134 Y38.329 E16.97349
G1 X-21.741 Y37.066 E17.07547
G1 X-21.919 Y36.908 E17.08734
G1 X-25.04 Y33.788 E17.30751
G1 X-25.252 Y33.538 E17.32386
G1 X-26.194 Y32.222 E17.4046
G1 X-26.317 Y32.028 E17.41606
G1 X-27.461 Y29.966 E17.53371
G1 X-27.559 Y29.762 E17.545
G1 X-28.09 Y28.482 E17.61414
G1 X-28.176 Y28.23 E17.62742
G1 X-28.805 Y25.867 E17.74942
G1 X-28.872 Y25.364 E17.77473
G1 X-28.898 Y20.755 E18.00468
G1 X-28.863 Y20.371 E18.02392
G1 X-27.956 Y15.589 E18.26675
G1 X-27.16 Y10.068 E18.54504
G1 X-26.682 Y4.568 E18.82047
G1 X-26.515 Y-.983 E19.09753
G1 X-26.661 Y-6.517 E19.37372
G1 X-27.122 Y-12.051 E19.65077
G1 X-27.892 Y-17.523 E19.92646
G1 X-28.761 Y-22.082 E20.15801
G1 X-28.796 Y-22.457 E20.1768
G1 X-28.797 Y-26.943 E20.4006
G1 X-28.753 Y-27.361 E20.42157
G1 X-28.573 Y-28.204 E20.46458
G1 X-28.523 Y-28.392 E20.47428
G1 X-28.074 Y-29.803 E20.54816
G1 X-27.99 Y-30.022 E20.55986
G1 X-27.359 Y-31.416 E20.6362
G1 X-27.266 Y-31.596 E20.64631
G1 X-26.507 Y-32.902 E20.72167
G1 X-26.406 Y-33.058 E20.73094
G1 X-25.606 Y-34.18 E20.79969
G1 X-25.39 Y-34.435 E20.81636
G1 X-22.161 Y-37.656 E21.0439
G1 X-21.899 Y-37.876 E21.06097
G1 X-19.757 Y-39.382 E21.1916
G1 X-19.561 Y-39.504 E21.20312
G1 X-17.122 Y-40.828 E21.34158
G1 X-16.995 Y-40.891 E21.34865
G1 X-15.725 Y-41.468 E21.41824
G1 X-15.537 Y-41.542 E21.42832
G1 X-11.137 Y-43.026 E21.65999
G1 X-10.896 Y-43.091 E21.67244
G1 X-7.522 Y-43.776 E21.84421
G1 X-7.359 Y-43.802 E21.85244
G1 X-5.109 Y-44.068 E21.96548
G1 X-4.882 Y-44.082 E21.97682
G1 X1.164 Y-44.107 E22.27846
G1 X1.419 Y-44.092 E22.29121
G1 X4.563 Y-43.7 E22.44927
G1 X4.74 Y-43.67 E22.45823
G1 X7.687 Y-43.031 E22.60867
G1 X7.917 Y-42.966 E22.6206
G1 X12.492 Y-41.382 E22.86214
G1 X12.752 Y-41.271 E22.87624
G1 X15.783 Y-39.713 E23.04627
G1 X16.003 Y-39.582 E23.05904
G1 X18.429 Y-37.913 E23.20595
G1 X18.706 Y-37.682 E23.22395
G1 X21.964 Y-34.437 E23.45336
G1 X22.166 Y-34.202 E23.46882
G1 X22.763 Y-33.387 E23.51922
G1 X22.869 Y-33.228 E23.52875
G1 X23.891 Y-31.511 E23.62844
G1 X24.014 Y-31.268 E23.64203
G1 X24.752 Y-29.525 E23.73646
G1 X24.837 Y-29.281 E23.74935
G1 X25.236 Y-27.848 E23.82357
G1 X25.297 Y-27.53 E23.83972
G1 X25.357 Y-26.984 E23.86712
G1 X25.369 Y-26.768 E23.87792
G1 X25.374 Y-22.459 E24.09289
G1 X25.36 Y-22.219 E24.10489
G1 X25.119 Y-20.208 E24.20593
G1 X24.649 Y-14.658 E24.48382
G1 X24.496 Y-9.125 E24.75996
G1 X24.655 Y-3.59 E25.03622
G0 F3000 X24.256 Y-3.563
G1 F1500 X24.73 Y1.981 E25.31382
G1 X25.517 Y7.49 E25.59146
G1 X26.617 Y12.963 E25.86997
G1 X27.277 Y15.647 E26.00786
G1 X28.188 Y18.946 E26.17861
G1 X28.209 Y19.031 E26.18298
G1 X28.475 Y20.25 E26.24522
G1 X28.512 Y20.587 E26.26214
G1 X28.523 Y25.021 E26.48335
G1 X28.494 Y25.33 E26.49884
G1 X28.199 Y26.848 E26.57599
G1 X28.158 Y27.011 E26.58437
G1 X27.806 Y28.161 E26.64437
G1 X27.733 Y28.354 E26.65467
G1 X26.714 Y30.602 E26.7778
G1 X26.615 Y30.787 E26.78827
G1 X25.591 Y32.43 E26.88486
G1 X25.51 Y32.548 E26.892
G1 X24.789 Y33.503 E26.9517
G1 X24.638 Y33.675 E26.96312
G1 X21.479 Y36.806 E27.18502
G1 X21.285 Y36.971 E27.19772
G1 X18.736 Y38.797 E27.35415
G1 X18.571 Y38.9 E27.36386
G1 X16.025 Y40.29 E27.50858
G1 X15.921 Y40.342 E27.51438
G1 X14.492 Y40.993 E27.59272
G1 X14.344 Y41.052 E27.60067
G1 X9.947 Y42.547 E27.83237
G1 X9.779 Y42.594 E27.84107
G1 X7.032 Y43.205 E27.98147
G1 X6.937 Y43.223 E27.98629
G1 X5.417 Y43.465 E28.06308
G1 X5.317 Y43.478 E28.06811
G1 X2.381 Y43.758 E28.21526
G1 X2.213 Y43.765 E28.22364
G1 X-3.026 Y43.712 E28.48503
G1 X-3.19 Y43.702 E28.49323
G1 X-5.681 Y43.42 E28.6183
G1 X-5.813 Y43.399 E28.62497
G1 X-9.362 Y42.693 E28.8055
G1 X-9.556 Y42.642 E28.81551
G1 X-14.229 Y41.083 E29.06127
G1 X-14.374 Y41.027 E29.06903
G1 X-15.766 Y40.407 E29.14505
G1 X-15.86 Y40.361 E29.15028
G1 X-17.894 Y39.291 E29.26494
G1 X-18.011 Y39.223 E29.27169
G1 X-19.76 Y38.105 E29.37525
G1 X-19.887 Y38.015 E29.38302
G1 X-21.494 Y36.752 E29.48499
G1 X-21.636 Y36.626 E29.49446
G1 X-24.757 Y33.506 E29.71463
G1 X-24.927 Y33.305 E29.72776
G1 X-25.869 Y31.989 E29.8085
G1 X-25.967 Y31.834 E29.81765
G1 X-27.111 Y29.772 E29.9353
G1 X-27.19 Y29.609 E29.94433
G1 X-27.721 Y28.329 E30.01347
G1 X-27.789 Y28.128 E30.02406
G1 X-28.418 Y25.765 E30.14605
G1 X-28.472 Y25.362 E30.16634
G1 X-28.498 Y20.753 E30.39629
G1 X-28.47 Y20.446 E30.41167
G1 X-27.561 Y15.655 E30.65495
G1 X-26.764 Y10.125 E30.9337
G1 X-26.281 Y4.579 E31.21143
G1 X-26.114 Y-.982 E31.489
G1 X-26.262 Y-6.543 E31.76654
G1 X-26.723 Y-12.088 E32.04413
G1 X-27.497 Y-17.591 E32.32138
G1 X-28.368 Y-22.157 E32.55329
G1 X-28.396 Y-22.457 E32.56832
G1 X-28.397 Y-26.943 E32.79213
G1 X-28.362 Y-27.277 E32.80888
G1 X-28.182 Y-28.12 E32.85189
G1 X-28.142 Y-28.271 E32.85968
G1 X-27.693 Y-29.682 E32.93355
G1 X-27.626 Y-29.857 E32.9429
G1 X-26.995 Y-31.251 E33.01924
G1 X-26.92 Y-31.395 E33.02734
G1 X-26.161 Y-32.701 E33.1027
G1 X-26.081 Y-32.826 E33.11011
G1 X-25.281 Y-33.948 E33.17886
G1 X-25.108 Y-34.152 E33.1922
G1 X-21.879 Y-37.373 E33.41974
G1 X-21.669 Y-37.549 E33.43341
G1 X-19.527 Y-39.055 E33.56405
G1 X-19.37 Y-39.152 E33.57325
G1 X-16.931 Y-40.476 E33.71171
G1 X-16.83 Y-40.527 E33.71735
G1 X-15.56 Y-41.104 E33.78695
G1 X-15.409 Y-41.163 E33.79503
G1 X-11.009 Y-42.647 E34.0267
G1 X-10.816 Y-42.699 E34.03667
G1 X-7.442 Y-43.384 E34.20844
G1 X-7.312 Y-43.405 E34.21501
G1 X-5.062 Y-43.671 E34.32804
G1 X-4.881 Y-43.682 E34.33709
G1 X1.165 Y-43.707 E34.63873
G1 X1.37 Y-43.695 E34.64897
G1 X4.514 Y-43.303 E34.80704
G1 X4.655 Y-43.279 E34.81418
G1 X7.602 Y-42.64 E34.96462
G1 X7.786 Y-42.588 E34.97416
G1 X12.361 Y-41.004 E35.2157
G1 X12.569 Y-40.915 E35.22699
G1 X15.6 Y-39.357 E35.39701
G1 X15.776 Y-39.252 E35.40724
G1 X18.202 Y-37.583 E35.55415
G1 X18.424 Y-37.399 E35.56853
G1 X21.682 Y-34.154 E35.79794
G1 X21.844 Y-33.965 E35.81036
G1 X22.441 Y-33.15 E35.86076
G1 X22.525 Y-33.023 E35.86836
G1 X23.547 Y-31.306 E35.96805
G1 X23.645 Y-31.112 E35.97889
G1 X24.383 Y-29.369 E36.07332
G1 X24.451 Y-29.174 E36.08363
G1 X24.85 Y-27.741 E36.15784
G1 X24.899 Y-27.487 E36.17075
G1 X24.959 Y-26.941 E36.19815
G1 X24.969 Y-26.768 E36.20679
G1 X24.974 Y-22.459 E36.42177
G1 X24.963 Y-22.267 E36.43137
G1 X24.718 Y-20.223 E36.53407
G1 X24.25 Y-14.685 E36.81135
G1 X24.095 Y-9.125 E37.08885
G1 X24.256 Y-3.563 E37.36645
G0 F3000 X23.857 Y-3.535
G1 F1500 X24.333 Y2.035 E37.64535
G1 X25.124 Y7.571 E37.92435
G1 X26.226 Y13.051 E38.20322
G1 X26.881 Y15.715 E38.34009
G1 X27.803 Y19.053 E38.51286
G1 X27.818 Y19.116 E38.51609
G1 X28.084 Y20.335 E38.57834
G1 X28.112 Y20.588 E38.59103
G1 X28.123 Y25.022 E38.81225
G1 X28.101 Y25.254 E38.82387
G1 X27.806 Y26.772 E38.90102
G1 X27.775 Y26.894 E38.9073
G1 X27.423 Y28.044 E38.96731
G1 X27.369 Y28.188 E38.97498
G1 X26.35 Y30.436 E39.09812
G1 X26.275 Y30.576 E39.10604
G1 X25.251 Y32.219 E39.20263
G1 X25.191 Y32.307 E39.20794
G1 X24.47 Y33.262 E39.26764
G1 X24.357 Y33.391 E39.2762
G1 X21.198 Y36.522 E39.49809
G1 X21.052 Y36.646 E39.50765
G1 X18.503 Y38.472 E39.66408
G1 X18.379 Y38.549 E39.67137
G1 X15.833 Y39.939 E39.81608
G1 X15.755 Y39.978 E39.82043
G1 X14.326 Y40.629 E39.89878
G1 X14.215 Y40.673 E39.90473
G1 X9.818 Y42.168 E40.13643
G1 X9.693 Y42.203 E40.14291
G1 X6.946 Y42.814 E40.28331
G1 X6.874 Y42.828 E40.28697
G1 X5.354 Y43.07 E40.36376
G1 X5.279 Y43.08 E40.36753
G1 X2.343 Y43.36 E40.51467
G1 X2.217 Y43.365 E40.52096
G1 X-3.022 Y43.312 E40.78235
G1 X-3.145 Y43.304 E40.7885
G1 X-5.636 Y43.022 E40.91357
G1 X-5.735 Y43.007 E40.91857
G1 X-9.284 Y42.301 E41.0991
G1 X-9.43 Y42.262 E41.10664
G1 X-14.103 Y40.703 E41.35241
G1 X-14.211 Y40.661 E41.35819
G1 X-15.603 Y40.041 E41.43421
G1 X-15.674 Y40.007 E41.43814
G1 X-17.708 Y38.937 E41.5528
G1 X-17.795 Y38.886 E41.55783
G1 X-19.544 Y37.768 E41.66139
G1 X-19.64 Y37.7 E41.66726
G1 X-21.247 Y36.437 E41.76923
G1 X-21.353 Y36.343 E41.7763
G1 X-24.474 Y33.223 E41.99647
G1 X-24.602 Y33.072 E42.00635
G1 X-25.544 Y31.756 E42.08709
G1 X-25.617 Y31.64 E42.09393
G1 X-26.761 Y29.578 E42.21157
G1 X-26.82 Y29.456 E42.21833
G1 X-27.351 Y28.176 E42.28747
G1 X-27.403 Y28.025 E42.29544
G1 X-28.032 Y25.662 E42.41743
G1 X-28.072 Y25.36 E42.43263
G1 X-28.098 Y20.751 E42.66258
G1 X-28.077 Y20.52 E42.67415
G1 X-27.165 Y15.715 E42.91815
G1 X-26.365 Y10.163 E43.198
G1 X-25.882 Y4.608 E43.47619
G1 X-25.714 Y-.962 E43.7542
G1 X-25.863 Y-6.57 E44.03409
G1 X-26.327 Y-12.141 E44.31299
G1 X-27.103 Y-17.66 E44.59104
G1 X-27.975 Y-22.232 E44.82325
G1 X-27.996 Y-22.457 E44.83452
G1 X-27.997 Y-26.943 E45.05833
G1 X-27.971 Y-27.194 E45.07092
G1 X-27.791 Y-28.037 E45.11393
G1 X-27.761 Y-28.15 E45.11976
G1 X-27.312 Y-29.561 E45.19363
G1 X-27.261 Y-29.692 E45.20065
G1 X-26.63 Y-31.086 E45.27699
G1 X-26.575 Y-31.194 E45.28303
G1 X-25.816 Y-32.5 E45.35839
G1 X-25.755 Y-32.594 E45.36398
G1 X-24.955 Y-33.716 E45.43273
G1 X-24.825 Y-33.869 E45.44275
G1 X-21.596 Y-37.09 E45.67029
G1 X-21.439 Y-37.222 E45.68052
G1 X-19.297 Y-38.728 E45.81116
G1 X-19.18 Y-38.801 E45.81804
G1 X-16.741 Y-40.125 E45.95649
G1 X-16.664 Y-40.163 E45.96078
G1 X-15.394 Y-40.74 E46.03037
G1 X-15.282 Y-40.784 E46.03637
G1 X-10.882 Y-42.268 E46.26804
G1 X-10.737 Y-42.307 E46.27553
G1 X-7.363 Y-42.992 E46.44729
G1 X-7.265 Y-43.008 E46.45225
G1 X-5.015 Y-43.274 E46.56528
G1 X-4.879 Y-43.282 E46.57208
G1 X1.167 Y-43.307 E46.87372
G1 X1.32 Y-43.298 E46.88137
G1 X4.464 Y-42.906 E47.03943
G1 X4.57 Y-42.888 E47.0448
G1 X7.517 Y-42.249 E47.19524
G1 X7.656 Y-42.21 E47.20244
G1 X12.231 Y-40.626 E47.44399
G1 X12.387 Y-40.559 E47.45246
G1 X15.418 Y-39.001 E47.62248
G1 X15.549 Y-38.923 E47.63009
G1 X17.975 Y-37.254 E47.777
G1 X18.142 Y-37.115 E47.78784
G1 X21.4 Y-33.87 E48.01725
G1 X21.521 Y-33.729 E48.02652
G1 X22.118 Y-32.914 E48.07692
G1 X22.181 Y-32.819 E48.08261
G1 X23.203 Y-31.102 E48.1823
G1 X23.277 Y-30.956 E48.19046
G1 X24.015 Y-29.213 E48.28489
G1 X24.066 Y-29.067 E48.29261
G1 X24.465 Y-27.634 E48.36682
G1 X24.502 Y-27.443 E48.37653
G1 X24.562 Y-26.897 E48.40393
G1 X24.569 Y-26.767 E48.41043
G1 X24.574 Y-22.458 E48.6254
G1 X24.565 Y-22.314 E48.6326
G1 X24.325 Y-20.312 E48.7332
G1 X23.851 Y-14.713 E49.01353
G1 X23.696 Y-9.125 E49.29243
G1 X23.857 Y-3.535 E49.57143
G0 F3000 X23.458 Y-3.507
G1 F1500 X23.935 Y2.074 E49.85088
G1 X24.729 Y7.635 E50.13113
G1 X25.832 Y13.12 E50.41026
G1 X26.5 Y15.84 E50.54999
G1 X27.417 Y19.159 E50.72178
G1 X27.428 Y19.201 E50.72395
G1 X27.694 Y20.42 E50.78619
G1 X27.712 Y20.589 E50.79467
G1 X27.723 Y25.023 E51.01589
G1 X27.708 Y25.178 E51.02366
G1 X27.413 Y26.696 E51.10081
G1 X27.393 Y26.777 E51.10497
G1 X27.041 Y27.927 E51.16497
G1 X27.005 Y28.023 E51.17009
G1 X25.986 Y30.271 E51.29322
G1 X25.936 Y30.364 E51.29849
G1 X24.912 Y32.007 E51.39508
