(MHSIEH_ASSIGN06)
(T1  D=3.175 CR=0. - ZMIN=26.7 - FLAT END MILL)
G0 G90 G94 G17
G21
G53 G0 Z0.

(ADAPTIVE1)
M5
M9
T1
S16500 M3
G4 P4.
G55
G0 X119.352 Y971.23
Z53.7
Z43.7
Z41.2
G3 X121.535 Y969.149 Z41.035 I1.092 J-1.04 F1016.
X119.352 Y971.23 Z40.869 I-1.092 J1.04
X121.535 Y969.149 Z40.704 I1.092 J-1.04
X119.352 Y971.23 Z40.538 I-1.092 J1.04
X121.535 Y969.149 Z40.373 I1.092 J-1.04
X119.352 Y971.23 Z40.207 I-1.092 J1.04
X121.535 Y969.149 Z40.042 I1.092 J-1.04
X119.352 Y971.23 Z39.876 I-1.092 J1.04
X121.535 Y969.149 Z39.711 I1.092 J-1.04
X119.352 Y971.23 Z39.545 I-1.092 J1.04
X121.535 Y969.149 Z39.38 I1.092 J-1.04
X119.352 Y971.23 Z39.215 I-1.092 J1.04
X121.535 Y969.149 Z39.049 I1.092 J-1.04
X119.352 Y971.23 Z38.884 I-1.092 J1.04
X121.535 Y969.149 Z38.718 I1.092 J-1.04
X119.352 Y971.23 Z38.553 I-1.092 J1.04
X121.535 Y969.149 Z38.387 I1.092 J-1.04
X119.352 Y971.23 Z38.222 I-1.092 J1.04
X121.535 Y969.149 Z38.056 I1.092 J-1.04
X119.352 Y971.23 Z37.891 I-1.092 J1.04
X121.535 Y969.149 Z37.726 I1.092 J-1.04
X119.352 Y971.23 Z37.56 I-1.092 J1.04
X121.535 Y969.149 Z37.395 I1.092 J-1.04
X119.352 Y971.23 Z37.229 I-1.092 J1.04
X121.535 Y969.149 Z37.064 I1.092 J-1.04
X119.352 Y971.23 Z36.898 I-1.092 J1.04
X121.535 Y969.149 Z36.733 I1.092 J-1.04
X119.352 Y971.23 Z36.567 I-1.092 J1.04
X121.535 Y969.149 Z36.402 I1.092 J-1.04
X119.352 Y971.23 Z36.236 I-1.092 J1.04
X121.535 Y969.149 Z36.071 I1.092 J-1.04
X119.352 Y971.23 Z35.906 I-1.092 J1.04
X121.535 Y969.149 Z35.74 I1.092 J-1.04
X121.951 Y970.189 Z35.7 I-1.092 J1.04
X118.935 I-1.508 J0.
X121.951 I1.508 J0.
G1 X121.971 Y970.927
X121.993 Y971.016
X122.008 Y971.166
X121.995 Y971.315
X121.96 Y971.461
X121.905 Y971.6
X121.833 Y971.732
X121.748 Y971.855
X121.65 Y971.969
X121.541 Y972.072
X121.423 Y972.165
X121.297 Y972.247
X121.165 Y972.318
X121.027 Y972.378
X120.88 Y972.429
X120.726 Y972.468
X120.566 Y972.496
X120.401 Y972.51
X120.232 Y972.512
X120.061 Y972.5
X119.89 Y972.474
X119.718 Y972.433
X119.549 Y972.379
X119.382 Y972.31
X119.221 Y972.227
X119.065 Y972.131
X118.916 Y972.022
X118.776 Y971.9
X118.645 Y971.767
X118.525 Y971.624
X118.416 Y971.47
X118.32 Y971.308
X118.237 Y971.137
X118.167 Y970.96
X118.112 Y970.778
X118.071 Y970.591
X118.045 Y970.402
X118.035 Y970.21
X118.04 Y970.018
X118.061 Y969.827
X118.097 Y969.638
X118.148 Y969.452
X118.213 Y969.271
X118.294 Y969.095
X118.388 Y968.927
X118.495 Y968.766
X118.615 Y968.615
X118.747 Y968.473
X118.889 Y968.342
X119.042 Y968.224
X119.204 Y968.118
X119.374 Y968.025
X119.551 Y967.946
X119.734 Y967.882
X119.921 Y967.832
X120.112 Y967.798
X120.305 Y967.779
X120.498 Y967.775
X120.692 Y967.787
X120.884 Y967.815
X121.073 Y967.858
X121.258 Y967.916
X121.438 Y967.989
X121.611 Y968.076
X121.777 Y968.176
X121.934 Y968.29
X122.082 Y968.415
X122.219 Y968.553
X122.344 Y968.7
X122.458 Y968.858
X122.562 Y969.03
X122.673 Y969.253
X122.82 Y969.617
X122.928 Y969.96
X122.992 Y970.243
X123.028 Y970.498
X123.043 Y970.736
X123.039 Y970.959
X123.018 Y971.172
X122.98 Y971.379
X122.926 Y971.581
X122.857 Y971.778
X122.772 Y971.969
X122.672 Y972.152
X122.557 Y972.327
X122.427 Y972.493
X122.283 Y972.65
X122.125 Y972.797
X121.954 Y972.933
X121.769 Y973.056
X121.573 Y973.165
X121.365 Y973.26
X121.147 Y973.339
X120.92 Y973.401
X120.686 Y973.445
X120.446 Y973.471
X120.202 Y973.477
X119.956 Y973.463
X119.709 Y973.43
X119.463 Y973.376
X119.221 Y973.302
X118.983 Y973.208
X118.752 Y973.095
X118.529 Y972.963
X118.316 Y972.812
X118.115 Y972.643
X117.928 Y972.458
X117.754 Y972.258
X117.597 Y972.044
X117.457 Y971.816
X117.335 Y971.578
X117.233 Y971.329
X117.15 Y971.073
X117.088 Y970.81
X117.048 Y970.542
X117.029 Y970.271
X117.032 Y969.999
X117.056 Y969.728
X117.103 Y969.459
X117.171 Y969.195
X117.259 Y968.937
X117.369 Y968.686
X117.498 Y968.445
X117.647 Y968.215
X117.813 Y967.997
X117.997 Y967.793
X118.196 Y967.605
X118.41 Y967.433
X118.638 Y967.279
X118.876 Y967.143
X119.126 Y967.027
X119.383 Y966.931
X119.648 Y966.857
X119.917 Y966.803
X120.191 Y966.772
X120.466 Y966.763
X120.74 Y966.775
X121.013 Y966.81
X121.282 Y966.867
X121.546 Y966.945
X121.803 Y967.044
X122.051 Y967.163
X122.289 Y967.302
X122.515 Y967.459
X122.728 Y967.635
X122.935 Y967.835
X123.149 Y968.078
X123.351 Y968.349
X123.537 Y968.646
X123.702 Y968.962
X123.839 Y969.287
X123.947 Y969.614
X124.026 Y969.938
X124.077 Y970.258
X124.102 Y970.574
X124.101 Y970.886
X124.076 Y971.194
X124.026 Y971.495
X123.953 Y971.789
X123.858 Y972.075
X123.74 Y972.351
X123.6 Y972.616
X123.44 Y972.87
X123.259 Y973.111
X123.058 Y973.337
X122.839 Y973.548
X122.601 Y973.742
X122.347 Y973.918
X122.078 Y974.073
X121.794 Y974.208
X121.498 Y974.321
X121.191 Y974.41
X120.875 Y974.475
X120.553 Y974.515
X120.225 Y974.529
X119.896 Y974.516
X119.566 Y974.477
X119.238 Y974.411
X118.914 Y974.318
X118.597 Y974.199
X118.289 Y974.054
X117.991 Y973.884
X117.707 Y973.689
X117.438 Y973.471
X117.187 Y973.232
X116.954 Y972.971
X116.742 Y972.692
X116.553 Y972.396
X116.387 Y972.084
X116.247 Y971.759
X116.133 Y971.423
X116.046 Y971.078
X115.986 Y970.727
X115.956 Y970.371
X115.953 Y970.014
X115.98 Y969.656
X116.035 Y969.302
X116.119 Y968.953
X116.23 Y968.611
X116.369 Y968.279
X116.533 Y967.959
X116.724 Y967.653
X116.938 Y967.363
X117.175 Y967.092
X117.433 Y966.839
X117.711 Y966.609
X118.006 Y966.401
X118.317 Y966.218
X118.642 Y966.06
X118.979 Y965.928
X119.325 Y965.825
X119.679 Y965.749
X120.037 Y965.702
X120.398 Y965.683
X120.76 Y965.694
X121.12 Y965.734
X121.475 Y965.802
X121.823 Y965.899
X122.163 Y966.024
X122.492 Y966.175
X122.811 Y966.354
X123.123 Y966.564
X123.426 Y966.806
X123.718 Y967.08
X123.995 Y967.384
X124.251 Y967.715
X124.481 Y968.069
X124.682 Y968.44
X124.852 Y968.824
X124.989 Y969.218
X125.093 Y969.617
X125.165 Y970.021
X125.203 Y970.424
X125.209 Y970.827
X125.183 Y971.225
X125.125 Y971.617
X125.036 Y972.002
X124.917 Y972.376
X124.769 Y972.74
X124.593 Y973.089
X124.389 Y973.424
X124.158 Y973.741
X123.902 Y974.04
X123.621 Y974.318
X123.318 Y974.575
X122.994 Y974.807
X122.65 Y975.013
X122.289 Y975.192
X121.912 Y975.343
X121.885 Y975.351
X121.813 Y975.369
X121.74 Y975.38
X121.666 Y975.384
X119.472
X119.179 Y975.37
X118.886 Y975.331
X118.57 Y975.264
X118.239 Y975.165
X117.901 Y975.033
X117.566 Y974.87
X117.237 Y974.677
X116.914 Y974.45
X116.602 Y974.19
X116.304 Y973.9
X116.027 Y973.582
X115.772 Y973.238
X115.544 Y972.871
X115.344 Y972.484
X115.307 Y972.394
X115.275 Y972.302
X115.256 Y972.206
X115.249 Y972.108
G3 X115.758 Y971.866 I0.317 J0.011
G1 X115.832 Y971.922
X119.649 Y974.811
X119.653 Y974.814
G3 X119.472 Y975.384 I-0.192 J0.253
G1 X117.461
X117.262 Y975.374
X117.091 Y975.352
X116.916 Y975.314
X116.709 Y975.252
X116.502 Y975.172
X116.262 Y975.056
X116.025 Y974.916
X115.768 Y974.735
X115.496 Y974.51
X115.473 Y974.487
X115.352 Y974.332
X115.275 Y974.151
X115.249 Y973.957
G3 X115.727 Y973.693 I0.317 J0.011
G1 X115.839 Y973.759
X117.61 Y974.793
G3 X117.461 Y975.384 I-0.16 J0.274
G1 X115.953
X115.804 Y975.377
X115.627 Y975.324
X115.472 Y975.223
X115.352 Y975.083
X115.275 Y974.916
X115.249 Y974.733
G3 X115.773 Y974.503 I0.317 J0.011
G1 X115.828 Y974.55
X116.131 Y974.81
X116.149 Y974.826
G3 X115.953 Y975.384 I-0.207 J0.241
G1 X115.618
X115.535 Y975.381
X115.493 Y975.371
X115.451 Y975.356
X115.421 Y975.34
X115.391 Y975.32
X115.362 Y975.296
X115.332 Y975.268
X115.304 Y975.232
X115.283 Y975.197
X115.264 Y975.149
X115.253 Y975.1
X115.249 Y974.933
Y969.069
X115.265 Y968.76
X115.299 Y968.502
X115.36 Y968.217
X115.452 Y967.909
X115.572 Y967.602
X115.724 Y967.288
X115.913 Y966.967
X116.137 Y966.647
X116.395 Y966.336
X116.685 Y966.039
X117.004 Y965.761
X117.349 Y965.506
X117.718 Y965.276
X118.107 Y965.075
X118.514 Y964.905
X118.936 Y964.767
X119.37 Y964.663
X119.812 Y964.594
X120.26 Y964.561
X120.71 Y964.563
X121.159 Y964.602
X121.603 Y964.677
X122.041 Y964.787
X122.471 Y964.933
X122.891 Y965.114
X123.3 Y965.331
X123.698 Y965.585
X124.081 Y965.876
X124.447 Y966.202
X124.79 Y966.562
X124.856 Y966.644
X124.928 Y966.749
X124.98 Y966.866
X125.012 Y966.989
X125.051 Y967.226
X125.081 Y967.394
X125.19 Y967.896
X125.337 Y968.438
X125.431 Y968.734
X125.485 Y968.902
X125.504 Y968.956
X125.611 Y969.237
X125.674 Y969.404
X125.741 Y969.572
X125.89 Y969.907
X125.989 Y970.163
X126.061 Y970.402
X126.115 Y970.657
X126.153 Y970.956
X126.169 Y971.274
X126.158 Y971.612
X126.116 Y971.979
X126.041 Y972.367
X125.929 Y972.766
X125.782 Y973.164
X125.6 Y973.558
X125.38 Y973.947
X125.123 Y974.326
X124.832 Y974.691
X124.507 Y975.035
X124.333 Y975.193
X124.185 Y975.297
X124.016 Y975.362
X123.836 Y975.384
X121.666
G3 X121.427 Y974.871 I0.011 J-0.317
G1 X121.481 Y974.803
X125.267 Y969.963
X125.355 Y969.851
G3 X125.89 Y969.907 I0.25 J0.196
G1 X125.965 Y970.074
X126.007 Y970.159
X126.224 Y970.577
X126.342 Y970.783
X126.516 Y971.079
X126.621 Y971.247
X126.697 Y971.376
X126.756 Y971.514
X126.808 Y971.674
X126.852 Y971.857
X126.884 Y972.06
X126.902 Y972.297
X126.901 Y972.551
X126.876 Y972.838
X126.823 Y973.158
X126.741 Y973.485
X126.618 Y973.849
X126.45 Y974.239
X126.246 Y974.625
X126.004 Y975.005
X125.94 Y975.09
X125.776 Y975.248
X125.573 Y975.349
X125.349 Y975.384
X123.836
G3 X123.586 Y974.886 I0.011 J-0.317
G1 X123.647 Y974.799
X126.001 Y971.396
X126.101 Y971.251
G3 X126.621 Y971.247 I0.261 J0.181
G1 X126.845 Y971.586
X126.957 Y971.75
X127.081 Y971.917
X127.21 Y972.085
X127.282 Y972.177
X127.369 Y972.299
X127.438 Y972.433
X127.493 Y972.572
X127.539 Y972.72
X127.579 Y972.902
X127.605 Y973.092
X127.619 Y973.322
X127.613 Y973.561
X127.584 Y973.846
X127.53 Y974.135
X127.441 Y974.464
X127.346 Y974.731
X127.232 Y974.981
X127.221 Y975.002
X127.104 Y975.16
X126.949 Y975.281
X126.768 Y975.358
X126.573 Y975.384
X125.349
G3 X125.09 Y974.898 I0.011 J-0.317
G1 X125.154 Y974.797
X126.671 Y972.372
X126.77 Y972.213
G3 X127.282 Y972.177 I0.269 J0.168
G1 X127.348 Y972.26
X127.623 Y972.587
X127.683 Y972.656
X127.77 Y972.755
X127.85 Y972.84
X127.93 Y972.922
X128.028 Y973.035
X128.11 Y973.161
X128.177 Y973.295
X128.232 Y973.435
X128.28 Y973.592
X128.318 Y973.77
X128.343 Y973.959
X128.355 Y974.172
X128.349 Y974.365
X128.328 Y974.557
X128.294 Y974.736
X128.252 Y974.89
X128.249 Y974.897
X128.141 Y975.094
X127.978 Y975.25
X127.776 Y975.35
X127.553 Y975.384
G3 X127.248 Y975.043 I0.011 J-0.317
G1 X127.268 Y974.77
X127.387 Y973.193
X127.392 Y973.127
G3 X127.93 Y972.922 I0.317 J0.024
G1 X128.185 Y973.188
X128.258 Y973.257
X128.353 Y973.346
X128.625 Y973.592
X128.731 Y973.699
X128.819 Y973.82
X128.892 Y973.951
X128.952 Y974.089
X128.997 Y974.232
X129.028 Y974.378
X129.044 Y974.528
X129.047 Y974.678
X129.044 Y974.71
X128.993 Y974.922
X128.881 Y975.11
X128.72 Y975.258
X128.522 Y975.352
X128.306 Y975.384
G3 X128.001 Y975.04 I0.011 J-0.317
G1 X128.023 Y974.77
X128.096 Y973.899
X128.104 Y973.809
G3 X128.625 Y973.592 I0.316 J0.026
G1 X128.688 Y973.65
X128.856 Y973.794
X129.023 Y973.932
X129.23 Y974.095
X129.345 Y974.191
X129.459 Y974.396
X129.502 Y974.627
X129.47 Y974.86
X129.368 Y975.071
X129.204 Y975.239
X128.995 Y975.347
X128.764 Y975.384
G3 X128.478 Y974.953 I0.011 J-0.317
G1 X128.544 Y974.784
X128.677 Y974.438
X128.752 Y974.242
G3 X129.23 Y974.095 I0.296 J0.114
G1 X129.358 Y974.191
X129.526 Y974.313
X129.617 Y974.377
X129.734 Y974.47
X129.824 Y974.66
X129.84 Y974.869
X129.78 Y975.07
X129.652 Y975.237
X129.473 Y975.346
X129.267 Y975.384
G3 X128.978 Y975.282 I0.018 J-0.509
X129.617 Y974.377 I0.333 J-0.442
G1 X129.694 Y974.432
X129.943 Y974.598
X130.064 Y974.687
X130.127 Y974.834
X130.134 Y974.995
X130.084 Y975.148
X129.984 Y975.273
X129.846 Y975.356
X129.688 Y975.384
X129.614 Y975.375
X129.543 Y975.351
X129.477 Y975.315
G3 X129.943 Y974.598 I0.242 J-0.352
G1 X130.029 Y974.654
X130.211 Y974.765
X130.239 Y974.784
X130.262 Y974.799
X130.297 Y974.834
X130.32 Y974.862
X130.341 Y974.891
G3 X129.969 Y975.053 I-0.186 J0.081
X130.056 Y974.795 I0.186 J-0.081
G1 X130.106 Y974.775
X130.159 Y974.769
X130.213 Y974.777
X130.262 Y974.799
X130.287 Y974.821
X130.313 Y974.849
X130.341 Y974.891
X130.364 Y974.939
X130.376 Y974.979
X130.382 Y975.02
X130.383 Y975.06
X130.379 Y975.1
X130.373 Y975.129
X130.364 Y975.158
X130.352 Y975.185
X130.337 Y975.213
X130.297 Y975.268
X130.272 Y975.295
X130.246 Y975.317
X130.221 Y975.335
X130.196 Y975.349
X130.154 Y975.367
X130.112 Y975.378
X130.071 Y975.384
X129.861
X126.573
X126.524 Y975.379
X126.476 Y975.366
X126.432 Y975.346
X125.872 Y975.04
X115.815 Y969.555
X115.415 Y969.337
G3 X115.249 Y969.069 I0.152 J-0.279
G1 Y967.059
X115.257 Y966.909
X115.281 Y966.748
X115.323 Y966.565
X115.387 Y966.365
X115.475 Y966.152
X115.592 Y965.922
X115.744 Y965.673
X115.924 Y965.427
X116.153 Y965.161
X116.424 Y964.893
X116.723 Y964.642
X117.071 Y964.394
X117.462 Y964.16
X117.89 Y963.949
X118.349 Y963.767
X118.833 Y963.619
X119.337 Y963.508
X119.854 Y963.436
X120.381 Y963.406
X120.913 Y963.419
X121.446 Y963.475
X121.976 Y963.574
X122.5 Y963.716
X123.016 Y963.901
X123.52 Y964.13
X124.01 Y964.402
X124.484 Y964.716
X124.599 Y964.807
X124.749 Y964.966
X124.846 Y965.162
X124.881 Y965.378
X124.887 Y965.718
X124.918 Y966.221
X124.932 Y966.389
X124.972 Y966.724
X124.995 Y966.891
X125.012 Y966.989
G3 X124.697 Y967.348 I-0.315 J0.041
G1 X124.451
X115.864 Y967.365
X115.567
G3 X115.249 Y967.059 I0. J-0.318
G1 Y965.626
X115.257 Y965.477
X115.28 Y965.328
X115.315 Y965.178
X115.371 Y965.006
X115.447 Y964.825
X115.549 Y964.626
X115.678 Y964.418
X115.844 Y964.193
X116.04 Y963.967
X116.292 Y963.721
X116.572 Y963.488
X116.907 Y963.252
X117.3 Y963.02
X117.744 Y962.804
X118.215 Y962.62
X118.725 Y962.466
X119.276 Y962.347
X119.856 Y962.27
X120.455 Y962.239
X121.066 Y962.257
X121.683 Y962.325
X122.3 Y962.443
X122.911 Y962.612
X123.514 Y962.833
X124.102 Y963.102
X124.466 Y963.307
X124.613 Y963.406
X124.701 Y963.475
X124.778 Y963.556
X124.841 Y963.648
X124.923 Y963.792
X124.939 Y963.834
X124.949 Y963.876
X124.954 Y963.917
Y963.959
X124.93 Y964.211
X124.904 Y964.546
X124.894 Y964.713
X124.883 Y965.048
X124.879 Y965.216
X124.881 Y965.378
G3 X124.572 Y965.689 I-0.317 J-0.006
G1 X124.271 Y965.697
X115.864 Y965.925
X115.575 Y965.933
G3 X115.249 Y965.626 I-0.009 J-0.317
G1 Y964.378
X115.258 Y964.206
X115.277 Y964.057
X115.311 Y963.911
X115.361 Y963.751
X115.428 Y963.588
X115.524 Y963.399
X115.637 Y963.214
X115.793 Y963.
X115.97 Y962.793
X116.203 Y962.562
X116.47 Y962.337
X116.786 Y962.111
X117.169 Y961.882
X117.597 Y961.67
X118.065 Y961.483
X118.601 Y961.318
X119.191 Y961.187
X119.822 Y961.099
X120.484 Y961.061
X121.167 Y961.076
X121.861 Y961.147
X122.559 Y961.277
X123.253 Y961.464
X123.531 Y961.563
X123.703 Y961.652
X123.846 Y961.782
X123.951 Y961.945
X124.071 Y962.2
X124.164 Y962.389
X124.332 Y962.724
X124.409 Y962.87
X124.667 Y963.348
X124.841 Y963.648
G3 X124.581 Y964.115 I-0.28 J0.15
G1 X124.431 Y964.125
X115.864 Y964.666
X115.587 Y964.684
G3 X115.249 Y964.378 I-0.02 J-0.317
G1 Y963.038
X115.257 Y962.888
X115.285 Y962.741
X115.327 Y962.594
X115.385 Y962.438
X115.467 Y962.262
X115.568 Y962.086
X115.707 Y961.883
X115.866 Y961.686
X116.076 Y961.465
X116.316 Y961.249
X116.608 Y961.027
X116.968 Y960.796
X117.354 Y960.59
X117.823 Y960.387
X118.368 Y960.201
X118.973 Y960.047
X119.603 Y959.94
X120.291 Y959.879
X121.026 Y959.874
X121.762 Y959.927
X122.491 Y960.037
X122.846 Y960.118
X123.016 Y960.179
X123.166 Y960.279
X123.287 Y960.413
X123.372 Y960.572
X123.494 Y960.881
X123.552 Y961.028
X123.619 Y961.195
X123.835 Y961.698
X123.951 Y961.945
G3 X123.697 Y962.385 I-0.292 J0.125
G1 X123.503 Y962.408
X115.862 Y963.312
X115.604 Y963.342
G3 X115.249 Y963.038 I-0.037 J-0.315
G1 Y961.865
X115.257 Y961.715
X115.28 Y961.567
X115.318 Y961.422
X115.373 Y961.265
X115.443 Y961.108
X115.543 Y960.924
X115.661 Y960.743
X115.82 Y960.538
X116.001 Y960.341
X116.241 Y960.117
X116.505 Y959.908
X116.844 Y959.68
X117.238 Y959.46
X117.685 Y959.256
X118.216 Y959.063
X118.827 Y958.895
X119.485 Y958.769
X120.186 Y958.693
X120.924 Y958.673
X121.661 Y958.709
X122.156 Y958.769
X122.376 Y958.814
X122.562 Y958.879
X122.725 Y958.99
X122.852 Y959.14
X122.936 Y959.319
X122.999 Y959.52
X123.168 Y960.022
X123.227 Y960.19
X123.326 Y960.452
X123.372 Y960.572
G3 X123.122 Y960.99 I-0.3 J0.105
G1 X122.895 Y961.026
X115.861 Y962.129
X115.616 Y962.168
G3 X115.249 Y961.865 I-0.049 J-0.314
G1 Y960.692
X115.257 Y960.543
X115.277 Y960.394
X115.313 Y960.248
X115.361 Y960.103
X115.43 Y959.944
X115.522 Y959.769
X115.635 Y959.59
X115.786 Y959.389
X115.962 Y959.192
X116.187 Y958.976
X116.45 Y958.76
X116.769 Y958.54
X117.168 Y958.31
X117.595 Y958.107
X118.122 Y957.907
X118.735 Y957.729
X119.41 Y957.59
X120.127 Y957.502
X120.864 Y957.471
X121.418 Y957.49
X121.797 Y957.533
X122.069 Y957.586
X122.246 Y957.662
X122.398 Y957.781
X122.514 Y957.936
X122.586 Y958.115
X122.656 Y958.386
X122.742 Y958.682
X122.823 Y958.96
X122.936 Y959.319
G3 X122.686 Y959.715 I-0.306 J0.084
G1 X122.432 Y959.762
X115.86 Y960.951
X115.623 Y960.994
G3 X115.249 Y960.692 I-0.057 J-0.312
G1 Y959.52
X115.257 Y959.362
X115.277 Y959.213
X115.312 Y959.067
X115.359 Y958.924
X115.428 Y958.761
X115.515 Y958.595
X115.63 Y958.41
X115.775 Y958.216
X115.956 Y958.012
X116.171 Y957.803
X116.443 Y957.579
X116.75 Y957.366
X117.15 Y957.133
X117.586 Y956.924
X118.109 Y956.723
X118.728 Y956.54
X119.42 Y956.395
X120.118 Y956.307
X120.743 Y956.279
X121.183 Y956.294
X121.511 Y956.332
X121.75 Y956.379
X121.784 Y956.389
X121.968 Y956.469
X122.123 Y956.596
X122.239 Y956.76
X122.307 Y956.949
X122.354 Y957.174
X122.391 Y957.342
X122.516 Y957.844
X122.586 Y958.115
G3 X122.337 Y958.495 I-0.31 J0.068
G1 X122.063 Y958.549
X115.859 Y959.774
X115.628 Y959.82
G3 X115.249 Y959.52 I-0.062 J-0.311
G1 Y958.347
X115.258 Y958.175
X115.277 Y958.026
X115.312 Y957.881
X115.359 Y957.738
X115.429 Y957.574
X115.514 Y957.41
X115.631 Y957.223
X115.774 Y957.031
X115.956 Y956.825
X116.171 Y956.617
X116.446 Y956.39
X116.752 Y956.177
X117.153 Y955.943
X117.595 Y955.731
X118.125 Y955.527
X118.743 Y955.344
X119.398 Y955.207
X120.018 Y955.128
X120.568 Y955.103
X120.938 Y955.115
X121.25 Y955.151
X121.48 Y955.197
X121.555 Y955.218
X121.746 Y955.302
X121.905 Y955.436
X122.021 Y955.609
X122.084 Y955.808
X122.145 Y956.169
X122.153 Y956.213
X122.307 Y956.949
G3 X122.059 Y957.314 I-0.313 J0.054
G1 X121.768 Y957.375
X115.859 Y958.6
X115.631 Y958.647
G3 X115.249 Y958.347 I-0.064 J-0.311
G1 Y957.082
X115.257 Y956.932
X115.283 Y956.785
X115.323 Y956.64
X115.378 Y956.49
X115.456 Y956.321
X115.552 Y956.152
X115.685 Y955.954
X115.837 Y955.764
X116.043 Y955.546
X116.27 Y955.339
X116.57 Y955.109
X116.909 Y954.889
X117.324 Y954.665
X117.83 Y954.443
X118.374 Y954.254
X118.963 Y954.101
X119.563 Y953.995
X120.084 Y953.947
X120.532 Y953.941
X120.862 Y953.963
X121.129 Y954.003
X121.353 Y954.055
X121.399 Y954.07
X121.587 Y954.16
X121.742 Y954.3
X121.852 Y954.477
X121.909 Y954.677
X121.951 Y954.996
X121.976 Y955.164
X122.084 Y955.808
G3 X121.831 Y956.161 I-0.315 J0.042
G1 X121.53 Y956.22
X115.86 Y957.337
X115.628 Y957.383
G3 X115.249 Y957.082 I-0.061 J-0.312
G1 Y955.909
X115.257 Y955.76
X115.281 Y955.612
X115.319 Y955.467
X115.374 Y955.314
X115.446 Y955.154
X115.546 Y954.973
X115.665 Y954.794
X115.826 Y954.587
X116.009 Y954.389
X116.256 Y954.161
X116.529 Y953.947
X116.875 Y953.718
X117.288 Y953.49
X117.734 Y953.289
X118.259 Y953.101
X118.816 Y952.951
X119.372 Y952.849
X119.882 Y952.796
X120.319 Y952.786
X120.641 Y952.805
X120.929 Y952.845
X121.145 Y952.893
X121.255 Y952.927
X121.449 Y953.02
X121.608 Y953.164
X121.719 Y953.348
X121.773 Y953.556
X121.82 Y953.991
X121.906 Y954.661
X121.909 Y954.677
G3 X121.654 Y955.02 I-0.316 J0.031
G1 X121.343 Y955.081
X115.859 Y956.164
X115.628 Y956.21
G3 X115.249 Y955.909 I-0.062 J-0.312
G1 Y954.737
X115.257 Y954.587
X115.279 Y954.439
X115.316 Y954.293
X115.367 Y954.145
X115.437 Y953.985
X115.532 Y953.807
X115.648 Y953.627
X115.805 Y953.422
X115.984 Y953.224
X116.217 Y953.004
X116.485 Y952.789
X116.81 Y952.568
X117.209 Y952.342
X117.635 Y952.144
X118.123 Y951.963
X118.651 Y951.815
X119.182 Y951.71
X119.674 Y951.654
X120.105 Y951.639
X120.446 Y951.655
X120.75 Y951.694
X120.972 Y951.741
X121.193 Y951.807
X121.201 Y951.81
X121.381 Y951.91
X121.527 Y952.056
X121.627 Y952.237
X121.672 Y952.439
X121.75 Y953.321
X121.77 Y953.526
X121.773 Y953.556
G3 X121.517 Y953.891 I-0.317 J0.023
G1 X121.198 Y953.953
X115.86 Y954.992
X115.627 Y955.037
G3 X115.249 Y954.737 I-0.061 J-0.312
G1 Y953.564
X115.257 Y953.414
X115.277 Y953.266
X115.312 Y953.12
X115.359 Y952.977
X115.427 Y952.816
X115.517 Y952.645
X115.63 Y952.464
X115.779 Y952.266
X115.955 Y952.066
X116.174 Y951.855
X116.439 Y951.637
X116.742 Y951.426
X117.117 Y951.208
X117.539 Y951.006
X117.994 Y950.831
X118.492 Y950.685
X119.002 Y950.578
X119.484 Y950.518
X119.915 Y950.498
X120.302 Y950.512
X120.591 Y950.546
X120.843 Y950.596
X121.047 Y950.653
X121.132 Y950.685
X121.32 Y950.789
X121.471 Y950.942
X121.571 Y951.132
X121.613 Y951.343
X121.662 Y952.316
X121.672 Y952.439
G3 X121.414 Y952.766 I-0.317 J0.015
G1 X121.089 Y952.828
X115.86 Y953.82
X115.626 Y953.865
G3 X115.249 Y953.564 I-0.059 J-0.312
G1 Y952.316
X115.257 Y952.166
X115.284 Y952.018
X115.325 Y951.874
X115.381 Y951.723
X115.459 Y951.556
X115.557 Y951.385
X115.689 Y951.192
X115.842 Y951.002
X116.042 Y950.791
X116.272 Y950.585
X116.551 Y950.373
X116.891 Y950.155
X117.256 Y949.96
X117.682 Y949.775
X118.152 Y949.615
X118.64 Y949.491
X119.13 Y949.408
X119.592 Y949.367
X120.009 Y949.364
X120.341 Y949.388
X120.638 Y949.433
X120.864 Y949.487
X121.073 Y949.555
X121.123 Y949.576
X121.308 Y949.686
X121.453 Y949.845
X121.546 Y950.039
X121.579 Y950.252
X121.584 Y950.641
X121.587 Y950.808
X121.613 Y951.343
G3 X121.348 Y951.661 I-0.317 J0.005
G1 X121.018 Y951.716
X115.861 Y952.578
X115.619 Y952.618
G3 X115.249 Y952.316 I-0.052 J-0.313
G1 Y951.143
X115.257 Y950.993
X115.282 Y950.846
X115.322 Y950.701
X115.377 Y950.552
X115.451 Y950.391
X115.551 Y950.214
X115.672 Y950.034
X115.828 Y949.839
X116.014 Y949.641
X116.241 Y949.436
X116.518 Y949.222
X116.823 Y949.024
X117.193 Y948.824
X117.616 Y948.638
X118.067 Y948.481
X118.54 Y948.358
X119.019 Y948.274
X119.472 Y948.231
X119.892 Y948.226
X120.267 Y948.251
X120.555 Y948.294
X120.808 Y948.352
X121.007 Y948.416
X121.109 Y948.457
X121.295 Y948.568
X121.442 Y948.728
X121.536 Y948.924
X121.569 Y949.138
X121.573 Y949.635
X121.579 Y950.252
G3 X121.311 Y950.558 I-0.317 J-0.008
G1 X120.972 Y950.611
X115.861 Y951.407
X115.616 Y951.446
G3 X115.249 Y951.143 I-0.049 J-0.314
G1 Y949.97
X115.257 Y949.821
X115.282 Y949.673
X115.322 Y949.528
X115.375 Y949.383
X115.449 Y949.221
X115.543 Y949.053
X115.665 Y948.871
X115.815 Y948.683
X116.003 Y948.483
X116.221 Y948.284
X116.497 Y948.071
X116.796 Y947.876
X117.152 Y947.683
X117.562 Y947.501
X118.007 Y947.346
X118.472 Y947.224
X118.945 Y947.14
X119.399 Y947.096
X119.826 Y947.09
X120.212 Y947.115
X120.51 Y947.159
X120.777 Y947.22
X120.98 Y947.284
X121.188 Y947.369
X121.359 Y947.488
X121.49 Y947.651
X121.571 Y947.843
X121.595 Y948.051
X121.57 Y948.965
X121.569 Y949.138
G3 X121.298 Y949.443 I-0.317 J-0.009
G1 X120.96 Y949.493
X115.862 Y950.237
X115.612 Y950.273
G3 X115.249 Y949.97 I-0.046 J-0.314
G1 Y948.798
X115.257 Y948.648
X115.282 Y948.5
X115.323 Y948.356
X115.375 Y948.213
X115.451 Y948.049
X115.544 Y947.885
X115.669 Y947.701
X115.814 Y947.519
X116.005 Y947.317
X116.217 Y947.125
X116.488 Y946.917
X116.792 Y946.72
X117.139 Y946.534
X117.54 Y946.357
X117.981 Y946.205
X118.445 Y946.085
X118.917 Y946.003
X119.372 Y945.961
X119.805 Y945.956
X120.204 Y945.983
X120.52 Y946.031
X120.794 Y946.094
X121.01 Y946.164
X121.204 Y946.243
X121.231 Y946.257
X121.405 Y946.38
X121.537 Y946.547
X121.616 Y946.745
X121.635 Y946.957
X121.617 Y947.29
X121.611 Y947.457
X121.595 Y948.051
G3 X121.32 Y948.346 I-0.317 J-0.02
G1 X120.974 Y948.391
X115.862 Y949.068
X115.608 Y949.101
G3 X115.249 Y948.798 I-0.042 J-0.315
G1 Y947.625
X115.257 Y947.475
X115.284 Y947.328
X115.325 Y947.183
X115.379 Y947.041
X115.457 Y946.877
X115.55 Y946.714
X115.677 Y946.529
X115.823 Y946.35
X116.015 Y946.149
X116.228 Y945.959
X116.496 Y945.757
X116.806 Y945.56
X117.149 Y945.378
X117.548 Y945.207
X117.988 Y945.058
X118.453 Y944.942
X118.929 Y944.863
X119.391 Y944.824
X119.831 Y944.822
X120.237 Y944.853
X120.56 Y944.904
X120.837 Y944.97
X121.059 Y945.043
X121.251 Y945.124
X121.307 Y945.153
X121.481 Y945.278
X121.612 Y945.447
X121.689 Y945.646
X121.706 Y945.86
X121.645 Y946.787
X121.635 Y946.957
G3 X121.357 Y947.245 I-0.316 J-0.028
G1 X121.007 Y947.286
X115.862 Y947.898
X115.604 Y947.929
G3 X115.249 Y947.625 I-0.038 J-0.315
G1 Y946.452
X115.257 Y946.302
X115.285 Y946.155
X115.329 Y946.011
X115.384 Y945.869
X115.465 Y945.704
X115.561 Y945.54
X115.691 Y945.356
X115.839 Y945.177
X116.035 Y944.978
X116.251 Y944.789
X116.521 Y944.59
X116.837 Y944.394
X117.181 Y944.217
X117.583 Y944.05
X118.026 Y943.905
X118.496 Y943.793
X118.978 Y943.719
X119.445 Y943.684
X119.89 Y943.687
X120.301 Y943.723
X120.633 Y943.779
X120.914 Y943.851
X121.141 Y943.928
X121.334 Y944.012
X121.4 Y944.046
X121.575 Y944.176
X121.705 Y944.351
X121.778 Y944.556
X121.789 Y944.773
X121.756 Y945.112
X121.722 Y945.615
X121.706 Y945.86
G3 X121.423 Y946.143 I-0.316 J-0.032
G1 X121.073 Y946.18
X115.863 Y946.729
X115.6 Y946.757
G3 X115.249 Y946.452 I-0.033 J-0.316
G1 Y945.355
X115.257 Y945.205
X115.279 Y945.057
X115.317 Y944.912
X115.368 Y944.769
X115.437 Y944.617
X115.529 Y944.449
X115.642 Y944.279
X115.786 Y944.095
X115.957 Y943.909
X116.166 Y943.717
X116.42 Y943.517
X116.701 Y943.331
X117.043 Y943.142
X117.435 Y942.965
X117.848 Y942.817
X118.304 Y942.694
X118.786 Y942.605
X119.278 Y942.554
X119.752 Y942.544
X120.181 Y942.569
X120.567 Y942.622
X120.862 Y942.688
X121.134 Y942.772
X121.335 Y942.852
X121.533 Y942.95
X121.547 Y942.958
X121.709 Y943.09
X121.829 Y943.262
X121.895 Y943.461
X121.903 Y943.67
X121.796 Y944.699
X121.789 Y944.773
G3 X121.507 Y945.047 I-0.315 J-0.042
G1 X121.147 Y945.084
X115.863 Y945.632
X115.599 Y945.66
G3 X115.249 Y945.355 I-0.033 J-0.316
G1 Y944.182
X115.257 Y944.032
X115.283 Y943.885
X115.323 Y943.74
X115.378 Y943.596
X115.452 Y943.439
X115.545 Y943.277
X115.668 Y943.098
X115.813 Y942.919
X115.997 Y942.726
X116.214 Y942.533
X116.466 Y942.342
X116.775 Y942.145
X117.111 Y941.967
X117.497 Y941.8
X117.937 Y941.651
X118.413 Y941.532
X118.905 Y941.449
X119.398 Y941.407
X119.865 Y941.405
X120.307 Y941.438
X120.705 Y941.5
X121.006 Y941.573
X121.276 Y941.661
X121.482 Y941.747
X121.673 Y941.846
X121.68 Y941.85
X121.84 Y941.985
X121.956 Y942.159
X122.019 Y942.359
X122.023 Y942.568
X121.979 Y942.934
X121.903 Y943.67
G3 X121.617 Y943.942 I-0.314 J-0.044
G1 X121.259 Y943.975
X115.863 Y944.463
X115.595 Y944.487
G3 X115.249 Y944.182 I-0.029 J-0.316
G1 Y943.102
X115.257 Y942.943
X115.277 Y942.794
X115.312 Y942.648
X115.36 Y942.506
X115.427 Y942.353
X115.513 Y942.192
X115.623 Y942.021
X115.759 Y941.843
X115.928 Y941.655
X116.125 Y941.468
X116.375 Y941.268
X116.646 Y941.083
X116.978 Y940.894
X117.366 Y940.714
X117.775 Y940.561
X118.232 Y940.432
X118.723 Y940.335
X119.231 Y940.276
X119.736 Y940.258
X120.21 Y940.28
X120.63 Y940.333
X121.003 Y940.411
X121.275 Y940.491
X121.523 Y940.586
X121.711 Y940.676
X121.807 Y940.732
X121.976 Y940.868
X122.099 Y941.047
X122.165 Y941.254
X122.168 Y941.471
X122.061 Y942.264
X122.031 Y942.506
X122.023 Y942.568
G3 X121.739 Y942.835 I-0.314 J-0.049
G1 X121.375 Y942.869
X115.863 Y943.382
X115.596 Y943.407
G3 X115.249 Y943.102 I-0.029 J-0.316
G1 Y941.929
X115.257 Y941.779
X115.279 Y941.631
X115.317 Y941.486
X115.368 Y941.342
X115.437 Y941.19
X115.526 Y941.028
X115.641 Y940.855
X115.782 Y940.676
X115.956 Y940.487
X116.167 Y940.292
X116.408 Y940.104
X116.708 Y939.905
X117.036 Y939.724
X117.415 Y939.553
X117.853 Y939.397
X118.335 Y939.267
X118.841 Y939.174
X119.356 Y939.121
X119.864 Y939.11
X120.335 Y939.137
X120.771 Y939.198
X121.144 Y939.281
X121.436 Y939.371
X121.681 Y939.469
X121.872 Y939.564
X122.063 Y939.679
X122.1 Y939.705
X122.241 Y939.836
X122.343 Y939.999
X122.4 Y940.183
X122.407 Y940.375
X122.365 Y940.563
X122.321 Y940.682
X122.295 Y940.756
X122.253 Y940.924
X122.221 Y941.091
X122.197 Y941.259
X122.168 Y941.471
G3 X121.88 Y941.734 I-0.313 J-0.053
G1 X121.516 Y941.763
X115.863 Y942.213
X115.592 Y942.234
G3 X115.249 Y941.929 I-0.025 J-0.316
G1 Y940.756
X115.257 Y940.606
X115.283 Y940.459
X115.324 Y940.314
X115.379 Y940.17
X115.454 Y940.011
X115.549 Y939.848
X115.671 Y939.671
X115.818 Y939.491
X116. Y939.302
X116.219 Y939.108
X116.473 Y938.917
X116.789 Y938.717
X117.129 Y938.537
X117.528 Y938.367
X117.984 Y938.214
X118.481 Y938.091
X119. Y938.005
X119.526 Y937.962
X120.042 Y937.961
X120.523 Y937.999
X120.965 Y938.069
X121.358 Y938.165
X121.663 Y938.266
X121.93 Y938.378
X122.129 Y938.482
X122.32 Y938.602
X122.473 Y938.716
X122.536 Y938.771
X122.683 Y938.948
X122.769 Y939.161
X122.785 Y939.391
X122.731 Y939.614
X122.673 Y939.751
X122.488 Y940.227
X122.365 Y940.563
G3 X122.085 Y940.76 I-0.294 J-0.12
G1 X121.661 Y940.78
X115.864 Y941.049
X115.581 Y941.062
G3 X115.249 Y940.756 I-0.015 J-0.317
G1 Y939.659
X115.257 Y939.509
X115.278 Y939.36
X115.314 Y939.215
X115.364 Y939.073
X115.432 Y938.919
X115.521 Y938.757
X115.634 Y938.585
X115.772 Y938.406
X115.945 Y938.216
X116.147 Y938.028
X116.403 Y937.825
X116.681 Y937.639
X117.026 Y937.446
X117.426 Y937.263
X117.85 Y937.109
X118.332 Y936.977
X118.856 Y936.877
X119.398 Y936.818
X119.942 Y936.803
X120.472 Y936.831
X120.962 Y936.897
X121.392 Y936.99
X121.771 Y937.105
X122.108 Y937.238
X122.36 Y937.361
X122.596 Y937.5
X122.766 Y937.621
X122.929 Y937.757
X122.999 Y937.825
X123.135 Y938.008
X123.209 Y938.223
X123.214 Y938.451
X123.15 Y938.67
X122.957 Y939.081
X122.823 Y939.394
X122.731 Y939.614
G3 X122.45 Y939.799 I-0.288 J-0.133
G1 X122.019 Y939.809
X115.864 Y939.958
X115.574 Y939.965
G3 X115.249 Y939.659 I-0.008 J-0.317
G1 Y938.486
X115.257 Y938.336
X115.282 Y938.188
X115.322 Y938.044
X115.375 Y937.899
X115.448 Y937.744
X115.54 Y937.581
X115.661 Y937.403
X115.806 Y937.223
X115.989 Y937.03
X116.205 Y936.835
X116.458 Y936.642
X116.772 Y936.44
X117.11 Y936.259
X117.513 Y936.083
X117.978 Y935.923
X118.488 Y935.793
X119.019 Y935.701
X119.58 Y935.651
X120.151 Y935.645
X120.703 Y935.684
X121.215 Y935.762
X121.677 Y935.871
X122.101 Y936.008
X122.471 Y936.16
X122.767 Y936.312
X123.015 Y936.465
X123.212 Y936.609
X123.367 Y936.743
X123.519 Y936.898
X123.537 Y936.92
X123.652 Y937.108
X123.706 Y937.321
X123.696 Y937.541
X123.621 Y937.748
X123.494 Y937.983
X123.326 Y938.311
X123.276 Y938.411
X123.193 Y938.578
X123.15 Y938.67
G3 X122.866 Y938.842 I-0.282 J-0.145
G1 X122.43 Y938.839
X115.864 Y938.794
X115.564 Y938.792
G3 X115.249 Y938.486 I0.002 J-0.318
G1 Y937.313
X115.257 Y937.164
X115.285 Y937.016
X115.328 Y936.872
X115.384 Y936.729
X115.463 Y936.565
X115.559 Y936.403
X115.688 Y936.22
X115.836 Y936.042
X116.029 Y935.844
X116.248 Y935.654
X116.519 Y935.453
X116.841 Y935.253
X117.197 Y935.07
X117.623 Y934.892
X118.11 Y934.734
X118.626 Y934.611
X119.18 Y934.524
X119.77 Y934.481
X120.369 Y934.485
X120.955 Y934.536
X121.516 Y934.631
X122.023 Y934.759
X122.472 Y934.911
X122.874 Y935.085
X123.221 Y935.27
X123.48 Y935.435
X123.705 Y935.606
X123.874 Y935.757
X124.016 Y935.906
X124.083 Y935.989
X124.198 Y936.188
X124.247 Y936.413
X124.224 Y936.642
X124.132 Y936.853
X124.101 Y936.903
X123.808 Y937.405
X123.715 Y937.573
X123.621 Y937.748
G3 X123.335 Y937.904 I-0.274 J-0.161
G1 X122.892 Y937.888
X115.864 Y937.631
X115.555 Y937.62
G3 X115.249 Y937.313 I0.012 J-0.317
G1 Y936.233
X115.257 Y936.083
X115.277 Y935.934
X115.314 Y935.789
X115.363 Y935.646
X115.429 Y935.496
X115.52 Y935.328
X115.628 Y935.161
X115.772 Y934.973
X115.938 Y934.79
X116.15 Y934.591
X116.395 Y934.394
X116.69 Y934.195
X117.049 Y933.993
X117.432 Y933.816
X117.885 Y933.649
X118.406 Y933.503
X118.979 Y933.391
X119.578 Y933.324
X120.197 Y933.304
X120.832 Y933.335
X121.45 Y933.415
X122.027 Y933.538
X122.559 Y933.696
X123.035 Y933.881
X123.457 Y934.085
X123.805 Y934.289
X124.074 Y934.478
X124.305 Y934.669
X124.473 Y934.832
X124.611 Y934.99
X124.698 Y935.108
X124.805 Y935.31
X124.844 Y935.536
X124.813 Y935.762
X124.715 Y935.968
X124.499 Y936.283
X124.42 Y936.4
X124.132 Y936.853
G3 X123.853 Y936.99 I-0.262 J-0.18
G1 X123.394 Y936.965
X115.864 Y936.556
X115.549 Y936.539
G3 X115.249 Y936.233 I0.017 J-0.317
G1 Y935.06
X115.257 Y934.91
X115.281 Y934.762
X115.319 Y934.617
X115.372 Y934.473
X115.444 Y934.316
X115.535 Y934.153
X115.657 Y933.971
X115.8 Y933.791
X115.983 Y933.595
X116.196 Y933.401
X116.454 Y933.201
X116.771 Y932.994
X117.117 Y932.806
X117.544 Y932.617
X118.038 Y932.443
X118.555 Y932.307
X119.139 Y932.203
X119.778 Y932.141
X120.447 Y932.13
X121.121 Y932.174
X121.78 Y932.27
X122.408 Y932.413
X122.995 Y932.598
X123.518 Y932.811
X123.955 Y933.031
X124.335 Y933.261
X124.651 Y933.49
X124.885 Y933.69
X125.082 Y933.887
X125.219 Y934.05
X125.351 Y934.234
X125.383 Y934.286
X125.467 Y934.489
X125.488 Y934.708
X125.444 Y934.924
X125.338 Y935.117
X125.253 Y935.228
X124.879 Y935.73
X124.763 Y935.898
X124.715 Y935.968
G3 X124.433 Y936.096 I-0.255 J-0.189
G1 X123.972 Y936.058
X115.863 Y935.392
X115.541 Y935.365
G3 X115.249 Y935.06 I0.026 J-0.316
G1 Y933.887
X115.257 Y933.737
X115.283 Y933.59
X115.324 Y933.446
X115.378 Y933.304
X115.456 Y933.139
X115.549 Y932.977
X115.676 Y932.792
X115.821 Y932.613
X116.015 Y932.41
X116.23 Y932.218
X116.51 Y932.007
X116.824 Y931.807
X117.193 Y931.612
X117.64 Y931.419
X118.13 Y931.253
X118.676 Y931.117
X119.301 Y931.012
X119.98 Y930.954
X120.69 Y930.951
X121.408 Y931.006
X122.117 Y931.117
X122.795 Y931.28
X123.42 Y931.485
X123.988 Y931.723
X124.486 Y931.981
X124.892 Y932.234
X125.237 Y932.49
X125.513 Y932.732
X125.719 Y932.943
X125.88 Y933.138
X126. Y933.309
X126.112 Y933.5
X126.177 Y933.704
X126.18 Y933.919
X126.121 Y934.126
X126.006 Y934.307
X125.934 Y934.39
X125.654 Y934.725
X125.504 Y934.906
X125.381 Y935.06
X125.338 Y935.117
G3 X125.057 Y935.232 I-0.246 J-0.201
G1 X124.59 Y935.181
X115.862 Y934.228
X115.532 Y934.192
G3 X115.249 Y933.887 I0.034 J-0.316
G1 Y932.715
X115.257 Y932.565
X115.285 Y932.417
X115.328 Y932.274
X115.384 Y932.13
X115.464 Y931.965
X115.561 Y931.799
X115.691 Y931.614
X115.844 Y931.43
X116.042 Y931.227
X116.267 Y931.03
X116.558 Y930.815
X116.873 Y930.618
X117.26 Y930.418
X117.729 Y930.222
X118.222 Y930.061
X118.807 Y929.92
X119.471 Y929.816
X120.191 Y929.762
X120.929 Y929.765
X121.665 Y929.826
X122.393 Y929.943
X123.11 Y930.116
X123.787 Y930.338
X124.401 Y930.595
X124.95 Y930.878
X125.429 Y931.177
X125.813 Y931.461
X126.129 Y931.738
X126.377 Y931.992
X126.559 Y932.211
X126.698 Y932.409
X126.802 Y932.587
X126.856 Y932.697
X126.922 Y932.914
X126.92 Y933.141
X126.849 Y933.356
X126.716 Y933.54
X126.54 Y933.72
X126.51 Y933.752
X126.082 Y934.222
X126.006 Y934.307
G3 X125.73 Y934.406 I-0.233 J-0.216
G1 X125.253 Y934.341
X115.861 Y933.064
X115.524 Y933.018
G3 X115.249 Y932.715 I0.043 J-0.315
G1 Y931.617
X115.257 Y931.467
X115.279 Y931.319
X115.315 Y931.174
X115.367 Y931.025
X115.434 Y930.874
X115.528 Y930.701
X115.638 Y930.532
X115.789 Y930.338
X115.958 Y930.151
X116.185 Y929.939
X116.435 Y929.74
X116.748 Y929.531
X117.12 Y929.322
X117.534 Y929.132
X118.047 Y928.945
X118.641 Y928.781
X119.262 Y928.662
X119.977 Y928.584
X120.714 Y928.562
X121.451 Y928.597
X122.184 Y928.684
X122.909 Y928.822
X123.622 Y929.01
X124.319 Y929.251
X124.976 Y929.538
X125.563 Y929.852
X126.077 Y930.183
X126.496 Y930.503
X126.835 Y930.808
X127.109 Y931.098
X127.302 Y931.339
X127.458 Y931.568
X127.564 Y931.753
X127.659 Y931.958
X127.672 Y931.994
X127.717 Y932.205
X127.699 Y932.421
X127.62 Y932.622
X127.485 Y932.792
X127.18 Y933.078
X127.036 Y933.217
X126.716 Y933.54
G3 X126.449 Y933.623 I-0.218 J-0.231
G1 X125.959 Y933.547
X115.86 Y931.973
X115.518 Y931.92
G3 X115.249 Y931.617 I0.049 J-0.314
G1 Y930.445
X115.257 Y930.295
X115.28 Y930.146
X115.318 Y930.001
X115.368 Y929.86
X115.442 Y929.696
X115.531 Y929.535
X115.653 Y929.349
X115.796 Y929.167
X115.984 Y928.962
X116.194 Y928.768
X116.473 Y928.548
X116.777 Y928.346
X117.165 Y928.132
X117.623 Y927.924
X118.112 Y927.749
X118.71 Y927.587
X119.394 Y927.459
X120.127 Y927.383
X120.865 Y927.363
X121.602 Y927.397
X122.335 Y927.48
X123.061 Y927.613
X123.776 Y927.793
X124.478 Y928.021
X125.163 Y928.296
X125.825 Y928.621
X126.427 Y928.977
X126.935 Y929.335
X127.345 Y929.677
X127.692 Y930.016
X127.965 Y930.332
X128.153 Y930.586
X128.307 Y930.834
X128.408 Y931.033
X128.493 Y931.236
X128.513 Y931.298
X128.549 Y931.517
X128.519 Y931.737
X128.425 Y931.938
X128.276 Y932.102
X128.185 Y932.175
X128.142 Y932.212
X127.683 Y932.611
X127.568 Y932.715
X127.485 Y932.792
G3 X127.22 Y932.865 I-0.209 J-0.239
G1 X126.727 Y932.776
X115.859 Y930.809
X115.51 Y930.746
G3 X115.249 Y930.445 I0.057 J-0.312
G1 Y929.272
X115.257 Y929.122
X115.281 Y928.974
X115.32 Y928.829
X115.371 Y928.687
X115.445 Y928.523
X115.536 Y928.36
X115.659 Y928.175
X115.806 Y927.988
X115.996 Y927.783
X116.218 Y927.579
X116.501 Y927.358
X116.808 Y927.156
X117.204 Y926.938
X117.66 Y926.734
X118.179 Y926.55
X118.805 Y926.383
X119.512 Y926.253
X120.247 Y926.18
X120.984 Y926.16
X121.721 Y926.191
X122.455 Y926.271
X123.182 Y926.396
X123.9 Y926.566
X124.606 Y926.78
X125.298 Y927.037
X125.971 Y927.338
X126.623 Y927.684
X127.228 Y928.066
X127.759 Y928.464
X128.195 Y928.85
X128.54 Y929.208
X128.822 Y929.553
X129.023 Y929.843
X129.174 Y930.103
X129.279 Y930.323
X129.354 Y930.521
X129.389 Y930.64
X129.419 Y930.861
X129.381 Y931.081
X129.279 Y931.28
X129.123 Y931.439
X128.767 Y931.709
X128.688 Y931.77
X128.346 Y932.044
X128.276 Y932.102
G3 X128.02 Y932.16 I-0.191 J-0.253
G1 X127.515 Y932.055
X115.857 Y929.645
X115.502 Y929.572
G3 X115.249 Y929.272 I0.064 J-0.311
G1 Y928.099
X115.257 Y927.949
X115.281 Y927.801
X115.321 Y927.656
X115.373 Y927.513
X115.447 Y927.349
X115.54 Y927.182
X115.663 Y926.998
X115.815 Y926.806
X116.003 Y926.603
X116.23 Y926.396
X116.462 Y926.215
X116.601 Y926.13
X116.755 Y926.077
X116.917 Y926.059
G3 X117.156 Y926.572 I-0.011 J0.317
G1 X117.103 Y926.641
X115.823 Y928.276
X115.817 Y928.284
G3 X115.249 Y928.099 I-0.25 J-0.196
G1 Y926.926
X115.257 Y926.776
X115.281 Y926.629
X115.287 Y926.606
X115.362 Y926.428
X115.479 Y926.275
X115.633 Y926.158
X115.811 Y926.084
X116.002 Y926.059
G3 X116.241 Y926.573 I-0.011 J0.317
G1 X116.188 Y926.64
X115.823 Y927.103
X115.816 Y927.112
G3 X115.249 Y926.926 I-0.249 J-0.197
G1 Y926.516
X115.252 Y926.348
X115.263 Y926.296
X115.272 Y926.27
X115.283 Y926.244
X115.302 Y926.213
X115.325 Y926.181
X115.357 Y926.149
X115.388 Y926.125
X115.451 Y926.088
X115.493 Y926.072
X115.535 Y926.063
X115.618 Y926.059
X124.834
X125.186 Y926.077
X125.5 Y926.118
X125.894 Y926.202
X126.306 Y926.326
X126.792 Y926.515
X127.325 Y926.773
X127.854 Y927.085
X128.355 Y927.437
X128.808 Y927.813
X129.199 Y928.194
X129.528 Y928.572
X129.786 Y928.92
X129.97 Y929.216
X130.112 Y929.491
X130.204 Y929.712
X130.273 Y929.92
X130.3 Y930.037
X130.319 Y930.261
X130.27 Y930.48
X130.157 Y930.674
X129.991 Y930.826
X129.861 Y930.913
X129.681 Y931.039
X129.358 Y931.268
X129.191 Y931.388
X129.123 Y931.439
G3 X128.7 Y931.385 I-0.182 J-0.26
G1 X128.494 Y931.144
X124.651 Y926.638
X124.604 Y926.583
G3 X124.834 Y926.059 I0.242 J-0.206
G1 X127.18
X127.43 Y926.072
X127.648 Y926.1
X127.88 Y926.15
X128.145 Y926.229
X128.442 Y926.345
X128.764 Y926.501
X129.099 Y926.698
X129.458 Y926.951
X129.813 Y927.245
X130.139 Y927.564
X130.429 Y927.896
X130.675 Y928.228
X130.872 Y928.545
X131.007 Y928.807
X131.112 Y929.058
X131.177 Y929.257
X131.229 Y929.473
X131.234 Y929.507
X131.236 Y929.726
X131.173 Y929.936
X131.052 Y930.118
X130.882 Y930.257
X130.364 Y930.577
X129.991 Y930.826
G3 X129.556 Y930.725 I-0.167 J-0.27
G1 X129.402 Y930.48
X126.986 Y926.647
X126.923 Y926.546
G3 X127.18 Y926.059 I0.269 J-0.169
G1 X129.023
X129.173 Y926.067
X129.343 Y926.09
X129.521 Y926.13
X129.733 Y926.195
X129.944 Y926.279
X130.19 Y926.401
X130.432 Y926.546
X130.692 Y926.732
X130.959 Y926.956
X131.211 Y927.206
X131.443 Y927.476
X131.645 Y927.754
X131.82 Y928.04
X131.94 Y928.276
X132.039 Y928.519
X132.102 Y928.717
X132.147 Y928.913
X132.158 Y928.982
X132.157 Y929.205
X132.089 Y929.419
X131.96 Y929.602
X131.783 Y929.739
X131.555 Y929.867
X131.264 Y930.034
X130.976 Y930.202
X130.882 Y930.257
G3 X130.442 Y930.114 I-0.153 J-0.278
G1 X130.329 Y929.873
X128.814 Y926.655
X128.747 Y926.512
G3 X129.023 Y926.059 I0.287 J-0.135
G1 X130.531
X130.681 Y926.067
X130.83 Y926.092
X130.984 Y926.132
X131.162 Y926.193
X131.34 Y926.271
X131.537 Y926.377
X131.739 Y926.507
X131.942 Y926.662
X132.143 Y926.844
X132.339 Y927.051
X132.518 Y927.274
X132.678 Y927.51
X132.801 Y927.726
X132.903 Y927.946
X132.977 Y928.145
X133.026 Y928.32
X133.064 Y928.513
X133.067 Y928.533
X133.058 Y928.756
X132.984 Y928.967
X132.85 Y929.146
X132.668 Y929.277
X132.039 Y929.598
X131.783 Y929.739
G3 X131.34 Y929.562 I-0.144 J-0.283
G1 X131.258 Y929.33
X130.307 Y926.661
X130.243 Y926.483
G3 X130.531 Y926.059 I0.299 J-0.107
G1 X131.796
X131.946 Y926.067
X132.094 Y926.091
X132.239 Y926.129
X132.383 Y926.181
X132.542 Y926.252
X132.703 Y926.341
X132.866 Y926.449
X133.035 Y926.581
X133.199 Y926.732
X133.354 Y926.899
X133.497 Y927.081
X133.623 Y927.271
X133.717 Y927.443
X133.804 Y927.634
X133.864 Y927.801
X133.907 Y927.96
X133.928 Y928.071
X133.938 Y928.267
X133.896 Y928.458
X133.806 Y928.632
X133.674 Y928.776
X133.508 Y928.88
X133.183 Y929.029
X133.045 Y929.093
X132.828 Y929.196
X132.668 Y929.277
G3 X132.228 Y929.074 I-0.135 J-0.287
G1 X132.165 Y928.849
X131.558 Y926.665
X131.502 Y926.461
G3 X131.796 Y926.059 I0.306 J-0.085
G1 X132.969
X133.119 Y926.067
X133.266 Y926.095
X133.41 Y926.139
X133.549 Y926.196
X133.685 Y926.266
X133.826 Y926.353
X133.964 Y926.454
X134.1 Y926.572
X134.232 Y926.707
X134.353 Y926.851
X134.457 Y926.998
X134.55 Y927.156
X134.619 Y927.297
X134.68 Y927.453
X134.726 Y927.604
X134.758 Y927.753
Y927.946
X134.707 Y928.133
X134.61 Y928.3
X134.473 Y928.437
X134.305 Y928.533
X134.05 Y928.638
X133.918 Y928.694
X133.547 Y928.862
X133.508 Y928.88
G3 X133.073 Y928.644 I-0.122 J-0.293
G1 X133.034 Y928.429
X132.712 Y926.67
X132.668 Y926.434
G3 X132.969 Y926.059 I0.312 J-0.057
G1 X133.975
X134.125 Y926.067
X134.272 Y926.093
X134.416 Y926.136
X134.554 Y926.195
X134.686 Y926.266
X134.811 Y926.35
X134.929 Y926.444
X135.045 Y926.553
X135.146 Y926.664
X135.237 Y926.783
X135.321 Y926.913
X135.391 Y927.045
X135.45 Y927.183
X135.497 Y927.326
X135.508 Y927.372
X135.526 Y927.584
X135.484 Y927.792
X135.385 Y927.979
X135.236 Y928.131
X135.051 Y928.234
X134.888 Y928.297
X134.72 Y928.362
X134.305 Y928.533
G3 X133.879 Y928.271 I-0.11 J-0.298
G1 X133.856 Y928.062
X133.7 Y926.673
X133.67 Y926.412
G3 X133.975 Y926.059 I0.316 J-0.035
G1 X134.888
X135.038 Y926.067
X135.186 Y926.091
X135.329 Y926.135
X135.466 Y926.197
X135.595 Y926.273
X135.716 Y926.362
X135.827 Y926.463
X135.928 Y926.574
X136.017 Y926.694
X136.094 Y926.823
X136.158 Y926.959
X136.21 Y927.105
X136.23 Y927.32
X136.187 Y927.531
X136.086 Y927.722
X135.933 Y927.875
X135.743 Y927.977
X135.391 Y928.106
X135.164 Y928.191
X135.051 Y928.234
G3 X134.631 Y927.944 I-0.103 J-0.3
G1 X134.625 Y927.752
X134.591 Y926.674
X134.582 Y926.386
G3 X134.888 Y926.059 I0.317 J-0.01
G1 X135.776
X135.926 Y926.067
X136.072 Y926.101
X136.212 Y926.156
X136.343 Y926.229
X136.464 Y926.318
X136.572 Y926.421
X136.669 Y926.536
X136.75 Y926.662
X136.817 Y926.796
X136.82 Y926.806
X136.865 Y927.036
X136.836 Y927.27
X136.734 Y927.482
X136.572 Y927.651
X136.364 Y927.762
X135.893 Y927.923
X135.743 Y927.977
G3 X135.33 Y927.64 I-0.098 J-0.302
G1 X135.346 Y927.489
X135.436 Y926.672
X135.472 Y926.342
G3 X135.776 Y926.059 I0.316 J0.035
G1 X136.53
X136.679 Y926.067
X136.825 Y926.104
X136.961 Y926.167
X137.086 Y926.25
X137.197 Y926.351
X137.292 Y926.467
X137.306 Y926.49
X137.394 Y926.696
X137.417 Y926.919
X137.372 Y927.138
X137.264 Y927.335
X137.101 Y927.489
X136.9 Y927.588
X136.396 Y927.751
X136.364 Y927.762
G3 X135.964 Y927.381 I-0.092 J-0.304
G1 X135.992 Y927.269
X136.142 Y926.664
X136.233 Y926.3
G3 X136.53 Y926.059 I0.308 J0.076
G1 X137.158
X137.308 Y926.067
X137.453 Y926.106
X137.626 Y926.234
X137.755 Y926.406
X137.828 Y926.608
X137.84 Y926.823
X137.788 Y927.032
X137.679 Y927.217
X137.52 Y927.363
X137.326 Y927.456
G3 X136.927 Y927.179 I-0.083 J-0.306
G1 X136.905 Y926.948
X136.879 Y926.673
X136.853 Y926.406
G3 X137.158 Y926.059 I0.316 J-0.03
G1 X137.661
X137.811 Y926.067
X137.952 Y926.117
X138.113 Y926.266
X138.217 Y926.459
X138.253 Y926.675
X138.219 Y926.891
X138.117 Y927.085
X137.959 Y927.236
X137.76 Y927.328
G3 X137.368 Y927.026 I-0.074 J-0.309
G1 X137.364 Y926.808
X137.361 Y926.674
X137.355 Y926.383
G3 X137.661 Y926.059 I0.317 J-0.007
G1 X138.1
X138.249 Y926.067
X138.388 Y926.123
X138.527 Y926.261
X138.615 Y926.435
X138.643 Y926.628
X138.609 Y926.82
X138.517 Y926.991
X138.374 Y927.125
X138.197 Y927.206
X138.139 Y927.216
X138.081
G3 X138.1 Y926.059 I0.039 J-0.578
G1 X138.499
X138.649 Y926.067
X138.788 Y926.123
X138.925 Y926.274
X138.998 Y926.465
X138.996 Y926.669
X138.921 Y926.859
X138.781 Y927.008
X138.597 Y927.096
X138.548 Y927.103
X138.498 Y927.105
G3 X138.499 Y926.059 I0.019 J-0.523
G1 X138.876
X139.025 Y926.067
X139.164 Y926.125
X139.284 Y926.266
X139.344 Y926.44
X139.337 Y926.625
X139.264 Y926.795
X139.133 Y926.926
X138.964 Y927.002
X138.926 Y927.007
X138.887 Y927.009
G3 X138.876 Y926.059 I0.005 J-0.475
G1 X139.245
X139.394 Y926.067
X139.529 Y926.132
X139.629 Y926.263
X139.676 Y926.421
X139.664 Y926.585
X139.594 Y926.735
X139.477 Y926.85
X139.326 Y926.916
X139.256 Y926.923
G3 X139.245 Y926.059 I0.004 J-0.432
G1 X139.58
X139.73 Y926.067
X139.861 Y926.171
X139.941 Y926.319
X139.956 Y926.486
X139.903 Y926.645
X139.791 Y926.771
X139.639 Y926.842
X139.575 Y926.847
G3 X139.58 Y926.059 I0.019 J-0.394
G1 X139.881
X140.031 Y926.067
X140.161 Y926.14
X140.238 Y926.277
X140.254 Y926.433
X140.206 Y926.582
X140.103 Y926.699
X139.961 Y926.766
X139.903 Y926.772
G3 X139.881 Y926.059 I-0.01 J-0.357
G1 X140.166 Y926.06
X140.208 Y926.065
X140.25 Y926.077
X140.286 Y926.092
X140.323 Y926.113
X140.359 Y926.142
X140.396 Y926.181
X140.418 Y926.211
X140.438 Y926.246
X140.454 Y926.28
X140.465 Y926.314
X140.471 Y926.348
X140.475 Y926.39
X140.472 Y926.432
X140.464 Y926.474
X140.45 Y926.516
X140.436 Y926.545
X140.418 Y926.575
X140.389 Y926.609
X140.351 Y926.644
X140.318 Y926.666
X140.285 Y926.683
X140.25 Y926.697
X139.58 Y926.856
X138.894 Y927.018
X138.742 Y927.057
X138.574 Y927.101
X137.569 Y927.381
X137.234 Y927.484
X136.9 Y927.588
G3 X136.519 Y927.397 I-0.085 J-0.306
G1 X136.508 Y927.338 Z35.706
X136.498 Y927.282 Z35.722
X136.513 Y927.222 Z35.756
X136.526 Y927.171 Z35.802
X136.536 Y927.131 Z35.859
X136.549 Y927.111 Z35.909
X136.557 Y927.099 Z35.962
X136.559 Y927.095 Z36.017
G0 Z43.7
X133.344 Y969.639
Z41.2
G3 X135.527 Y967.558 Z41.035 I1.092 J-1.04 F1016.
X133.344 Y969.639 Z40.869 I-1.092 J1.04
X135.527 Y967.558 Z40.704 I1.092 J-1.04
X133.344 Y969.639 Z40.538 I-1.092 J1.04
X135.527 Y967.558 Z40.373 I1.092 J-1.04
X133.344 Y969.639 Z40.207 I-1.092 J1.04
X135.527 Y967.558 Z40.042 I1.092 J-1.04
X133.344 Y969.639 Z39.876 I-1.092 J1.04
X135.527 Y967.558 Z39.711 I1.092 J-1.04
X133.344 Y969.639 Z39.545 I-1.092 J1.04
X135.527 Y967.558 Z39.38 I1.092 J-1.04
X133.344 Y969.639 Z39.215 I-1.092 J1.04
X135.527 Y967.558 Z39.049 I1.092 J-1.04
X133.344 Y969.639 Z38.884 I-1.092 J1.04
X135.527 Y967.558 Z38.718 I1.092 J-1.04
X133.344 Y969.639 Z38.553 I-1.092 J1.04
X135.527 Y967.558 Z38.387 I1.092 J-1.04
X133.344 Y969.639 Z38.222 I-1.092 J1.04
X135.527 Y967.558 Z38.056 I1.092 J-1.04
X133.344 Y969.639 Z37.891 I-1.092 J1.04
X135.527 Y967.558 Z37.726 I1.092 J-1.04
X133.344 Y969.639 Z37.56 I-1.092 J1.04
X135.527 Y967.558 Z37.395 I1.092 J-1.04
X133.344 Y969.639 Z37.229 I-1.092 J1.04
X135.527 Y967.558 Z37.064 I1.092 J-1.04
X133.344 Y969.639 Z36.898 I-1.092 J1.04
X135.527 Y967.558 Z36.733 I1.092 J-1.04
X133.344 Y969.639 Z36.567 I-1.092 J1.04
X135.527 Y967.558 Z36.402 I1.092 J-1.04
X133.344 Y969.639 Z36.236 I-1.092 J1.04
X135.527 Y967.558 Z36.071 I1.092 J-1.04
X133.344 Y969.639 Z35.906 I-1.092 J1.04
X135.527 Y967.558 Z35.74 I1.092 J-1.04
X135.944 Y968.599 Z35.7 I-1.092 J1.04
X132.928 I-1.508 J0.
X135.944 I1.508 J0.
G1 X135.963 Y969.337
X135.981 Y969.544
X135.936 Y969.747
X135.831 Y969.926
X135.678 Y970.067
X135.489 Y970.154
X135.391 Y970.182
X135.223 Y970.222
X135.056 Y970.245
X134.888 Y970.259
X134.72 Y970.26
X134.553 Y970.248
X134.385 Y970.225
X134.218 Y970.188
X134.05 Y970.14
X133.875 Y970.074
X133.715 Y969.999
X133.547 Y969.906
X133.38 Y969.789
X133.317 Y969.739
X133.134 Y969.572
X133.045 Y969.48
X132.877 Y969.272
X132.855 Y969.237
X132.71 Y968.996
X132.668 Y968.902
X132.599 Y968.734
X132.541 Y968.566
X132.501 Y968.399
X132.471 Y968.231
X132.461 Y968.028
X132.466 Y967.878
X132.487 Y967.729
X132.523 Y967.583
X132.573 Y967.442
X132.635 Y967.305
X132.709 Y967.175
X132.793 Y967.051
X132.889 Y966.932
X132.998 Y966.818
X133.117 Y966.71
X133.248 Y966.611
X133.284 Y966.588
X133.474 Y966.501
X133.681 Y966.471
X133.889 Y966.5
X134.08 Y966.585
G3 X134.143 Y967.053 I-0.179 J0.262
G1 X133.979 Y967.246
X133.074 Y968.31
X133.023 Y968.37
G3 X132.471 Y968.231 I-0.242 J-0.206
G1 X132.454 Y968.064
X132.45 Y967.896
X132.457 Y967.729
X132.477 Y967.561
X132.508 Y967.394
X132.542 Y967.262
X132.553 Y967.226
X132.611 Y967.059
X132.684 Y966.891
X132.71 Y966.838
X132.773 Y966.724
X132.877 Y966.576
X133.045 Y966.355
X133.105 Y966.288
X133.141 Y966.251
X133.176 Y966.221
X133.212 Y966.198
X133.254 Y966.18
X133.296 Y966.168
X133.338 Y966.162
X133.38 Y966.161
X133.422 Y966.167
X133.464 Y966.178
X133.506 Y966.195
X133.552 Y966.221
X133.715 Y966.34
X134.05 Y966.567
X134.218 Y966.673
X134.302 Y966.724
X134.72 Y966.967
X134.888 Y967.061
X135.056 Y967.149
X135.223 Y967.233
X135.391 Y967.314
X135.893 Y967.536
X135.929 Y967.55
X136.066 Y967.612
X136.187 Y967.7
X136.296 Y967.803
X136.392 Y967.918
X136.489 Y968.058
X136.607 Y968.26
X136.695 Y968.441
X136.758 Y968.605
X136.779 Y968.676
X136.81 Y968.903
X136.769 Y969.128
X136.662 Y969.331
G3 X136.126 Y969.265 I-0.247 J-0.199
G1 X136.068 Y969.137
X135.552 Y968.019
X135.534 Y967.982
G3 X135.929 Y967.55 I0.288 J-0.133
G1 X136.228 Y967.668
X136.4 Y967.729
X136.564 Y967.785
X136.656 Y967.816
X136.697 Y967.83
X136.731 Y967.842
X136.872 Y967.893
X136.981 Y967.988
X137.057 Y968.11
X137.094 Y968.249
X137.089 Y968.393
G3 X136.868 Y968.713 I-0.5 J-0.11
X136.342 Y967.903 I-0.263 J-0.405
X136.731 Y967.842 I0.263 J0.405
G1 X136.899 Y967.893
X136.906 Y967.896
X136.946 Y967.916
X136.986 Y967.944
X137.033 Y967.985
X137.066 Y968.026
X137.088 Y968.064
X137.105 Y968.106
X137.115 Y968.148
X137.12 Y968.19
X137.119 Y968.231
X137.088 Y968.399
X137.046 Y968.566
X136.988 Y968.734
X136.921 Y968.902
X136.899 Y968.954
X136.731 Y969.238
X136.607 Y969.404
X136.564 Y969.458
X136.396 Y969.623
X136.271 Y969.739
X136.037 Y969.907
X135.965 Y969.95
X135.893 Y969.989
X135.706 Y970.074
X135.558 Y970.134
X135.489 Y970.154
G3 X135.113 Y969.952 I-0.077 J-0.308
G1 X135.103 Y969.898 Z35.705
X135.094 Y969.846 Z35.719
X135.109 Y969.787 Z35.75
X135.122 Y969.736 Z35.792
X135.133 Y969.694 Z35.845
X135.148 Y969.671 Z35.899
X135.157 Y969.657 Z35.957
X135.161 Y969.652 Z36.017
G0 Z43.7
X183.688 Y971.229
Z41.2
G3 X185.871 Y969.148 Z41.035 I1.092 J-1.04 F1016.
X183.688 Y971.229 Z40.869 I-1.092 J1.04
X185.871 Y969.148 Z40.704 I1.092 J-1.04
X183.688 Y971.229 Z40.538 I-1.092 J1.04
X185.871 Y969.148 Z40.373 I1.092 J-1.04
X183.688 Y971.229 Z40.207 I-1.092 J1.04
X185.871 Y969.148 Z40.042 I1.092 J-1.04
X183.688 Y971.229 Z39.876 I-1.092 J1.04
X185.871 Y969.148 Z39.711 I1.092 J-1.04
X183.688 Y971.229 Z39.545 I-1.092 J1.04
X185.871 Y969.148 Z39.38 I1.092 J-1.04
X183.688 Y971.229 Z39.215 I-1.092 J1.04
X185.871 Y969.148 Z39.049 I1.092 J-1.04
X183.688 Y971.229 Z38.884 I-1.092 J1.04
X185.871 Y969.148 Z38.718 I1.092 J-1.04
X183.688 Y971.229 Z38.553 I-1.092 J1.04
X185.871 Y969.148 Z38.387 I1.092 J-1.04
X183.688 Y971.229 Z38.222 I-1.092 J1.04
X185.871 Y969.148 Z38.056 I1.092 J-1.04
X183.688 Y971.229 Z37.891 I-1.092 J1.04
X185.871 Y969.148 Z37.726 I1.092 J-1.04
X183.688 Y971.229 Z37.56 I-1.092 J1.04
X185.871 Y969.148 Z37.395 I1.092 J-1.04
X183.688 Y971.229 Z37.229 I-1.092 J1.04
X185.871 Y969.148 Z37.064 I1.092 J-1.04
X183.688 Y971.229 Z36.898 I-1.092 J1.04
X185.871 Y969.148 Z36.733 I1.092 J-1.04
X183.688 Y971.229 Z36.567 I-1.092 J1.04
X185.871 Y969.148 Z36.402 I1.092 J-1.04
X183.688 Y971.229 Z36.236 I-1.092 J1.04
X185.871 Y969.148 Z36.071 I1.092 J-1.04
X183.688 Y971.229 Z35.906 I-1.092 J1.04
X185.871 Y969.148 Z35.74 I1.092 J-1.04
X186.288 Y970.189 Z35.7 I-1.092 J1.04
X183.271 I-1.508 J0.
X186.288 I1.508 J0.
G1 X186.307 Y970.926
X186.329 Y971.016
X186.344 Y971.165
X186.332 Y971.315
X186.296 Y971.46
X186.241 Y971.6
X186.17 Y971.732
X186.084 Y971.855
X185.986 Y971.968
X185.877 Y972.072
X185.759 Y972.164
X185.634 Y972.246
X185.502 Y972.317
X185.363 Y972.378
X185.216 Y972.428
X185.062 Y972.468
X184.902 Y972.495
X184.737 Y972.51
X184.569 Y972.512
X184.398 Y972.499
X184.226 Y972.473
X184.055 Y972.433
X183.885 Y972.378
X183.719 Y972.309
X183.557 Y972.227
X183.401 Y972.13
X183.253 Y972.021
X183.113 Y971.9
X182.982 Y971.767
X182.862 Y971.623
X182.753 Y971.469
X182.656 Y971.307
X182.573 Y971.137
X182.503 Y970.96
X182.448 Y970.777
X182.407 Y970.591
X182.382 Y970.401
X182.371 Y970.21
X182.377 Y970.018
X182.397 Y969.827
X182.433 Y969.638
X182.484 Y969.452
X182.55 Y969.27
X182.63 Y969.095
X182.724 Y968.926
X182.831 Y968.766
X182.951 Y968.614
X183.083 Y968.472
X183.226 Y968.342
X183.379 Y968.223
X183.541 Y968.117
X183.711 Y968.024
X183.887 Y967.945
X184.07 Y967.881
X184.257 Y967.831
X184.448 Y967.797
X184.641 Y967.778
X184.835 Y967.775
X185.028 Y967.787
X185.22 Y967.815
X185.409 Y967.858
X185.594 Y967.916
X185.774 Y967.988
X185.947 Y968.075
X186.113 Y968.176
X186.27 Y968.289
X186.418 Y968.415
X186.555 Y968.552
X186.681 Y968.7
X186.794 Y968.857
X186.899 Y969.03
X187.01 Y969.252
X187.157 Y969.617
X187.264 Y969.96
X187.328 Y970.242
X187.365 Y970.498
X187.379 Y970.735
X187.375 Y970.958
X187.354 Y971.171
X187.316 Y971.378
X187.263 Y971.581
X187.193 Y971.778
X187.108 Y971.968
X187.008 Y972.151
X186.893 Y972.326
X186.764 Y972.493
X186.619 Y972.65
X186.461 Y972.797
X186.29 Y972.932
X186.106 Y973.055
X185.909 Y973.165
X185.701 Y973.259
X185.483 Y973.338
X185.256 Y973.4
X185.022 Y973.444
X184.783 Y973.47
X184.539 Y973.476
X184.292 Y973.463
X184.045 Y973.429
X183.8 Y973.376
X183.557 Y973.302
X183.319 Y973.208
X183.088 Y973.094
X182.865 Y972.962
X182.653 Y972.811
X182.452 Y972.643
X182.264 Y972.458
X182.091 Y972.258
X181.934 Y972.043
X181.794 Y971.816
X181.672 Y971.577
X181.569 Y971.329
X181.487 Y971.072
X181.425 Y970.809
X181.384 Y970.541
X181.365 Y970.271
X181.368 Y969.999
X181.393 Y969.728
X181.439 Y969.459
X181.507 Y969.195
X181.596 Y968.936
X181.705 Y968.685
X181.835 Y968.444
X181.983 Y968.214
X182.15 Y967.996
X182.333 Y967.793
X182.533 Y967.604
X182.747 Y967.432
X182.974 Y967.278
X183.213 Y967.142
X183.462 Y967.026
X183.72 Y966.931
X183.984 Y966.856
X184.254 Y966.803
X184.527 Y966.771
X184.802 Y966.762
X185.077 Y966.775
X185.35 Y966.81
X185.619 Y966.866
X185.883 Y966.944
X186.139 Y967.043
X186.387 Y967.162
X186.625 Y967.301
X186.851 Y967.458
X187.065 Y967.634
X187.271 Y967.834
X187.485 Y968.078
X187.687 Y968.349
X187.873 Y968.646
X188.038 Y968.962
X188.175 Y969.287
X188.283 Y969.613
X188.362 Y969.937
X188.413 Y970.257
X188.438 Y970.573
Y970.886
X188.412 Y971.193
X188.363 Y971.495
X188.29 Y971.789
X188.194 Y972.074
X188.076 Y972.35
X187.937 Y972.616
X187.776 Y972.87
X187.595 Y973.11
X187.394 Y973.337
X187.175 Y973.548
X186.938 Y973.741
X186.683 Y973.917
X186.414 Y974.073
X186.13 Y974.208
X185.834 Y974.32
X185.527 Y974.41
X185.211 Y974.475
X184.889 Y974.515
X184.562 Y974.528
X184.232 Y974.516
X183.902 Y974.477
X183.574 Y974.411
X183.251 Y974.318
X182.933 Y974.199
X182.625 Y974.054
X182.328 Y973.883
X182.044 Y973.689
X181.775 Y973.471
X181.523 Y973.231
X181.29 Y972.971
X181.078 Y972.691
X180.889 Y972.395
X180.724 Y972.083
X180.583 Y971.759
X180.469 Y971.423
X180.382 Y971.078
X180.323 Y970.727
X180.292 Y970.371
X180.29 Y970.013
X180.316 Y969.656
X180.371 Y969.302
X180.455 Y968.952
X180.566 Y968.611
X180.705 Y968.279
X180.87 Y967.959
X181.06 Y967.653
X181.274 Y967.363
X181.511 Y967.091
X181.769 Y966.839
X182.047 Y966.608
X182.342 Y966.401
X182.654 Y966.217
X182.979 Y966.059
X183.315 Y965.928
X183.662 Y965.824
X184.015 Y965.748
X184.374 Y965.701
X184.735 Y965.683
X185.096 Y965.694
X185.456 Y965.733
X185.811 Y965.802
X186.16 Y965.899
X186.5 Y966.023
X186.829 Y966.175
X187.147 Y966.354
X187.459 Y966.564
X187.763 Y966.805
X188.055 Y967.079
X188.331 Y967.383
X188.587 Y967.715
X188.817 Y968.068
X189.018 Y968.44
X189.188 Y968.824
X189.325 Y969.217
X189.43 Y969.617
X189.501 Y970.02
X189.539 Y970.424
X189.545 Y970.826
X189.519 Y971.224
X189.461 Y971.617
X189.372 Y972.001
X189.254 Y972.376
X189.106 Y972.739
X188.929 Y973.089
X188.725 Y973.423
X188.494 Y973.741
X188.238 Y974.04
X187.958 Y974.318
X187.655 Y974.574
X187.33 Y974.806
X186.987 Y975.012
X186.625 Y975.192
X186.248 Y975.342
X186.22 Y975.351
X186.148 Y975.369
X186.075 Y975.38
X186.001 Y975.384
X183.816
X183.515 Y975.369
X183.222 Y975.331
X182.907 Y975.263
X182.576 Y975.164
X182.238 Y975.032
X181.903 Y974.87
X181.574 Y974.676
X181.251 Y974.449
X180.938 Y974.19
X180.641 Y973.9
X180.363 Y973.581
X180.109 Y973.238
X179.88 Y972.871
X179.681 Y972.484
X179.512 Y972.079
X179.375 Y971.66
X179.272 Y971.23
X179.203 Y970.791
X179.179 Y970.468
X179.181 Y970.332
X179.208 Y970.2
X179.258 Y970.074
X179.482 Y969.572
X179.551 Y969.404
X179.677 Y969.069
X179.736 Y968.902
X179.845 Y968.566
X179.897 Y968.399
X180.033 Y967.896
X180.072 Y967.729
X180.111 Y967.584
X180.196 Y967.353
X180.312 Y967.098
X180.461 Y966.831
X180.635 Y966.571
X180.848 Y966.304
X181.096 Y966.037
X181.38 Y965.779
X181.693 Y965.536
X182.032 Y965.314
X182.395 Y965.117
X182.781 Y964.945
X183.187 Y964.803
X183.609 Y964.692
X184.042 Y964.614
X184.484 Y964.571
X184.93 Y964.564
X185.376 Y964.592
X185.821 Y964.657
X186.259 Y964.757
X186.69 Y964.893
X187.112 Y965.064
X187.525 Y965.271
X187.927 Y965.516
X188.316 Y965.796
X188.687 Y966.113
X189.036 Y966.464
X189.36 Y966.845
X189.654 Y967.254
X189.868 Y967.609
X189.926 Y967.729
X189.962 Y967.858
X189.974 Y967.992
Y972.42
X189.961 Y972.676
X189.933 Y972.894
X189.879 Y973.148
X189.802 Y973.403
X189.692 Y973.685
X189.546 Y973.986
X189.372 Y974.282
X189.158 Y974.586
X188.903 Y974.894
X188.608 Y975.196
X188.602 Y975.202
X188.456 Y975.301
X188.29 Y975.363
X188.115 Y975.384
G3 X187.852 Y974.907 I0.011 J-0.317
G1 X187.917 Y974.794
X189.382 Y972.271
G3 X189.974 Y972.42 I0.275 J0.159
G1 Y974.263
X189.967 Y974.412
X189.943 Y974.566
X189.899 Y974.75
X189.842 Y974.928
X189.73 Y975.114
X189.569 Y975.26
X189.372 Y975.352
X189.158 Y975.384
G3 X188.898 Y974.9 I0.011 J-0.317
G1 X188.962 Y974.796
X189.387 Y974.107
G3 X189.974 Y974.263 I0.27 J0.167
G1 Y974.933
X189.971 Y975.1
X189.962 Y975.142
X189.946 Y975.184
X189.924 Y975.226
X189.892 Y975.268
X189.872 Y975.29
X189.848 Y975.312
X189.807 Y975.341
X189.765 Y975.361
X189.723 Y975.375
X189.681 Y975.382
X189.513 Y975.384
X186.001
G3 X185.761 Y975.261 I0.011 J-0.317
G1 X185.451 Y974.86
X180.451 Y968.391
X180.133 Y967.979
G3 X180.072 Y967.729 I0.251 J-0.194
G1 X180.109 Y967.561
X180.143 Y967.394
X180.173 Y967.226
X180.228 Y966.891
X180.251 Y966.724
X180.297 Y966.316
X180.318 Y966.164
X180.35 Y966.018
X180.399 Y965.864
X180.466 Y965.701
X180.554 Y965.525
X180.669 Y965.337
X180.812 Y965.139
X180.986 Y964.936
X181.204 Y964.72
X181.444 Y964.517
X181.734 Y964.309
X182.072 Y964.106
X182.441 Y963.923
X182.838 Y963.764
X183.276 Y963.628
X183.745 Y963.524
X184.238 Y963.454
X184.747 Y963.424
X185.266 Y963.435
X185.789 Y963.489
X186.313 Y963.585
X186.833 Y963.725
X187.347 Y963.908
X187.852 Y964.135
X188.344 Y964.406
X188.819 Y964.72
X189.272 Y965.074
X189.699 Y965.468
X189.777 Y965.552
X189.885 Y965.702
X189.951 Y965.873
X189.974 Y966.055
Y967.992
X189.964 Y968.06
X189.94 Y968.125
X189.902 Y968.183
X189.534 Y968.628
X184.379 Y974.87
X184.05 Y975.269
G3 X183.816 Y975.384 I-0.245 J-0.202
G1 X181.805
X181.598 Y975.374
X181.428 Y975.352
X181.252 Y975.314
X181.045 Y975.252
X180.838 Y975.171
X180.599 Y975.055
X180.361 Y974.915
X180.104 Y974.734
X179.832 Y974.509
X179.574 Y974.257
X179.313 Y973.958
X179.057 Y973.612
X178.816 Y973.225
X178.599 Y972.803
X178.411 Y972.354
X178.345 Y972.151
X178.308 Y971.93
X178.339 Y971.708
X178.436 Y971.505
X178.495 Y971.415
X178.622 Y971.219
X178.708 Y971.079
X178.957 Y970.653
X179.001 Y970.577
X179.258 Y970.074
G3 X179.823 Y970.095 I0.277 J0.155
G1 X179.861 Y970.175
X182.015 Y974.788
X182.082 Y974.933
G3 X181.805 Y975.384 I-0.288 J0.134
G1 X180.297
X180.147 Y975.377
X179.999 Y975.357
X179.852 Y975.325
X179.679 Y975.273
X179.502 Y975.204
X179.303 Y975.106
X179.097 Y974.984
X178.87 Y974.824
X178.645 Y974.636
X178.397 Y974.392
X178.16 Y974.119
X177.922 Y973.795
X177.747 Y973.513
X177.61 Y973.244
X177.598 Y973.215
X177.546 Y973.019
X177.55 Y972.817
X177.609 Y972.622
X177.718 Y972.452
X177.784 Y972.372
X177.883 Y972.252
X177.952 Y972.164
X178.287 Y971.721
X178.412 Y971.54
X178.436 Y971.505
G3 X178.979 Y971.557 I0.256 J0.187
G1 X179.034 Y971.673
X180.506 Y974.789
X180.573 Y974.931
G3 X180.297 Y975.384 I-0.287 J0.136
G1 X178.957
X178.807 Y975.377
X178.659 Y975.354
X178.506 Y975.317
X178.353 Y975.265
X178.175 Y975.189
X177.994 Y975.094
X177.795 Y974.968
X177.603 Y974.824
X177.41 Y974.652
X177.259 Y974.495
X177.117 Y974.322
X177.013 Y974.171
X176.919 Y974.009
X176.915 Y974.
X176.85 Y973.783
X176.854 Y973.557
X176.925 Y973.342
X177.058 Y973.16
G3 X177.501 Y973.167 I0.217 J0.232
G1 X177.71 Y973.377
X179.136 Y974.808
X179.171 Y974.843
G3 X178.957 Y975.384 I-0.225 J0.224
G1 X177.692
X177.542 Y975.377
X177.394 Y975.35
X177.25 Y975.308
X177.11 Y975.254
X176.972 Y975.186
X176.844 Y975.11
X176.722 Y975.022
X176.606 Y974.923
X176.501 Y974.817
X176.405 Y974.701
X176.374 Y974.657
X176.28 Y974.464
X176.246 Y974.252
X176.273 Y974.039
X176.361 Y973.842
X176.501 Y973.68
G3 X176.941 Y973.72 I0.199 J0.247
G1 X177.134 Y973.944
X177.874 Y974.805
X177.921 Y974.86
G3 X177.692 Y975.384 I-0.241 J0.207
G1 X176.686
X176.537 Y975.377
X176.39 Y975.345
X176.25 Y975.292
X176.118 Y975.22
X176.09 Y975.198
X175.932 Y975.036
X175.83 Y974.834
X175.794 Y974.61
X175.828 Y974.386
X175.927 Y974.183
X176.084 Y974.019
G3 X176.551 Y974.132 I0.185 J0.258
G1 X176.661 Y974.346
X176.89 Y974.791
X176.958 Y974.921
G3 X176.686 Y975.384 I-0.282 J0.146
G1 X176.016
X175.866 Y975.377
X175.697 Y975.292
X175.563 Y975.159
X175.476 Y974.991
X175.446 Y974.805
X175.475 Y974.618
X175.56 Y974.449
X175.694 Y974.315
G3 X176.008 Y974.223 I0.303 J0.448
X176.016 Y975.384 I-0.012 J0.581
G1 X175.606
X175.456 Y975.377
X175.309 Y975.288
X175.204 Y975.152
X175.155 Y974.988
X175.167 Y974.818
X175.239 Y974.662
X175.362 Y974.543
X175.433 Y974.508
X175.51 Y974.486
X175.589 Y974.479
G3 X175.606 Y975.384 I0.001 J0.453
G1 X175.224
X175.187
X175.145 Y975.383
X175.12 Y975.377
X175.086 Y975.369
X175.052 Y975.357
X175.019 Y975.343
G3 X174.94 Y975.104 I0.127 J-0.175
X175.35 Y975.232 I0.205 J0.064
X175.145 Y975.383 I-0.205 J-0.064
G1 X175.103 Y975.376
X175.061 Y975.363
X175.019 Y975.343
X174.996 Y975.328
X174.977 Y975.315
X174.956 Y975.297
X174.929 Y975.268
X174.896 Y975.226
X174.872 Y975.184
X174.856 Y975.142
X174.846 Y975.1
X174.842 Y975.058
X174.843 Y975.016
X174.85 Y974.975
X174.863 Y974.933
X174.875 Y974.905
X174.891 Y974.878
X174.911 Y974.85
X174.935 Y974.822
X174.974 Y974.79
X175.013 Y974.765
X175.103 Y974.711
X175.28 Y974.598
X175.533 Y974.43
X175.606 Y974.38
X175.773 Y974.257
X176.276 Y973.871
X176.443 Y973.729
X176.611 Y973.584
X176.786 Y973.425
X176.946 Y973.273
X177.294 Y972.922
X177.453 Y972.755
X177.616 Y972.571
X177.718 Y972.452
G3 X178.269 Y972.688 I0.235 J0.214
G1 X178.264 Y972.759 Z35.708
X178.259 Y972.826 Z35.731
X178.255 Y972.886 Z35.769
X178.251 Y972.936 Z35.82
X178.248 Y972.974 Z35.88
X178.247 Y972.997 Z35.947
X178.246 Y973.005 Z36.018
G0 Z43.7
X180.591 Y967.372
Z36.335
G1 Z36.018 F1016.
X180.587 Y967.364 Z35.947
X180.577 Y967.343 Z35.88
X180.561 Y967.309 Z35.82
X180.539 Y967.264 Z35.769
X180.513 Y967.21 Z35.731
X180.484 Y967.149 Z35.708
X180.453 Y967.086 Z35.7
G3 X180.297 Y966.316 I1.425 J-0.688
G1 X180.306 Y966.221
X180.337 Y965.718
X180.345 Y965.216
X180.343 Y965.165
X180.347 Y965.015
X180.37 Y964.867
X180.407 Y964.722
X180.461 Y964.571
X180.53 Y964.416
X180.624 Y964.245
X180.74 Y964.067
X180.889 Y963.877
X181.064 Y963.686
X181.285 Y963.48
X181.528 Y963.288
X181.825 Y963.09
X182.176 Y962.895
X182.548 Y962.726
X182.977 Y962.571
X183.456 Y962.44
X183.975 Y962.342
X184.526 Y962.284
X185.096 Y962.269
X185.678 Y962.301
X186.269 Y962.382
X186.867 Y962.513
X187.467 Y962.695
X188.06 Y962.93
X188.642 Y963.215
X189.206 Y963.551
X189.687 Y963.893
X189.709 Y963.911
X189.852 Y964.072
X189.943 Y964.267
X189.974 Y964.479
Y966.055
G3 X189.625 Y966.36 I-0.317 J-0.011
G1 X189.361 Y966.334
X180.964 Y965.496
X180.629 Y965.462
G3 X180.343 Y965.165 I0.032 J-0.316
G1 X180.341 Y965.048
X180.33 Y964.713
X180.319 Y964.546
X180.284 Y964.119
X180.28 Y964.077
X180.277 Y964.043
X180.271 Y963.898
G3 X180.901 Y963.907 I0.314 J0.044
G1 X180.908 Y963.968
G3 X180.277 Y964.043 I-0.316 J0.035
G1 X180.27 Y963.959
X180.269 Y963.917
X180.274 Y963.876
X180.283 Y963.837
X180.297 Y963.798
X180.348 Y963.708
X180.543 Y963.373
X180.636 Y963.205
X180.686 Y963.113
X180.797 Y962.93
X180.917 Y962.765
X181.076 Y962.578
X181.253 Y962.401
X181.483 Y962.205
X181.74 Y962.02
X182.05 Y961.833
X182.423 Y961.647
X182.819 Y961.488
X183.281 Y961.343
X183.805 Y961.225
X184.377 Y961.143
X184.981 Y961.106
X185.599 Y961.117
X186.245 Y961.182
X186.913 Y961.303
X187.591 Y961.483
X188.268 Y961.723
X188.937 Y962.022
X189.454 Y962.305
X189.64 Y962.427
X189.779 Y962.546
X189.885 Y962.695
X189.952 Y962.865
X189.974 Y963.046
Y964.479
G3 X189.613 Y964.783 I-0.317 J-0.011
G1 X189.362 Y964.748
X181.11 Y963.594
X180.927 Y963.569
G3 X180.686 Y963.113 I0.044 J-0.314
G1 X180.8 Y962.899
X180.901 Y962.703
X181.135 Y962.237
X181.233 Y962.033
X181.388 Y961.698
X181.454 Y961.563
X181.543 Y961.429
X181.645 Y961.297
X181.778 Y961.153
X181.942 Y961.
X182.132 Y960.85
X182.377 Y960.687
X182.646 Y960.537
X182.985 Y960.382
X183.369 Y960.243
X183.808 Y960.124
X184.325 Y960.026
X184.903 Y959.965
X185.497 Y959.95
X186.158 Y959.986
X186.866 Y960.082
X187.586 Y960.24
X188.293 Y960.453
X188.981 Y960.719
X189.41 Y960.925
X189.607 Y961.04
X189.759 Y961.158
X189.876 Y961.311
X189.949 Y961.489
X189.974 Y961.68
Y963.046
G3 X189.609 Y963.349 I-0.317 J-0.011
G1 X189.362 Y963.311
X181.851 Y962.159
X181.636 Y962.126
G3 X181.388 Y961.698 I0.048 J-0.314
G1 X181.604 Y961.195
X181.673 Y961.028
X181.74 Y960.86
X181.806 Y960.692
X181.869 Y960.525
X181.928 Y960.387
X182.005 Y960.258
X182.101 Y960.126
X182.21 Y959.998
X182.353 Y959.856
X182.521 Y959.713
X182.723 Y959.568
X182.97 Y959.419
X183.254 Y959.277
X183.596 Y959.14
X184. Y959.014
X184.435 Y958.916
X184.964 Y958.841
X185.573 Y958.804
X186.195 Y958.816
X186.901 Y958.887
X187.627 Y959.02
X188.341 Y959.206
X188.976 Y959.422
X189.363 Y959.59
X189.615 Y959.724
X189.632 Y959.735
X189.775 Y959.853
X189.883 Y960.003
X189.951 Y960.175
X189.974 Y960.359
Y961.68
G3 X189.613 Y961.983 I-0.317 J-0.011
G1 X189.362 Y961.948
X182.352 Y960.972
X182.126 Y960.94
G3 X181.869 Y960.525 I0.044 J-0.314
G1 X181.994 Y960.19
X182.056 Y960.022
X182.225 Y959.52
X182.255 Y959.428
X182.309 Y959.288
X182.38 Y959.155
X182.462 Y959.03
X182.562 Y958.903
X182.692 Y958.762
X182.837 Y958.627
X183.027 Y958.479
X183.233 Y958.342
X183.502 Y958.193
X183.79 Y958.063
X184.165 Y957.929
X184.563 Y957.821
X185.04 Y957.733
X185.612 Y957.674
X186.204 Y957.66
X186.885 Y957.7
X187.616 Y957.801
X188.337 Y957.959
X188.936 Y958.138
X189.295 Y958.277
X189.557 Y958.404
X189.609 Y958.435
X189.76 Y958.553
X189.877 Y958.706
X189.949 Y958.883
X189.974 Y959.074
Y960.359
G3 X189.62 Y960.663 I-0.317 J-0.011
G1 X189.361 Y960.633
X182.755 Y959.859
X182.523 Y959.832
G3 X182.255 Y959.428 I0.037 J-0.315
G1 X182.308 Y959.267
X182.334 Y959.185
X182.531 Y958.515
X182.578 Y958.347
X182.622 Y958.204
X182.689 Y958.069
X182.767 Y957.941
X182.867 Y957.807
X182.982 Y957.675
X183.129 Y957.532
X183.298 Y957.392
X183.508 Y957.245
X183.749 Y957.103
X184.043 Y956.961
X184.378 Y956.831
X184.791 Y956.708
X185.224 Y956.616
X185.754 Y956.547
X186.378 Y956.516
X187.035 Y956.537
X187.758 Y956.618
X188.43 Y956.749
X188.948 Y956.893
X189.289 Y957.019
X189.535 Y957.132
X189.597 Y957.168
X189.753 Y957.285
X189.873 Y957.44
X189.949 Y957.62
X189.974 Y957.813
Y959.074
G3 X189.627 Y959.378 I-0.317 J-0.011
G1 X189.36 Y959.353
X183.105 Y958.755
X182.858 Y958.731
G3 X182.578 Y958.347 I0.03 J-0.316
G1 X182.707 Y957.844
X182.833 Y957.342
X182.872 Y957.197
X182.927 Y957.057
X182.996 Y956.924
X183.077 Y956.796
X183.178 Y956.664
X183.301 Y956.527
X183.456 Y956.379
X183.633 Y956.236
X183.853 Y956.086
X184.101 Y955.944
X184.405 Y955.801
X184.754 Y955.67
X185.164 Y955.553
X185.662 Y955.453
X186.18 Y955.392
X186.796 Y955.369
X187.469 Y955.398
X188.123 Y955.479
X188.691 Y955.596
X189.073 Y955.708
X189.377 Y955.823
X189.597 Y955.928
X189.605 Y955.933
X189.758 Y956.051
X189.875 Y956.204
X189.949 Y956.383
X189.974 Y956.574
Y957.813
G3 X189.637 Y958.119 I-0.317 J-0.011
G1 X189.36 Y958.102
X183.373 Y957.732
X183.125 Y957.716
G3 X182.833 Y957.342 I0.02 J-0.317
G1 X182.87 Y957.174
X183.045 Y956.337
X183.063 Y956.245
X183.1 Y956.099
X183.154 Y955.959
X183.223 Y955.826
X183.303 Y955.699
X183.409 Y955.558
X183.532 Y955.419
X183.687 Y955.269
X183.868 Y955.121
X184.091 Y954.966
X184.349 Y954.817
X184.664 Y954.666
X185.004 Y954.536
X185.433 Y954.411
X185.901 Y954.314
X186.439 Y954.246
X187.049 Y954.22
X187.68 Y954.243
X188.262 Y954.311
X188.773 Y954.413
X189.112 Y954.51
X189.394 Y954.615
X189.548 Y954.688
X189.723 Y954.802
X189.859 Y954.961
X189.945 Y955.151
X189.974 Y955.358
Y956.574
G3 X189.643 Y956.88 I-0.317 J-0.011
G1 X189.359 Y956.868
X183.611 Y956.624
X183.363 Y956.613
G3 X183.063 Y956.245 I0.013 J-0.317
G1 X183.078 Y956.169
X183.248 Y955.164
X183.277 Y955.017
X183.331 Y954.877
X183.398 Y954.743
X183.481 Y954.609
X183.584 Y954.468
X183.712 Y954.32
X183.863 Y954.17
X184.054 Y954.01
X184.271 Y953.856
X184.534 Y953.699
X184.842 Y953.548
X185.192 Y953.409
X185.627 Y953.276
X186.084 Y953.176
X186.617 Y953.103
X187.198 Y953.071
X187.791 Y953.086
X188.335 Y953.143
X188.787 Y953.228
X189.128 Y953.321
X189.378 Y953.411
X189.54 Y953.485
X189.718 Y953.599
X189.856 Y953.758
X189.944 Y953.95
X189.974 Y954.159
Y955.358
G3 X189.649 Y955.665 I-0.317 J-0.011
G1 X189.359 Y955.658
X183.814 Y955.523
X183.555 Y955.517
G3 X183.248 Y955.164 I0.008 J-0.317
G1 X183.272 Y954.996
X183.339 Y954.494
X183.382 Y954.159
X183.409 Y954.011
X183.453 Y953.868
X183.511 Y953.729
X183.584 Y953.593
X183.672 Y953.457
X183.787 Y953.307
X183.922 Y953.157
X184.092 Y952.997
X184.291 Y952.836
X184.535 Y952.671
X184.806 Y952.518
X185.148 Y952.358
X185.512 Y952.224
X185.951 Y952.1
X186.459 Y952.
X186.997 Y951.938
X187.55 Y951.92
X188.082 Y951.945
X188.556 Y952.005
X188.929 Y952.084
X189.236 Y952.175
X189.455 Y952.259
X189.555 Y952.307
X189.727 Y952.422
X189.861 Y952.581
X189.945 Y952.77
X189.974 Y952.975
Y954.159
G3 X189.659 Y954.465 I-0.317 J-0.011
G1 X189.359 Y954.467
X183.956 Y954.504
X183.701 Y954.506
G3 X183.382 Y954.159 I-0.002 J-0.317
G1 X183.425 Y953.824
X183.458 Y953.489
X183.488 Y953.154
X183.509 Y953.005
X183.543 Y952.859
X183.593 Y952.717
X183.656 Y952.581
X183.733 Y952.445
X183.837 Y952.292
X183.957 Y952.143
X184.114 Y951.978
X184.289 Y951.821
X184.513 Y951.65
X184.763 Y951.489
X185.07 Y951.325
X185.428 Y951.169
X185.82 Y951.034
X186.282 Y950.916
X186.791 Y950.829
X187.32 Y950.781
X187.836 Y950.777
X188.322 Y950.811
X188.749 Y950.877
X189.068 Y950.952
X189.327 Y951.036
X189.538 Y951.123
X189.571 Y951.14
X189.737 Y951.256
X189.865 Y951.413
X189.947 Y951.598
X189.974 Y951.799
Y952.975
G3 X189.668 Y953.281 I-0.317 J-0.011
G1 X189.359 Y953.292
X184.075 Y953.479
X183.816 Y953.488
G3 X183.488 Y953.154 I-0.011 J-0.317
G1 X183.547 Y952.483
X183.562 Y952.316
X183.575 Y952.056
X183.59 Y951.907
X183.625 Y951.761
X183.675 Y951.62
X183.738 Y951.484
X183.822 Y951.336
X183.922 Y951.188
X184.055 Y951.023
X184.206 Y950.864
X184.398 Y950.69
X184.616 Y950.523
X184.882 Y950.352
X185.196 Y950.183
X185.544 Y950.031
X185.96 Y949.888
X186.424 Y949.768
X186.909 Y949.685
X187.418 Y949.638
X187.928 Y949.633
X188.385 Y949.665
X188.791 Y949.726
X189.09 Y949.797
X189.343 Y949.878
X189.546 Y949.962
X189.57 Y949.974
X189.736 Y950.09
X189.865 Y950.247
X189.946 Y950.433
X189.974 Y950.634
Y951.799
G3 X189.672 Y952.105 I-0.317 J-0.011
G1 X189.36 Y952.12
X184.173 Y952.366
X183.907 Y952.378
G3 X183.575 Y952.056 I-0.015 J-0.317
G1 X183.612 Y951.311
X183.627 Y950.976
X183.641 Y950.826
X183.674 Y950.68
X183.724 Y950.538
X183.785 Y950.401
X183.868 Y950.249
X183.968 Y950.099
X184.099 Y949.931
X184.249 Y949.768
X184.444 Y949.588
X184.659 Y949.419
X184.933 Y949.237
X185.233 Y949.071
X185.586 Y948.912
X185.999 Y948.763
X186.448 Y948.642
X186.923 Y948.554
X187.424 Y948.502
X187.925 Y948.49
X188.374 Y948.516
X188.773 Y948.571
X189.067 Y948.636
X189.323 Y948.715
X189.524 Y948.795
X189.562 Y948.813
X189.731 Y948.929
X189.863 Y949.086
X189.946 Y949.274
X189.974 Y949.477
Y950.634
G3 X189.677 Y950.94 I-0.317 J-0.011
G1 X189.36 Y950.959
X184.228 Y951.278
X183.964 Y951.295
G3 X183.627 Y950.976 I-0.02 J-0.317
G1 X183.634 Y950.808
X183.64 Y950.641
X183.647 Y949.97
X183.656 Y949.821
X183.681 Y949.673
X183.721 Y949.528
X183.775 Y949.388
X183.843 Y949.247
X183.935 Y949.089
X184.045 Y948.932
X184.188 Y948.758
X184.353 Y948.588
X184.561 Y948.406
X184.8 Y948.228
X185.081 Y948.052
X185.42 Y947.875
X185.783 Y947.722
X186.199 Y947.585
X186.665 Y947.471
X187.156 Y947.393
X187.651 Y947.355
X188.118 Y947.356
X188.553 Y947.392
X188.888 Y947.447
X189.176 Y947.519
X189.396 Y947.592
X189.525 Y947.648
X189.708 Y947.76
X189.852 Y947.921
X189.943 Y948.116
X189.974 Y948.329
Y949.477
G3 X189.685 Y949.783 I-0.317 J-0.011
G1 X189.36 Y949.811
X184.258 Y950.256
X183.992 Y950.279
G3 X183.647 Y949.97 I-0.028 J-0.316
G1 X183.652 Y949.468
X183.654 Y949.133
Y948.965
X183.651 Y948.873
X183.655 Y948.723
X183.68 Y948.575
X183.721 Y948.431
X183.775 Y948.291
X183.848 Y948.14
X183.939 Y947.985
X184.059 Y947.813
X184.199 Y947.643
X184.375 Y947.462
X184.583 Y947.28
X184.825 Y947.1
X185.125 Y946.912
X185.446 Y946.745
X185.827 Y946.585
X186.261 Y946.442
X186.729 Y946.329
X187.213 Y946.252
X187.696 Y946.214
X188.152 Y946.216
X188.571 Y946.251
X188.897 Y946.305
X189.186 Y946.377
X189.397 Y946.448
X189.525 Y946.503
X189.709 Y946.616
X189.852 Y946.776
X189.943 Y946.971
X189.974 Y947.184
Y948.329
G3 X189.687 Y948.634 I-0.317 J-0.011
G1 X189.361 Y948.664
X184.273 Y949.143
X183.998 Y949.169
G3 X183.651 Y948.873 I-0.03 J-0.316
G1 X183.622 Y947.792
X183.625 Y947.643
X183.65 Y947.495
X183.69 Y947.35
X183.743 Y947.21
X183.818 Y947.052
X183.908 Y946.895
X184.029 Y946.719
X184.167 Y946.549
X184.348 Y946.36
X184.55 Y946.18
X184.803 Y945.988
X185.097 Y945.801
X185.426 Y945.628
X185.815 Y945.46
X186.25 Y945.313
X186.71 Y945.198
X187.189 Y945.118
X187.674 Y945.077
X188.128 Y945.075
X188.543 Y945.106
X188.874 Y945.158
X189.167 Y945.229
X189.38 Y945.299
X189.52 Y945.358
X189.705 Y945.47
X189.85 Y945.631
X189.943 Y945.827
X189.974 Y946.041
Y947.184
G3 X189.69 Y947.489 I-0.317 J-0.011
G1 X189.361 Y947.523
X184.243 Y948.06
X183.972 Y948.088
G3 X183.622 Y947.792 I-0.033 J-0.316
G1 X183.612 Y947.457
X183.606 Y947.29
X183.579 Y946.787
X183.577 Y946.637
X183.592 Y946.488
X183.624 Y946.341
X183.669 Y946.199
X183.729 Y946.052
X183.812 Y945.89
X183.913 Y945.726
X184.044 Y945.546
X184.199 Y945.366
X184.391 Y945.176
X184.622 Y944.982
X184.886 Y944.795
X185.208 Y944.602
X185.564 Y944.426
X185.959 Y944.27
X186.406 Y944.133
X186.883 Y944.028
X187.372 Y943.961
X187.846 Y943.934
X188.298 Y943.945
X188.685 Y943.986
X188.996 Y944.044
X189.251 Y944.113
X189.458 Y944.188
X189.54 Y944.225
X189.718 Y944.339
X189.856 Y944.498
X189.944 Y944.69
X189.974 Y944.899
Y946.041
G3 X189.697 Y946.345 I-0.317 J-0.011
G1 X189.362 Y946.387
X184.211 Y947.036
X183.935 Y947.07
G3 X183.579 Y946.787 I-0.04 J-0.315
G1 X183.507 Y945.69
X183.504 Y945.54
X183.522 Y945.391
X183.555 Y945.245
X183.601 Y945.102
X183.666 Y944.947
X183.748 Y944.786
X183.858 Y944.61
X183.99 Y944.431
X184.155 Y944.241
X184.354 Y944.045
X184.584 Y943.854
X184.87 Y943.652
X185.182 Y943.467
X185.547 Y943.289
X185.967 Y943.125
X186.427 Y942.986
X186.909 Y942.882
X187.399 Y942.816
X187.872 Y942.792
X188.312 Y942.804
X188.705 Y942.847
X189.006 Y942.904
X189.264 Y942.976
X189.467 Y943.05
X189.542 Y943.084
X189.719 Y943.198
X189.857 Y943.357
X189.944 Y943.549
X189.974 Y943.758
Y944.899
G3 X189.699 Y945.203 I-0.317 J-0.011
G1 X189.362 Y945.247
X184.139 Y945.937
X183.864 Y945.973
G3 X183.507 Y945.69 I-0.042 J-0.315
G1 X183.468 Y945.112
X183.426 Y944.685
X183.419 Y944.535
X183.427 Y944.385
X183.452 Y944.237
X183.49 Y944.092
X183.544 Y943.942
X183.618 Y943.78
X183.712 Y943.61
X183.832 Y943.43
X183.981 Y943.241
X184.158 Y943.05
X184.382 Y942.844
X184.629 Y942.651
X184.937 Y942.449
X185.29 Y942.255
X185.672 Y942.084
X186.111 Y941.928
X186.587 Y941.801
X187.083 Y941.71
X187.58 Y941.66
X188.051 Y941.651
X188.485 Y941.677
X188.826 Y941.725
X189.121 Y941.792
X189.347 Y941.862
X189.553 Y941.945
X189.564 Y941.95
X189.733 Y942.066
X189.863 Y942.223
X189.946 Y942.41
X189.974 Y942.613
Y943.758
G3 X189.704 Y944.06 I-0.317 J-0.011
G1 X189.363 Y944.112
X184.067 Y944.914
X183.788 Y944.956
G3 X183.426 Y944.685 I-0.048 J-0.314
G1 X183.314 Y943.604
X183.306 Y943.454
X183.315 Y943.305
X183.34 Y943.157
X183.378 Y943.012
X183.433 Y942.858
X183.506 Y942.696
X183.604 Y942.518
X183.724 Y942.336
X183.876 Y942.141
X184.061 Y941.94
X184.276 Y941.741
X184.547 Y941.528
X184.843 Y941.332
X185.195 Y941.137
X185.605 Y940.951
X186.056 Y940.789
X186.53 Y940.661
X187.032 Y940.567
X187.543 Y940.514
X188.017 Y940.503
X188.446 Y940.527
X188.819 Y940.579
X189.104 Y940.642
X189.341 Y940.715
X189.54 Y940.794
X189.561 Y940.804
X189.731 Y940.92
X189.863 Y941.077
X189.946 Y941.265
X189.974 Y941.469
Y942.613
G3 X189.707 Y942.916 I-0.317 J-0.011
G1 X189.363 Y942.97
X183.955 Y943.83
X183.678 Y943.874
G3 X183.314 Y943.604 I-0.05 J-0.314
G1 X183.244 Y942.934
X183.193 Y942.507
X183.182 Y942.357
X183.193 Y942.208
X183.219 Y942.06
X183.258 Y941.915
X183.316 Y941.754
X183.39 Y941.59
X183.491 Y941.408
X183.613 Y941.223
X183.77 Y941.024
X183.959 Y940.82
X184.183 Y940.613
X184.464 Y940.394
X184.768 Y940.193
X185.131 Y939.994
X185.552 Y939.805
X186.016 Y939.639
X186.503 Y939.509
X187.015 Y939.415
X187.531 Y939.363
X188.012 Y939.353
X188.448 Y939.379
X188.821 Y939.431
X189.108 Y939.496
X189.344 Y939.569
X189.545 Y939.649
X189.563 Y939.658
X189.732 Y939.774
X189.863 Y939.931
X189.946 Y940.119
X189.974 Y940.322
Y941.469
G3 X189.708 Y941.771 I-0.317 J-0.011
G1 X189.364 Y941.827
X183.838 Y942.725
X183.557 Y942.771
G3 X183.193 Y942.507 I-0.051 J-0.313
G1 X183.162 Y942.264
X183.06 Y941.502
X183.047 Y941.352
X183.049 Y941.202
X183.066 Y941.053
X183.098 Y940.907
X183.145 Y940.754
X183.212 Y940.587
X183.298 Y940.412
X183.41 Y940.225
X183.55 Y940.028
X183.721 Y939.826
X183.936 Y939.608
X184.177 Y939.401
X184.481 Y939.179
X184.826 Y938.968
X185.209 Y938.774
X185.654 Y938.592
X186.146 Y938.435
X186.665 Y938.314
X187.192 Y938.236
X187.705 Y938.201
X188.183 Y938.207
X188.614 Y938.247
X188.93 Y938.303
X189.213 Y938.376
X189.423 Y938.449
X189.532 Y938.497
X189.713 Y938.61
X189.854 Y938.77
X189.944 Y938.964
X189.974 Y939.175
Y940.322
G3 X189.714 Y940.623 I-0.317 J-0.011
G1 X189.365 Y940.686
X183.708 Y941.71
X183.429 Y941.761
G3 X183.06 Y941.502 I-0.057 J-0.312
G1 X183.027 Y941.259
X183.002 Y941.091
X182.978 Y940.954
X182.928 Y940.756
X182.896 Y940.664
X182.854 Y940.52
X182.833 Y940.371
X182.831 Y940.221
X182.845 Y940.072
X182.872 Y939.925
X182.916 Y939.765
X182.975 Y939.601
X183.059 Y939.416
X183.163 Y939.228
X183.303 Y939.019
X183.464 Y938.815
X183.673 Y938.591
X183.91 Y938.374
X184.197 Y938.15
X184.547 Y937.92
X184.925 Y937.714
X185.36 Y937.519
X185.851 Y937.345
X186.379 Y937.205
X186.923 Y937.106
X187.466 Y937.053
X187.972 Y937.043
X188.433 Y937.072
X188.795 Y937.123
X189.104 Y937.193
X189.335 Y937.265
X189.547 Y937.351
X189.565 Y937.36
X189.733 Y937.475
X189.864 Y937.633
X189.946 Y937.82
X189.974 Y938.022
Y939.175
G3 X189.724 Y939.475 I-0.317 J-0.011
G1 X189.367 Y939.551
X183.588 Y940.79
X183.259 Y940.86
X183.193 Y940.867
G3 X182.896 Y940.664 I0. J-0.318
G1 X182.87 Y940.589
X182.745 Y940.254
X182.578 Y939.826
X182.531 Y939.684
X182.503 Y939.537
X182.493 Y939.387
X182.497 Y939.237
X182.517 Y939.084
X182.549 Y938.927
X182.602 Y938.747
X182.671 Y938.567
X182.769 Y938.361
X182.887 Y938.159
X183.045 Y937.931
X183.23 Y937.705
X183.456 Y937.471
X183.737 Y937.223
X184.044 Y936.993
X184.414 Y936.76
X184.848 Y936.533
X185.335 Y936.326
X185.847 Y936.155
X186.4 Y936.019
X186.973 Y935.927
X187.535 Y935.881
X188.038
X188.491 Y935.918
X188.861 Y935.978
X189.153 Y936.049
X189.382 Y936.125
X189.523 Y936.185
X189.707 Y936.298
X189.851 Y936.458
X189.943 Y936.654
X189.974 Y936.867
Y938.022
G3 X189.734 Y938.319 I-0.317 J-0.011
G1 X189.37 Y938.41
X183.275 Y939.927
X182.946 Y940.008
G3 X182.578 Y939.826 I-0.077 J-0.308
G1 X182.549 Y939.751
X182.476 Y939.571
X182.308 Y939.176
X182.267 Y939.081
X182.223 Y938.989
X182.166 Y938.85
X182.13 Y938.704
X182.111 Y938.556
X182.107 Y938.406
X182.117 Y938.251
X182.141 Y938.094
X182.183 Y937.911
X182.241 Y937.727
X182.327 Y937.515
X182.433 Y937.305
X182.575 Y937.073
X182.748 Y936.835
X182.957 Y936.591
X183.223 Y936.327
X183.519 Y936.077
X183.875 Y935.822
X184.295 Y935.57
X184.774 Y935.332
X185.282 Y935.129
X185.84 Y934.957
X186.437 Y934.824
X187.037 Y934.74
X187.615 Y934.706
X188.123 Y934.717
X188.576 Y934.763
X188.918 Y934.826
X189.209 Y934.904
X189.423 Y934.981
X189.538 Y935.032
X189.716 Y935.146
X189.856 Y935.306
X189.944 Y935.498
X189.974 Y935.708
Y936.867
G3 X189.742 Y937.162 I-0.317 J-0.011
G1 X189.372 Y937.265
X182.929 Y939.055
X182.591 Y939.15
G3 X182.223 Y938.989 I-0.085 J-0.306
G1 X182.03 Y938.578
X181.805 Y938.128
X181.744 Y937.991
X181.704 Y937.846
X181.681 Y937.698
X181.673 Y937.548
X181.678 Y937.391
X181.696 Y937.227
X181.732 Y937.041
X181.786 Y936.847
X181.866 Y936.632
X181.971 Y936.405
X182.104 Y936.169
X182.28 Y935.909
X182.481 Y935.657
X182.74 Y935.382
X183.054 Y935.097
X183.401 Y934.831
X183.816 Y934.562
X184.299 Y934.302
X184.843 Y934.063
X185.424 Y933.861
X186.036 Y933.702
X186.672 Y933.591
X187.285 Y933.534
X187.841 Y933.527
X188.347 Y933.561
X188.759 Y933.623
X189.079 Y933.697
X189.326 Y933.776
X189.54 Y933.864
X189.569 Y933.878
X189.736 Y933.994
X189.865 Y934.151
X189.946 Y934.338
X189.974 Y934.539
Y935.708
G3 X189.748 Y936.001 I-0.317 J-0.011
G1 X189.374 Y936.113
X182.514 Y938.176
X182.175 Y938.278
G3 X181.805 Y938.128 I-0.091 J-0.304
G1 X181.779 Y938.076
X181.638 Y937.813
X181.47 Y937.503
X181.416 Y937.405
X181.362 Y937.313
X181.294 Y937.18
X181.246 Y937.038
X181.215 Y936.891
X181.198 Y936.742
X181.195 Y936.585
X181.205 Y936.42
X181.231 Y936.23
X181.274 Y936.037
X181.343 Y935.814
X181.432 Y935.591
X181.559 Y935.335
X181.713 Y935.078
X181.907 Y934.807
X182.157 Y934.512
X182.436 Y934.231
X182.781 Y933.935
X183.2 Y933.63
X183.676 Y933.34
X184.191 Y933.08
X184.776 Y932.841
X185.417 Y932.638
X186.087 Y932.483
X186.753 Y932.385
X187.399 Y932.343
X187.974 Y932.351
X188.458 Y932.397
X188.858 Y932.468
X189.16 Y932.546
X189.395 Y932.628
X189.533 Y932.689
X189.713 Y932.803
X189.854 Y932.963
X189.944 Y933.156
X189.974 Y933.367
Y934.539
G3 X189.755 Y934.83 I-0.317 J-0.011
G1 X189.377 Y934.953
X182.076 Y937.334
X181.73 Y937.447
G3 X181.362 Y937.313 I-0.098 J-0.302
G1 X181.222 Y937.07
X181.122 Y936.903
X180.878 Y936.517
X180.804 Y936.387
X180.749 Y936.247
X180.71 Y936.102
X180.685 Y935.954
X180.674 Y935.797
X180.675 Y935.634
X180.691 Y935.444
X180.724 Y935.249
X180.781 Y935.021
X180.858 Y934.793
X180.97 Y934.535
X181.11 Y934.27
X181.29 Y933.989
X181.525 Y933.678
X181.791 Y933.38
X182.126 Y933.061
X182.529 Y932.735
X182.99 Y932.418
X183.495 Y932.129
X184.084 Y931.851
X184.741 Y931.604
X185.439 Y931.404
X186.158 Y931.259
X186.862 Y931.174
X187.523 Y931.149
X188.1 Y931.173
X188.578 Y931.232
X188.938 Y931.306
X189.236 Y931.392
X189.453 Y931.475
X189.551 Y931.521
X189.725 Y931.636
X189.86 Y931.795
X189.945 Y931.984
X189.974 Y932.191
Y933.367
G3 X189.762 Y933.656 I-0.317 J-0.011
G1 X189.38 Y933.789
X181.594 Y936.515
X181.245 Y936.638
G3 X180.878 Y936.517 I-0.105 J-0.3
G1 X180.8 Y936.394
X180.694 Y936.233
X180.462 Y935.898
X180.343 Y935.73
X180.261 Y935.605
X180.201 Y935.467
X180.157 Y935.324
X180.126 Y935.177
X180.108 Y935.017
X180.102 Y934.852
X180.111 Y934.658
X180.136 Y934.459
X180.185 Y934.226
X180.255 Y933.989
X180.357 Y933.725
X180.492 Y933.444
X180.661 Y933.154
X180.888 Y932.828
X181.152 Y932.507
X181.475 Y932.174
X181.868 Y931.827
X182.338 Y931.477
X182.847 Y931.157
X183.438 Y930.849
X184.11 Y930.565
X184.811 Y930.333
X185.527 Y930.155
X186.254 Y930.031
X186.979 Y929.963
X187.65 Y929.955
X188.217 Y929.993
X188.684 Y930.063
X189.023 Y930.142
X189.302 Y930.231
X189.515 Y930.319
X189.569 Y930.346
X189.736 Y930.462
X189.865 Y930.619
X189.946 Y930.805
X189.974 Y931.006
Y932.191
G3 X189.767 Y932.477 I-0.317 J-0.011
G1 X189.382 Y932.62
X181.064 Y935.699
X180.703 Y935.832
G3 X180.343 Y935.73 I-0.11 J-0.298
G1 X180.13 Y935.438
X179.962 Y935.219
X179.795 Y935.008
X179.708 Y934.885
X179.637 Y934.753
X179.582 Y934.613
X179.542 Y934.469
X179.514 Y934.32
X179.497 Y934.153
X179.492 Y933.969
X179.504 Y933.768
X179.535 Y933.543
X179.588 Y933.304
X179.671 Y933.032
X179.779 Y932.761
X179.931 Y932.453
X180.122 Y932.133
X180.358 Y931.802
X180.666 Y931.436
X181.029 Y931.069
X181.438 Y930.717
X181.937 Y930.353
X182.525 Y929.992
X183.183 Y929.659
X183.866 Y929.378
X184.567 Y929.149
X185.283 Y928.97
X186.009 Y928.843
X186.743 Y928.768
X187.455 Y928.748
X188.05 Y928.779
X188.573 Y928.849
X188.941 Y928.929
X189.247 Y929.021
X189.467 Y929.108
X189.559 Y929.152
X189.729 Y929.268
X189.862 Y929.426
X189.946 Y929.614
X189.974 Y929.818
Y931.006
G3 X189.774 Y931.29 I-0.317 J-0.011
G1 X189.386 Y931.444
X180.517 Y934.953
X180.153 Y935.097
G3 X179.795 Y935.008 I-0.117 J-0.295
G1 X179.627 Y934.796
X179.57 Y934.725
X179.432 Y934.557
X179.29 Y934.39
X179.208 Y934.298
X179.114 Y934.181
X179.035 Y934.053
X178.971 Y933.918
X178.922 Y933.776
X178.884 Y933.627
X178.858 Y933.469
X178.842 Y933.282
Y933.088
X178.859 Y932.859
X178.896 Y932.626
X178.961 Y932.355
X179.052 Y932.077
X179.182 Y931.768
X179.359 Y931.427
X179.569 Y931.091
X179.842 Y930.723
X180.187 Y930.328
X180.574 Y929.952
X181.048 Y929.56
X181.617 Y929.161
X182.254 Y928.788
X182.917 Y928.466
X183.602 Y928.192
X184.304 Y927.965
X185.02 Y927.785
X185.746 Y927.655
X186.479 Y927.572
X187.216 Y927.54
X187.867 Y927.562
X188.42 Y927.626
X188.848 Y927.71
X189.172 Y927.801
X189.41 Y927.889
X189.546 Y927.953
X189.721 Y928.067
X189.858 Y928.226
X189.945 Y928.417
X189.974 Y928.624
Y929.818
G3 X189.779 Y930.1 I-0.317 J-0.011
G1 X189.389 Y930.263
X179.932 Y934.216
X179.56 Y934.372
G3 X179.208 Y934.298 I-0.122 J-0.293
G1 X179.124 Y934.204
X178.957 Y934.02
X178.622 Y933.659
X178.565 Y933.6
X178.467 Y933.487
X178.383 Y933.363
X178.313 Y933.23
X178.257 Y933.091
X178.213 Y932.942
X178.179 Y932.785
X178.155 Y932.597
X178.145 Y932.401
X178.153 Y932.17
X178.18 Y931.929
X178.232 Y931.66
X178.315 Y931.364
X178.428 Y931.057
X178.591 Y930.703
X178.792 Y930.348
X179.045 Y929.972
X179.373 Y929.562
X179.772 Y929.137
X180.221 Y928.73
X180.775 Y928.304
X181.394 Y927.903
X182.042 Y927.55
X182.713 Y927.242
X183.402 Y926.979
X184.106 Y926.76
X184.823 Y926.584
X185.549 Y926.453
X186.282 Y926.368
X187.019 Y926.331
X187.718 Y926.346
X188.302 Y926.405
X188.772 Y926.491
X189.115 Y926.583
X189.368 Y926.674
X189.537 Y926.75
X189.716 Y926.864
X189.856 Y927.023
X189.944 Y927.216
X189.974 Y927.425
Y928.624
G3 X189.784 Y928.904 I-0.317 J-0.011
G1 X189.392 Y929.076
X179.289 Y933.5
X178.914 Y933.664
G3 X178.565 Y933.6 I-0.127 J-0.291
G1 X178.519 Y933.552
X178.119 Y933.154
X178.013 Y933.05
X177.952 Y932.992
X177.886 Y932.932
X177.78 Y932.825
X177.691 Y932.704
X177.617 Y932.574
X177.555 Y932.437
X177.504 Y932.287
X177.463 Y932.129
X177.43 Y931.94
X177.413 Y931.743
X177.41 Y931.508
X177.427 Y931.264
X177.469 Y930.987
X177.54 Y930.684
X177.642 Y930.368
X177.792 Y930.004
X177.98 Y929.636
X178.226 Y929.237
X178.542 Y928.805
X178.93 Y928.357
X179.368 Y927.925
X179.912 Y927.47
X180.514 Y927.043
X181.146 Y926.662
X181.802 Y926.325
X182.268 Y926.121
X182.363 Y926.087
X182.463 Y926.066
X182.564 Y926.059
X189.346
X189.496 Y926.067
X189.684 Y926.134
X189.839 Y926.263
X189.939 Y926.436
X189.974 Y926.634
G3 X189.455 Y926.868 I-0.317 J-0.011
G1 X189.394 Y926.818
X189.169 Y926.633
X189.155 Y926.622
G3 X189.346 Y926.059 I0.202 J-0.245
G1 X189.513
X189.681 Y926.061
X189.723 Y926.069
X189.765 Y926.082
X189.807 Y926.103
X189.848 Y926.132
X189.898 Y926.181
X189.928 Y926.223
X189.95 Y926.265
X189.964 Y926.306
X189.972 Y926.348
X189.974 Y926.516
Y927.425
G3 X189.789 Y927.703 I-0.317 J-0.011
G1 X189.394 Y927.883
X178.61 Y932.803
X178.224 Y932.979
G3 X177.886 Y932.932 I-0.132 J-0.289
G1 X177.449 Y932.531
X177.186 Y932.303
X177.077 Y932.2
X176.982 Y932.084
X176.9 Y931.959
X176.831 Y931.825
X176.772 Y931.68
X176.723 Y931.525
X176.681 Y931.339
X176.653 Y931.145
X176.638 Y930.911
X176.642 Y930.67
X176.669 Y930.387
X176.722 Y930.093
X176.808 Y929.764
X176.938 Y929.394
X177.103 Y929.024
X177.332 Y928.602
X177.628 Y928.149
X177.97 Y927.708
X178.398 Y927.238
X178.922 Y926.749
X179.5 Y926.29
X179.652 Y926.187
X179.781 Y926.117
X179.922 Y926.074
X180.068 Y926.059
X182.564
G3 X182.788 Y926.59 I-0.011 J0.317
G1 X182.746 Y926.637
X177.826 Y932.043
X177.62 Y932.27
G3 X177.186 Y932.303 I-0.235 J-0.214
G1 X177.079 Y932.212
X176.878 Y932.044
X176.779 Y931.964
X176.457 Y931.709
X176.345 Y931.61
X176.243 Y931.5
X176.154 Y931.379
X176.078 Y931.25
X176.012 Y931.109
X175.956 Y930.958
X175.903 Y930.776
X175.865 Y930.584
X175.838 Y930.352
X175.829 Y930.112
X175.841 Y929.832
X175.878 Y929.535
X175.946 Y929.203
X176.056 Y928.825
X176.201 Y928.446
X176.404 Y928.021
X176.675 Y927.552
X176.993 Y927.093
X177.396 Y926.6
X177.698 Y926.286
X177.853 Y926.163
X178.036 Y926.086
X178.232 Y926.059
X180.068
G3 X180.321 Y926.554 I-0.011 J0.317
G1 X180.26 Y926.645
X177.062 Y931.405
X176.909 Y931.631
G3 X176.457 Y931.709 I-0.264 J-0.177
G1 X176.276 Y931.567
X176.013 Y931.374
X175.773 Y931.2
X175.681 Y931.136
X175.563 Y931.044
X175.457 Y930.937
X175.364 Y930.819
X175.284 Y930.693
X175.211 Y930.552
X175.148 Y930.401
X175.088 Y930.218
X175.042 Y930.024
X175.005 Y929.791
X174.986 Y929.545
X174.988 Y929.264
X175.015 Y928.951
X175.07 Y928.62
X175.168 Y928.23
X175.302 Y927.833
X175.487 Y927.402
X175.742 Y926.921
X176.028 Y926.474
X176.119 Y926.353
X176.282 Y926.195
X176.485 Y926.094
X176.71 Y926.059
X178.232
G3 X178.502 Y926.524 I-0.011 J0.317
G1 X178.435 Y926.652
X176.255 Y930.789
X176.135 Y931.017
G3 X175.681 Y931.136 I-0.281 J-0.148
G1 X175.301 Y930.872
X174.856 Y930.579
X174.734 Y930.491
X174.627 Y930.386
X174.533 Y930.27
X174.449 Y930.145
X174.371 Y930.002
X174.302 Y929.848
X174.236 Y929.662
X174.183 Y929.463
X174.139 Y929.225
X174.114 Y928.97
X174.108 Y928.681
X174.128 Y928.353
X174.176 Y928.014
X174.266 Y927.614
X174.397 Y927.192
X174.557 Y926.795
X174.706 Y926.496
X174.753 Y926.417
X174.871 Y926.269
X175.023 Y926.155
X175.199 Y926.083
X175.388 Y926.059
X176.71
G3 X176.991 Y926.501 I-0.011 J0.317
G1 X176.924 Y926.657
X175.407 Y930.21
X175.312 Y930.432
G3 X174.856 Y930.579 I-0.292 J-0.125
G1 X174.768 Y930.522
X174.6 Y930.415
X174.098 Y930.112
X174.056 Y930.089
X173.93 Y930.008
X173.816 Y929.91
X173.714 Y929.8
X173.623 Y929.68
X173.541 Y929.549
X173.461 Y929.396
X173.388 Y929.223
X173.322 Y929.026
X173.267 Y928.8
X173.227 Y928.55
X173.203 Y928.258
X173.204 Y927.954
X173.232 Y927.607
X173.291 Y927.248
X173.365 Y926.948
X173.454 Y926.679
X173.541 Y926.476
X173.551 Y926.456
X173.668 Y926.292
X173.824 Y926.166
X174.009 Y926.086
X174.208 Y926.059
X175.388
G3 X175.677 Y926.479 I-0.011 J0.317
G1 X175.614 Y926.662
X174.581 Y929.685
X174.504 Y929.91
G3 X174.056 Y930.089 I-0.3 J-0.103
G1 X173.595 Y929.826
X173.26 Y929.642
X173.168 Y929.592
X173.04 Y929.514
X172.926 Y929.416
X172.823 Y929.307
X172.731 Y929.189
X172.641 Y929.051
X172.559 Y928.899
X172.478 Y928.716
X172.408 Y928.516
X172.348 Y928.285
X172.302 Y928.029
X172.277 Y927.763
X172.273 Y927.479
X172.291 Y927.203
X172.325 Y926.973
X172.376 Y926.751
X172.432 Y926.573
X172.454 Y926.52
X172.565 Y926.332
X172.726 Y926.185
X172.924 Y926.091
X173.14 Y926.059
X174.208
G3 X174.5 Y926.468 I-0.011 J0.317
G1 X174.441 Y926.664
X173.681 Y929.177
X173.614 Y929.4
G3 X173.168 Y929.592 I-0.304 J-0.092
G1 X173.056 Y929.531
X172.925 Y929.463
X172.387 Y929.196
X172.314 Y929.161
X172.183 Y929.089
X172.063 Y928.998
X171.955 Y928.894
X171.857 Y928.781
X171.764 Y928.652
X171.678 Y928.51
X171.592 Y928.34
X171.519 Y928.159
X171.457 Y927.96
X171.407 Y927.742
X171.374 Y927.515
X171.361 Y927.304
X171.364 Y927.103
X171.383 Y926.903
X171.413 Y926.738
X171.458 Y926.569
X171.463 Y926.554
X171.57 Y926.354
X171.734 Y926.195
X171.937 Y926.094
X172.162 Y926.059
X173.14
G3 X173.435 Y926.461 I-0.011 J0.317
G1 X173.378 Y926.666
X172.812 Y928.724
X172.749 Y928.955
G3 X172.314 Y929.161 I-0.306 J-0.084
G1 X171.919 Y928.969
X171.584 Y928.821
X171.492 Y928.781
X171.358 Y928.714
X171.231 Y928.634
X171.115 Y928.539
X171.009 Y928.432
X170.914 Y928.316
X170.827 Y928.189
X170.749 Y928.052
X170.676 Y927.898
X170.613 Y927.729
X170.562 Y927.549
X170.528 Y927.378
X170.509 Y927.216
X170.502 Y927.037
X170.509 Y926.88
X170.527 Y926.731
X170.545 Y926.647
X170.613 Y926.457
X170.729 Y926.293
X170.886 Y926.167
X171.07 Y926.087
X171.27 Y926.059
X172.162
G3 X172.458 Y926.455 I-0.011 J0.317
G1 X172.404 Y926.667
X171.978 Y928.326
X171.917 Y928.565
G3 X171.492 Y928.781 I-0.308 J-0.079
G1 X171.249 Y928.674
X170.908 Y928.526
X170.746 Y928.458
X170.579 Y928.393
X170.442 Y928.331
X170.318 Y928.247
X170.205 Y928.148
X170.104 Y928.037
X170.014 Y927.918
X169.935 Y927.79
X169.867 Y927.656
X169.811 Y927.517
X169.766 Y927.374
X169.733 Y927.225
X169.712 Y927.076
X169.705 Y926.927
X169.71 Y926.777
X169.718 Y926.71
X169.775 Y926.504
X169.888 Y926.322
X170.048 Y926.18
X170.242 Y926.09
X170.454 Y926.059
X171.27
G3 X171.56 Y926.477 I-0.011 J0.317
G1 X171.498 Y926.662
X171.075 Y927.927
X170.985 Y928.194
G3 X170.579 Y928.393 I-0.301 J-0.101
G1 X169.909 Y928.131
X169.816 Y928.096
X169.679 Y928.036
X169.549 Y927.961
X169.432 Y927.867
X169.327 Y927.76
X169.235 Y927.641
X169.156 Y927.514
X169.092 Y927.379
X169.04 Y927.238
X169.003 Y927.092
X168.982 Y926.944
X168.975 Y926.794
X168.977 Y926.76
X169.022 Y926.541
X169.131 Y926.345
X169.294 Y926.191
X169.495 Y926.093
X169.716 Y926.059
X170.454
G3 X170.741 Y926.487 I-0.011 J0.317
G1 X170.676 Y926.66
X170.318 Y927.628
X170.216 Y927.905
G3 X169.816 Y928.096 I-0.298 J-0.11
G1 X169.741 Y928.068
X169.573 Y928.008
X169.071 Y927.834
X168.932 Y927.778
X168.802 Y927.703
X168.685 Y927.609
X168.583 Y927.499
X168.496 Y927.376
X168.426 Y927.244
X168.371 Y927.104
X168.335 Y926.959
X168.327 Y926.898
X168.329 Y926.689
X168.39 Y926.488
X168.504 Y926.312
X168.663 Y926.175
X168.854 Y926.089
X169.061 Y926.059
X169.716
G3 X169.993 Y926.511 I-0.011 J0.317
G1 X169.925 Y926.655
X169.592 Y927.366
X169.451 Y927.666
G3 X169.071 Y927.834 I-0.287 J-0.135
G1 X168.65 Y927.689
X168.568 Y927.661
X168.4 Y927.61
X168.259 Y927.559
X168.129 Y927.485
X168.015 Y927.388
X167.918 Y927.273
X167.841 Y927.144
X167.783 Y927.006
X167.777 Y926.985
X167.755 Y926.762
X167.8 Y926.542
X167.909 Y926.346
X168.071 Y926.192
X168.273 Y926.093
X168.494 Y926.059
X169.061
G3 X169.321 Y926.542 I-0.011 J0.317
G1 X169.257 Y926.647
X168.951 Y927.146
X168.753 Y927.469
G3 X168.4 Y927.61 I-0.271 J-0.166
G1 X167.764 Y927.417
X167.623 Y927.366
X167.5 Y927.28
X167.383 Y927.106
X167.32 Y926.906
X167.317 Y926.696
X167.374 Y926.494
X167.486 Y926.316
X167.643 Y926.177
X167.834 Y926.089
X168.042 Y926.059
G3 X168.338 Y926.454 I-0.011 J0.317
G1 X168.285 Y926.667
X168.223 Y926.913
X168.153 Y927.188
G3 X167.764 Y927.417 I-0.308 J-0.078
G1 X167.555 Y927.354
X167.344 Y927.293
X167.309 Y927.284
X167.167 Y927.236
X167.047 Y927.146
X166.942 Y926.96
X166.901 Y926.75
X166.928 Y926.538
X167.02 Y926.346
X167.169 Y926.192
X167.358 Y926.093
X167.569 Y926.059
X167.631 Y926.067
X167.692 Y926.085
G3 X167.309 Y927.284 I-0.236 J0.585
G1 X166.921 Y927.177
X166.778 Y927.131
X166.657 Y927.042
X166.559 Y926.876
X166.519 Y926.687
X166.541 Y926.495
X166.623 Y926.32
X166.756 Y926.18
X166.927 Y926.09
X167.117 Y926.059
X167.172 Y926.065
X167.225 Y926.078
G3 X166.921 Y927.177 I-0.176 J0.543
G1 X166.529 Y927.074
X166.386 Y927.029
X166.268 Y926.937
X166.177 Y926.758
X166.158 Y926.557
X166.212 Y926.363
X166.333 Y926.202
X166.504 Y926.096
X166.702 Y926.059
X166.75 Y926.064
X166.797 Y926.075
G3 X166.529 Y927.074 I-0.154 J0.494
G1 X166.171 Y926.981
X166.028 Y926.937
X165.91 Y926.845
X165.832 Y926.682
X165.818 Y926.502
X165.869 Y926.329
X165.979 Y926.186
X166.133 Y926.092
X166.31 Y926.059
X166.353 Y926.063
X166.395 Y926.072
G3 X166.171 Y926.981 I-0.122 J0.452
G1 X165.887 Y926.908
X165.836 Y926.896
X165.692 Y926.854
X165.574 Y926.762
X165.507 Y926.615
X165.498 Y926.454
X165.546 Y926.299
X165.645 Y926.172
X165.783 Y926.088
X165.942 Y926.059
X166.01 Y926.068
G3 X165.836 Y926.896 I-0.091 J0.413
G1 X165.719 Y926.869
X165.501 Y926.821
X165.356 Y926.781
X165.257 Y926.65
X165.217 Y926.489
X165.243 Y926.326
X165.331 Y926.186
X165.467 Y926.092
X165.628 Y926.059
X165.684 Y926.069
G3 X165.501 Y926.821 I-0.113 J0.371
G1 X165.217 Y926.758
X165.072 Y926.719
X164.962 Y926.617
X164.919 Y926.468
X164.94 Y926.314
X165.02 Y926.181
X165.147 Y926.091
X165.299 Y926.059
X165.35 Y926.065
G3 X165.217 Y926.758 I-0.07 J0.346
G1 X165.049 Y926.721
X164.924 Y926.691
X164.893 Y926.683
X164.882 Y926.679
X164.84 Y926.658
X164.799 Y926.627
X164.771 Y926.599
X164.748 Y926.572
X164.73 Y926.544
X164.714 Y926.511
X164.7 Y926.47
X164.692 Y926.43
X164.689 Y926.389
X164.691 Y926.348
X164.7 Y926.306
X164.714 Y926.263
X164.735 Y926.222
X164.765 Y926.181
X164.794 Y926.151
X164.823 Y926.128
X164.882 Y926.092
X164.924 Y926.075
X164.965 Y926.064
X165.007 Y926.06
X168.494 Y926.059
G3 X168.8 Y926.357 I-0.011 J0.317
G1 X168.801 Y926.376 Z35.701
X168.787 Y926.43 Z35.709
X168.774 Y926.481 Z35.727
X168.762 Y926.528 Z35.754
X168.731 Y926.564 Z35.794
X168.706 Y926.593 Z35.842
X168.687 Y926.615 Z35.897
X168.675 Y926.628 Z35.956
X168.671 Y926.632 Z36.017
G0 Z43.7
X169.632 Y969.668
Z41.2
G3 X171.816 Y967.587 Z41.035 I1.092 J-1.04 F1016.
X169.632 Y969.668 Z40.869 I-1.092 J1.04
X171.816 Y967.587 Z40.704 I1.092 J-1.04
X169.632 Y969.668 Z40.538 I-1.092 J1.04
X171.816 Y967.587 Z40.373 I1.092 J-1.04
X169.632 Y969.668 Z40.207 I-1.092 J1.04
X171.816 Y967.587 Z40.042 I1.092 J-1.04
X169.632 Y969.668 Z39.876 I-1.092 J1.04
X171.816 Y967.587 Z39.711 I1.092 J-1.04
X169.632 Y969.668 Z39.545 I-1.092 J1.04
X171.816 Y967.587 Z39.38 I1.092 J-1.04
X169.632 Y969.668 Z39.215 I-1.092 J1.04
X171.816 Y967.587 Z39.049 I1.092 J-1.04
X169.632 Y969.668 Z38.884 I-1.092 J1.04
X171.816 Y967.587 Z38.718 I1.092 J-1.04
X169.632 Y969.668 Z38.553 I-1.092 J1.04
X171.816 Y967.587 Z38.387 I1.092 J-1.04
X169.632 Y969.668 Z38.222 I-1.092 J1.04
X171.816 Y967.587 Z38.056 I1.092 J-1.04
X169.632 Y969.668 Z37.891 I-1.092 J1.04
X171.816 Y967.587 Z37.726 I1.092 J-1.04
X169.632 Y969.668 Z37.56 I-1.092 J1.04
X171.816 Y967.587 Z37.395 I1.092 J-1.04
X169.632 Y969.668 Z37.229 I-1.092 J1.04
X171.816 Y967.587 Z37.064 I1.092 J-1.04
X169.632 Y969.668 Z36.898 I-1.092 J1.04
X171.816 Y967.587 Z36.733 I1.092 J-1.04
X169.632 Y969.668 Z36.567 I-1.092 J1.04
X171.816 Y967.587 Z36.402 I1.092 J-1.04
X169.632 Y969.668 Z36.236 I-1.092 J1.04
X171.816 Y967.587 Z36.071 I1.092 J-1.04
X169.632 Y969.668 Z35.906 I-1.092 J1.04
X171.816 Y967.587 Z35.74 I1.092 J-1.04
X172.232 Y968.628 Z35.7 I-1.092 J1.04
X169.216 I-1.508 J0.
X172.232 I1.508 J0.
G1 X172.252 Y969.365
X172.253 Y969.38
X172.249 Y969.395
X172.241 Y969.408
X172.087 Y969.577
X171.919 Y969.727
X171.675 Y969.907
X171.584 Y969.958
X171.35 Y970.074
X171.249 Y970.113
X171.081 Y970.168
X170.914 Y970.21
X170.732 Y970.242
X170.579 Y970.256
X170.411 Y970.261
X170.244 Y970.253
X170.076 Y970.235
X169.909 Y970.201
X169.741 Y970.159
X169.573 Y970.099
X169.511 Y970.074
X169.406 Y970.027
X169.238 Y969.937
X169.186 Y969.907
X169.033 Y969.794
X168.92 Y969.695
X168.819 Y969.585
X168.728 Y969.465
X168.65 Y969.337
