(MACHINEABLEWAX2)
(T1  D=1.587 CR=0. - ZMIN=4.32 - FLAT END MILL)
G0 G90 G94 G17
G21
G53 G0 Z0.

(ADAPTIVE1)
M5
M9
T1
S16500 M3
G4 P4.
G55
M8
G0 X49.294 Y-27.355
Z22.77
Z12.77
Z10.27
G1 Z7.02 F51.
X49.256 F356.
X49.264 Y-27.391
X49.297 Y-27.408
X49.333 Y-27.397
X49.354 Y-27.365
X49.351 Y-27.328
X49.332 Y-27.295
X49.302 Y-27.273
X49.266 Y-27.264
X49.229 Y-27.269
X49.197 Y-27.289
X49.172 Y-27.318
X49.158 Y-27.352
X49.151 Y-27.427
X49.182 Y-27.495
X49.241 Y-27.542
X49.314 Y-27.561
X49.388 Y-27.552
X49.454 Y-27.515
X49.504 Y-27.46
X49.534 Y-27.391
X49.542 Y-27.316
X49.529 Y-27.243
X49.496 Y-27.175
X49.397 Y-27.062
X49.255 Y-27.014
X49.107 Y-27.034
X48.98 Y-27.114
X48.89 Y-27.234
X48.849 Y-27.378
X48.86 Y-27.528
X48.92 Y-27.666
X49.019 Y-27.778
X49.147 Y-27.856
X49.293 Y-27.891
X49.443 Y-27.883
X49.585 Y-27.835
X49.708 Y-27.75
X49.806 Y-27.636
X49.871 Y-27.501
X49.9 Y-27.354
X49.893 Y-27.204
X49.855 Y-27.059
X49.783 Y-26.927
X49.685 Y-26.813
X49.564 Y-26.725
X49.427 Y-26.664
X49.28 Y-26.634
X49.13 Y-26.635
X48.984 Y-26.668
X48.846 Y-26.727
X48.723 Y-26.813
X48.618 Y-26.92
X48.536 Y-27.046
X48.478 Y-27.184
X48.447 Y-27.331
X48.44 Y-27.481
X48.462 Y-27.629
X48.508 Y-27.772
X48.579 Y-27.904
X48.67 Y-28.023
X48.78 Y-28.125
X48.905 Y-28.207
X49.042 Y-28.269
X49.188 Y-28.306
X49.337 Y-28.321
X49.487 Y-28.311
X49.633 Y-28.279
X49.773 Y-28.224
X49.903 Y-28.149
X50.02 Y-28.056
X50.121 Y-27.945
X50.206 Y-27.821
X50.271 Y-27.686
X50.317 Y-27.543
X50.342 Y-27.396
X50.346 Y-27.246
X50.33 Y-27.096
X50.294 Y-26.951
X50.238 Y-26.812
X50.164 Y-26.681
X50.072 Y-26.562
X49.967 Y-26.456
X49.848 Y-26.365
X49.717 Y-26.29
X49.579 Y-26.232
X49.434 Y-26.194
X49.285 Y-26.174
X49.135 Y-26.173
X48.987 Y-26.191
X48.841 Y-26.227
X48.701 Y-26.281
X48.569 Y-26.351
X48.445 Y-26.437
X48.334 Y-26.537
X48.235 Y-26.65
X48.15 Y-26.774
X48.081 Y-26.907
X48.027 Y-27.047
X47.989 Y-27.192
X47.969 Y-27.341
X47.966 Y-27.491
X47.98 Y-27.64
X48.01 Y-27.787
X48.057 Y-27.929
X48.119 Y-28.066
X48.196 Y-28.194
X48.287 Y-28.314
X48.39 Y-28.423
X48.504 Y-28.52
X48.628 Y-28.604
X48.761 Y-28.675
X48.9 Y-28.73
X49.044 Y-28.771
X49.192 Y-28.796
X49.342 Y-28.806
X49.492 Y-28.8
X49.64 Y-28.779
X49.786 Y-28.742
X49.927 Y-28.691
X50.062 Y-28.625
X50.189 Y-28.546
X50.308 Y-28.455
X50.417 Y-28.352
X50.516 Y-28.239
X50.602 Y-28.117
X50.677 Y-27.986
X50.738 Y-27.849
X50.786 Y-27.707
X50.82 Y-27.561
X50.839 Y-27.412
X50.844 Y-27.262
X50.835 Y-27.113
X50.812 Y-26.964
X50.775 Y-26.819
X50.725 Y-26.678
X50.661 Y-26.542
X50.585 Y-26.412
X50.498 Y-26.29
X50.4 Y-26.177
X50.291 Y-26.074
X50.174 Y-25.98
X50.048 Y-25.898
X49.916 Y-25.828
X49.778 Y-25.769
X49.635 Y-25.724
X49.488 Y-25.691
X49.339 Y-25.672
X49.19 Y-25.666
X49.04 Y-25.673
X48.891 Y-25.694
X48.745 Y-25.727
X48.602 Y-25.773
X48.464 Y-25.831
X48.331 Y-25.901
X48.205 Y-25.982
X48.086 Y-26.073
X47.976 Y-26.175
X47.874 Y-26.285
X47.782 Y-26.404
X47.701 Y-26.53
X47.63 Y-26.662
X47.571 Y-26.8
X47.523 Y-26.942
X47.487 Y-27.088
X47.464 Y-27.236
X47.452 Y-27.386
X47.453 Y-27.536
X47.467 Y-27.686
X47.492 Y-27.834
X47.529 Y-27.98
X47.578 Y-28.121
X47.64 Y-28.262
X47.711 Y-28.394
X47.793 Y-28.52
X47.886 Y-28.641
X47.99 Y-28.757
X48.1 Y-28.86
X48.218 Y-28.953
X48.346 Y-29.04
X48.483 Y-29.117
X48.622 Y-29.181
X48.765 Y-29.234
X48.916 Y-29.276
X49.072 Y-29.306
X49.228 Y-29.323
X49.382 Y-29.328
X49.539 Y-29.32
X49.698 Y-29.3
X49.855 Y-29.266
X50.007 Y-29.221
X50.153 Y-29.164
X50.297 Y-29.094
X50.438 Y-29.011
X50.572 Y-28.917
X50.695 Y-28.815
X50.81 Y-28.703
X50.918 Y-28.58
X51.017 Y-28.446
X51.106 Y-28.303
X51.181 Y-28.158
X51.244 Y-28.007
X51.295 Y-27.849
X51.335 Y-27.685
X51.361 Y-27.518
X51.374 Y-27.348
X51.373 Y-27.179
X51.359 Y-27.013
X51.331 Y-26.847
X51.289 Y-26.681
X51.234 Y-26.517
X51.165 Y-26.358
X51.084 Y-26.205
X50.991 Y-26.06
X50.888 Y-25.923
X50.774 Y-25.796
X50.649 Y-25.676
X50.512 Y-25.566
X50.367 Y-25.466
X50.214 Y-25.378
X50.053 Y-25.302
X49.887 Y-25.24
X49.717 Y-25.191
X49.546 Y-25.156
X49.37 Y-25.135
X49.191 Y-25.128
X49.011 Y-25.135
X48.832 Y-25.157
X48.655 Y-25.194
X48.479 Y-25.245
X48.308 Y-25.31
X48.143 Y-25.388
X47.984 Y-25.48
X47.832 Y-25.585
X47.689 Y-25.701
X47.557 Y-25.828
X47.434 Y-25.966
X47.322 Y-26.115
X47.223 Y-26.272
X47.135 Y-26.437
X47.061 Y-26.61
X47.001 Y-26.789
X46.956 Y-26.972
X46.925 Y-27.16
X46.909 Y-27.35
X46.908 Y-27.541
X46.923 Y-27.732
X46.953 Y-27.922
X46.999 Y-28.109
X47.059 Y-28.292
X47.134 Y-28.471
X47.224 Y-28.644
X47.327 Y-28.809
X47.444 Y-28.965
X47.573 Y-29.112
X47.714 Y-29.249
X47.866 Y-29.375
X48.028 Y-29.487
X48.198 Y-29.587
X48.378 Y-29.674
X48.564 Y-29.745
X48.755 Y-29.802
X48.95 Y-29.843
X49.15 Y-29.869
X49.351 Y-29.878
X49.553 Y-29.872
X49.754 Y-29.849
X49.952 Y-29.81
X50.148 Y-29.755
X50.341 Y-29.684
X50.526 Y-29.597
X50.704 Y-29.496
X50.874 Y-29.381
X51.036 Y-29.252
X51.187 Y-29.109
X51.327 Y-28.954
X51.453 Y-28.789
X51.567 Y-28.614
X51.666 Y-28.429
X51.75 Y-28.236
X51.82 Y-28.036
X51.873 Y-27.83
X51.909 Y-27.621
X51.928 Y-27.409
X51.931 Y-27.196
X51.916 Y-26.983
X51.884 Y-26.77
X51.835 Y-26.56
X51.769 Y-26.354
X51.686 Y-26.154
X51.588 Y-25.961
X51.475 Y-25.777
X51.346 Y-25.601
X51.204 Y-25.436
X51.047 Y-25.282
X50.879 Y-25.141
X50.699 Y-25.013
X50.509 Y-24.9
X50.311 Y-24.802
X50.106 Y-24.721
X49.894 Y-24.656
X49.676 Y-24.609
X49.455 Y-24.578
X49.232 Y-24.566
X49.007 Y-24.572
X48.782 Y-24.595
X48.56 Y-24.637
X48.341 Y-24.697
X48.127 Y-24.774
X47.919 Y-24.868
X47.72 Y-24.979
X47.529 Y-25.106
X47.349 Y-25.248
X47.181 Y-25.404
X47.025 Y-25.574
X46.883 Y-25.756
X46.755 Y-25.95
X46.644 Y-26.154
X46.548 Y-26.367
X46.47 Y-26.587
X46.41 Y-26.814
X46.368 Y-27.045
X46.344 Y-27.28
X46.34 Y-27.516
X46.354 Y-27.753
X46.388 Y-27.988
X46.44 Y-28.22
X46.511 Y-28.448
X46.6 Y-28.67
X46.707 Y-28.884
X46.831 Y-29.09
X46.972 Y-29.286
X47.128 Y-29.47
X47.299 Y-29.641
X47.484 Y-29.798
X47.681 Y-29.941
X47.889 Y-30.067
X48.107 Y-30.177
X48.334 Y-30.269
X48.568 Y-30.342
X48.808 Y-30.397
X49.052 Y-30.432
X49.298 Y-30.448
X49.546 Y-30.444
X49.793 Y-30.42
X50.038 Y-30.376
X50.279 Y-30.312
X50.514 Y-30.23
X50.743 Y-30.128
X50.964 Y-30.008
X51.175 Y-29.87
X51.374 Y-29.715
X51.561 Y-29.544
X51.734 Y-29.359
X51.892 Y-29.16
X52.034 Y-28.948
X52.159 Y-28.724
X52.266 Y-28.491
X52.354 Y-28.249
X52.422 Y-28.001
X52.47 Y-27.747
X52.498 Y-27.49
X52.505 Y-27.23
X52.492 Y-26.97
X52.457 Y-26.712
X52.402 Y-26.456
X52.326 Y-26.206
X52.23 Y-25.962
X52.115 Y-25.726
X51.981 Y-25.5
X51.828 Y-25.284
X51.659 Y-25.081
X51.473 Y-24.892
X51.272 Y-24.717
X51.058 Y-24.56
X50.831 Y-24.419
X50.593 Y-24.298
X50.346 Y-24.195
X50.091 Y-24.113
X49.829 Y-24.051
X49.563 Y-24.01
X49.293 Y-23.99
X49.022 Y-23.993
X48.751 Y-24.017
X48.483 Y-24.063
X48.218 Y-24.13
X47.959 Y-24.219
X47.708 Y-24.328
X47.465 Y-24.457
X47.234 Y-24.606
X47.015 Y-24.773
X46.809 Y-24.958
X46.619 Y-25.159
X46.444 Y-25.375
X46.288 Y-25.605
X46.15 Y-25.847
X46.031 Y-26.1
X45.933 Y-26.363
X45.856 Y-26.633
X45.801 Y-26.91
X45.769 Y-27.19
X45.759 Y-27.473
X45.771 Y-27.756
X45.807 Y-28.037
X45.865 Y-28.316
X45.945 Y-28.59
X46.047 Y-28.856
X46.171 Y-29.115
X46.315 Y-29.363
X46.479 Y-29.599
X46.662 Y-29.822
X46.862 Y-30.029
X47.079 Y-30.221
X47.311 Y-30.394
X47.557 Y-30.549
X47.814 Y-30.684
X48.083 Y-30.798
X48.36 Y-30.89
X48.644 Y-30.96
X48.934 Y-31.006
X49.226 Y-31.03
X49.521
X49.815 Y-31.006
X50.106 Y-30.959
X50.394 Y-30.888
X50.675 Y-30.794
X50.949 Y-30.678
X51.213 Y-30.54
X51.466 Y-30.38
X51.706 Y-30.201
X51.93 Y-30.002
X52.139 Y-29.786
X52.33 Y-29.553
X52.502 Y-29.304
X52.655 Y-29.042
X52.785 Y-28.769
X52.894 Y-28.485
X52.98 Y-28.192
X53.042 Y-27.893
X53.08 Y-27.59
X53.093 Y-27.283
X53.082 Y-26.976
X53.046 Y-26.671
X52.986 Y-26.368
X52.901 Y-26.071
X52.793 Y-25.782
X52.661 Y-25.501
X52.508 Y-25.231
X52.332 Y-24.974
X52.136 Y-24.732
X51.921 Y-24.505
X51.688 Y-24.296
X51.439 Y-24.107
X51.175 Y-23.937
X50.898 Y-23.789
X50.609 Y-23.664
X50.31 Y-23.562
X50.003 Y-23.484
X49.691 Y-23.431
X49.374 Y-23.403
X49.056 Y-23.4
X48.738 Y-23.423
X48.422 Y-23.472
X48.11 Y-23.546
X47.805 Y-23.645
X47.508 Y-23.768
X47.221 Y-23.915
X46.947 Y-24.085
X46.687 Y-24.277
X46.442 Y-24.489
X46.215 Y-24.721
X46.007 Y-24.97
X45.819 Y-25.237
X45.653 Y-25.517
X45.51 Y-25.811
X45.39 Y-26.117
X45.295 Y-26.431
X45.288 Y-26.463
X45.284 Y-26.489
X45.281 Y-26.515
X45.28 Y-26.541
Y-27.933
X45.291 Y-28.164
X45.323 Y-28.403
X45.375 Y-28.65
X45.453 Y-28.908
X45.559 Y-29.179
X45.692 Y-29.455
X45.853 Y-29.727
X46.038 Y-29.991
X46.247 Y-30.244
X46.479 Y-30.481
X46.73 Y-30.7
X46.999 Y-30.899
X47.285 Y-31.077
X47.585 Y-31.232
X47.845 Y-31.34
X47.891 Y-31.356
X47.939 Y-31.366
X47.988 Y-31.369
G3 X48.107 Y-31.113 I-0.006 J0.159
G1 X47.839 Y-30.768
X45.808 Y-28.155
X45.564 Y-27.841
G3 X45.28 Y-27.933 I-0.125 J-0.097
G1 Y-29.318
X45.287 Y-29.468
X45.312 Y-29.616
X45.351 Y-29.761
X45.407 Y-29.916
X45.487 Y-30.091
X45.595 Y-30.285
X45.728 Y-30.483
X45.903 Y-30.704
X46.116 Y-30.933
X46.358 Y-31.154
X46.534 Y-31.291
X46.604 Y-31.334
X46.681 Y-31.36
X46.761 Y-31.369
G3 X46.886 Y-31.119 I-0.006 J0.159
G1 X46.631 Y-30.755
X45.791 Y-29.552
X45.569 Y-29.233
G3 X45.28 Y-29.318 I-0.13 J-0.091
G1 Y-30.238
X45.287 Y-30.387
X45.314 Y-30.535
X45.359 Y-30.678
X45.418 Y-30.816
X45.497 Y-30.964
X45.598 Y-31.122
X45.675 Y-31.223
X45.756 Y-31.301
X45.858 Y-31.352
X45.97 Y-31.369
G3 X46.104 Y-31.134 I-0.006 J0.159
G1 X45.883 Y-30.728
X45.755 Y-30.494
X45.578 Y-30.167
G3 X45.28 Y-30.238 I-0.139 J-0.076
G1 Y-31.025
Y-31.058
Y-31.084
X45.289 Y-31.234
X45.292 Y-31.243
X45.308 Y-31.277
X45.329 Y-31.308
X45.355 Y-31.335
G3 X45.598 Y-31.2 I0.085 J0.134
G1 X45.597 Y-31.089
G3 X45.28 Y-31.084 I-0.159 J-0.001
G1 X45.281 Y-31.216
X45.284 Y-31.231
X45.288 Y-31.246
X45.294 Y-31.261
X45.302 Y-31.276
X45.317 Y-31.298
X45.337 Y-31.319
X45.355 Y-31.335
X45.372 Y-31.347
X45.387 Y-31.355
X45.403 Y-31.361
X45.418 Y-31.365
X45.433 Y-31.368
X45.564 Y-31.369
X50.291
X50.447 Y-31.361
X50.619 Y-31.338
X50.826 Y-31.294
X51.034 Y-31.232
X51.268 Y-31.141
X51.519 Y-31.019
X51.777 Y-30.867
X52.032 Y-30.688
X52.277 Y-30.485
X52.512 Y-30.256
X52.733 Y-30.002
X52.937 Y-29.726
X53.12 Y-29.432
X53.28 Y-29.122
X53.415 Y-28.799
X53.446 Y-28.704
X53.461 Y-28.644
X53.465 Y-28.582
X53.458 Y-28.521
X53.423 Y-28.327
X53.366 Y-27.933
X53.327 Y-27.539
X53.317 Y-27.408
X53.303 Y-27.145
X53.298 Y-27.014
X53.296 Y-26.62
X53.315 Y-26.226
X53.319 Y-26.187
X53.325 Y-26.037
X53.313 Y-25.887
X53.287 Y-25.73
X53.24 Y-25.542
X53.173 Y-25.34
X53.08 Y-25.124
X52.953 Y-24.884
X52.794 Y-24.633
X52.608 Y-24.386
X52.397 Y-24.147
X52.154 Y-23.915
X51.885 Y-23.696
X51.595 Y-23.495
X51.286 Y-23.316
X51.239 Y-23.294
X51.168 Y-23.269
X51.094 Y-23.259
X51.019 Y-23.264
X50.948 Y-23.276
X50.816 Y-23.294
X50.554 Y-23.321
X50.422 Y-23.334
X50.028 Y-23.353
X49.635 Y-23.351
X49.503 Y-23.346
X49.241 Y-23.332
X49.109 Y-23.322
X48.715 Y-23.282
X48.322 Y-23.226
X48.214 Y-23.206
X48.065 Y-23.186
X47.916 Y-23.18
X47.766 Y-23.19
X47.597 Y-23.215
X47.424 Y-23.256
X47.217 Y-23.323
X46.991 Y-23.417
X46.76 Y-23.535
X46.507 Y-23.691
X46.248 Y-23.882
X45.992 Y-24.104
X45.747 Y-24.353
X45.517 Y-24.629
X45.348 Y-24.868
X45.311 Y-24.934
X45.288 Y-25.006
X45.28 Y-25.082
Y-26.541
G3 X45.559 Y-26.639 I0.159 J0.006
G1 X45.824 Y-26.333
X48. Y-23.812
X48.3 Y-23.465
G3 X48.214 Y-23.206 I-0.12 J0.104
G1 X47.928 Y-23.153
X47.796 Y-23.125
X47.534 Y-23.065
X47.363 Y-23.024
X47.216 Y-22.995
X47.066 Y-22.989
X46.916 Y-23.002
X46.769 Y-23.031
X46.614 Y-23.076
X46.442 Y-23.141
X46.247 Y-23.234
X46.044 Y-23.351
X45.811 Y-23.512
X45.568 Y-23.71
X45.394 Y-23.877
X45.332 Y-23.955
X45.293 Y-24.046
X45.28 Y-24.144
G3 X45.511 Y-24.28 I0.159 J0.006
G1 X45.926 Y-24.067
X47.029 Y-23.503
X47.391 Y-23.318
G3 X47.363 Y-23.024 I-0.072 J0.141
G1 X47.271 Y-23.001
X47.14 Y-22.964
X47.073 Y-22.944
X47.009 Y-22.922
X46.877 Y-22.861
X46.85 Y-22.846
X46.715 Y-22.782
X46.567 Y-22.754
X46.417 Y-22.751
X46.268 Y-22.767
X46.122 Y-22.799
X45.978 Y-22.844
X45.803 Y-22.915
X45.629 Y-23.002
X45.458 Y-23.105
X45.434 Y-23.123
X45.351 Y-23.205
X45.298 Y-23.308
X45.28 Y-23.423
G3 X45.488 Y-23.569 I0.159 J0.006
G1 X45.955 Y-23.416
X46.419 Y-23.265
X46.819 Y-23.134
G3 X46.85 Y-22.846 I-0.049 J0.151
G1 X46.787 Y-22.813
X46.746 Y-22.787
X46.68 Y-22.738
X46.613 Y-22.681
X46.574 Y-22.642
X46.464 Y-22.539
X46.329 Y-22.474
X46.184 Y-22.439
X46.034 Y-22.427
X45.884 Y-22.434
X45.736 Y-22.457
X45.591 Y-22.495
X45.517 Y-22.523
X45.393 Y-22.602
X45.309 Y-22.724
X45.28 Y-22.869
X45.287 Y-22.912
X45.306 Y-22.951
X45.335 Y-22.984
X45.371 Y-23.007
X45.413 Y-23.02
X45.456 Y-23.021
X45.977 Y-22.962
X46.04 Y-22.955
X46.474 Y-22.906
G3 X46.574 Y-22.642 I-0.018 J0.158
G1 X46.483 Y-22.548
X46.387 Y-22.419
X46.368 Y-22.383
X46.29 Y-22.255
X46.172 Y-22.162
X46.036 Y-22.098
X45.891 Y-22.06
X45.742 Y-22.046
X45.592 Y-22.056
X45.567 Y-22.062
X45.419 Y-22.134
X45.316 Y-22.262
X45.28 Y-22.423
X45.288 Y-22.469
X45.31 Y-22.511
X45.343 Y-22.545
X45.385 Y-22.567
X45.431 Y-22.576
X45.764 Y-22.591
X46.218 Y-22.612
G3 X46.368 Y-22.383 I0.007 J0.159
G1 X46.318 Y-22.287
X46.252 Y-22.156
X46.192 Y-22.025
X46.123 Y-21.892
X46.011 Y-21.792
X45.879 Y-21.722
X45.733 Y-21.684
X45.671 Y-21.681
X45.523 Y-21.703
X45.396 Y-21.781
X45.31 Y-21.904
X45.28 Y-22.051
X45.288 Y-22.096
X45.31 Y-22.138
X45.342 Y-22.171
X45.382 Y-22.194
X45.428 Y-22.204
X45.573 Y-22.213
X46.035 Y-22.244
G3 X46.192 Y-22.025 I0.011 J0.158
G1 X46.073 Y-21.762
X46.029 Y-21.657
X45.964 Y-21.522
X45.847 Y-21.428
X45.709 Y-21.37
X45.694 Y-21.368
X45.539 Y-21.383
X45.404 Y-21.459
X45.312 Y-21.585
X45.28 Y-21.736
X45.289 Y-21.785
X45.314 Y-21.829
X45.35 Y-21.863
X45.395 Y-21.883
X45.445 Y-21.889
X45.886 Y-21.872
G3 X46.029 Y-21.657 I-0.006 J0.159
G1 X45.891 Y-21.329
X45.859 Y-21.261
X45.753 Y-21.154
X45.621 Y-21.132
X45.49 Y-21.16
X45.379 Y-21.237
X45.306 Y-21.349
X45.28 Y-21.481
X45.287 Y-21.532
X45.305 Y-21.58
G3 X45.891 Y-21.329 I0.287 J0.14
G1 X45.812 Y-21.136
X45.8 Y-21.106
X45.771 Y-21.037
X45.662 Y-20.933
X45.525 Y-20.926
X45.399 Y-20.98
X45.311 Y-21.086
X45.28 Y-21.219
X45.285 Y-21.257
X45.296 Y-21.295
G3 X45.8 Y-21.106 I0.248 J0.104
G1 X45.726 Y-20.907
X45.696 Y-20.838
X45.589 Y-20.733
X45.477 Y-20.73
X45.376 Y-20.777
X45.305 Y-20.863
X45.28 Y-20.972
X45.283 Y-21.012
G3 X45.562 Y-21.201 I0.226 J0.033
X45.726 Y-20.907 I-0.053 J0.222
G1 X45.653 Y-20.712
X45.639 Y-20.672
X45.628 Y-20.644
X45.618 Y-20.62
X45.509 Y-20.581
X45.395 Y-20.605
X45.311 Y-20.684
X45.28 Y-20.795
X45.285 Y-20.823
X45.299 Y-20.849
X45.319 Y-20.869
G3 X45.628 Y-20.644 I0.119 J0.162
G1 X45.605 Y-20.58
X45.598 Y-20.565
X45.589 Y-20.551
X45.578 Y-20.536
X45.564 Y-20.521
X45.548 Y-20.507
X45.531 Y-20.497
X45.515 Y-20.489
X45.499 Y-20.484
X45.482 Y-20.48
X45.466 Y-20.478
X45.449
X45.433 Y-20.48
X45.416 Y-20.483
X45.4 Y-20.488
X45.384 Y-20.496
X45.367 Y-20.505
X45.348 Y-20.521
X45.328 Y-20.539
X45.313 Y-20.556
X45.302 Y-20.573
X45.29 Y-20.597
X45.285 Y-20.613
X45.282 Y-20.63
X45.28 Y-20.646
Y-25.082
G0 Z12.77
X49.401 Y-31.066
Z7.338
G1 Z7.179 F356.
X49.408 Y-31.07 Z7.13
X49.427 Y-31.082 Z7.085
X49.457 Y-31.1 Z7.05
X49.495 Y-31.122 Z7.028
X49.537 Y-31.148 Z7.02
G3 X50.291 Y-31.369 I0.809 J1.36
G1 X51.473
X51.623 Y-31.361
X51.77 Y-31.336
X51.915 Y-31.296
X52.068 Y-31.237
X52.226 Y-31.162
X52.41 Y-31.055
X52.607 Y-30.919
X52.808 Y-30.754
X53.026 Y-30.544
X53.246 Y-30.295
X53.458 Y-30.013
X53.625 Y-29.748
X53.667 Y-29.654
X53.682 Y-29.552
X53.668 Y-29.449
G3 X53.415 Y-29.377 I-0.151 J-0.049
G1 X53.051 Y-29.682
X51.685 Y-30.829
X51.376 Y-31.089
G3 X51.473 Y-31.369 I0.102 J-0.122
G1 X52.392
X52.542 Y-31.361
X52.688 Y-31.329
X52.829 Y-31.278
X52.965 Y-31.214
X53.12 Y-31.124
X53.271 Y-31.019
X53.456 Y-30.868
X53.633 Y-30.697
X53.796 Y-30.513
X53.898 Y-30.376
X53.908 Y-30.361
X53.96 Y-30.223
X53.954 Y-30.076
X53.892 Y-29.942
X53.861 Y-29.913
X53.824 Y-29.893
X53.783 Y-29.883
X53.74 Y-29.885
X53.7 Y-29.898
X53.665 Y-29.921
X53.261 Y-30.265
X52.602 Y-30.827
X52.294 Y-31.089
G3 X52.392 Y-31.369 I0.103 J-0.121
G1 X53.18
X53.329 Y-31.361
X53.475 Y-31.325
X53.615 Y-31.27
X53.748 Y-31.201
X53.874 Y-31.12
X53.993 Y-31.028
X54.101 Y-30.925
X54.198 Y-30.81
X54.279 Y-30.684
X54.287 Y-30.669
X54.319 Y-30.547
X54.308 Y-30.423
X54.257 Y-30.308
X54.171 Y-30.217
X54.132 Y-30.198
X54.089 Y-30.189
X54.046 Y-30.193
X54.006 Y-30.208
X53.97 Y-30.234
X53.562 Y-30.627
X53.373 Y-30.809
X53.075 Y-31.096
G3 X53.18 Y-31.369 I0.11 J-0.114
G1 X53.876
X54.026 Y-31.361
X54.17 Y-31.321
X54.305 Y-31.256
X54.428 Y-31.17
X54.534 Y-31.064
X54.621 Y-30.941
X54.65 Y-30.878
X54.684 Y-30.74
X54.664 Y-30.599
X54.592 Y-30.476
X54.479 Y-30.39
X54.439 Y-30.377
X54.397 Y-30.376
X54.356 Y-30.386
X54.319 Y-30.407
X54.289 Y-30.436
X54.026 Y-30.77
X53.757 Y-31.112
G3 X53.876 Y-31.369 I0.125 J-0.098
G1 X54.434
X54.583 Y-31.361
X54.723 Y-31.306
X54.844 Y-31.217
X54.943 Y-31.105
X54.973 Y-31.049
X55.016 Y-30.905
X54.998 Y-30.756
X54.922 Y-30.626
X54.801 Y-30.537
X54.756 Y-30.526
X54.711 Y-30.528
X54.668 Y-30.543
X54.63 Y-30.569
X54.602 Y-30.605
X54.529 Y-30.733
X54.301 Y-31.131
G3 X54.434 Y-31.369 I0.138 J-0.079
G1 X54.86
X55.01 Y-31.361
X55.143 Y-31.292
X55.25 Y-31.187
X55.253 Y-31.181
X55.301 Y-31.033
X55.283 Y-30.878
X55.203 Y-30.744
X55.075 Y-30.655
X55.027 Y-30.645
X54.977 Y-30.65
X54.932 Y-30.671
X54.895 Y-30.704
X54.87 Y-30.748
X54.717 Y-31.154
G3 X54.86 Y-31.369 I0.149 J-0.056
G1 X55.217
X55.291 Y-31.365
X55.43 Y-31.309
X55.501 Y-31.196
X55.524 Y-31.066
X55.496 Y-30.936
X55.421 Y-30.827
X55.311 Y-30.754
X55.261 Y-30.741
X55.21 Y-30.739
G3 X55.217 Y-31.369 I0.018 J-0.315
G1 X55.451
X55.526 Y-31.365
X55.665 Y-31.307
X55.667 Y-31.304
X55.726 Y-31.181
X55.722 Y-31.045
X55.656 Y-30.925
X55.543 Y-30.848
X55.503 Y-30.838
X55.462 Y-30.834
G3 X55.451 Y-31.369 I-0.001 J-0.267
G1 X55.674
X55.749 Y-31.365
X55.837 Y-31.294
X55.883 Y-31.191
X55.878 Y-31.079
X55.823 Y-30.981
X55.729 Y-30.918
X55.697 Y-30.911
X55.664 Y-30.91
G3 X55.674 Y-31.369 I0.019 J-0.229
G1 X55.845
X55.92 Y-31.365
X56.004 Y-31.279
X56.028 Y-31.161
X55.985 Y-31.049
X55.889 Y-30.977
X55.861 Y-30.971
X55.832
G3 X55.845 Y-31.369 I0.02 J-0.198
G1 X56.003
X56.019 Y-31.367
X56.035 Y-31.364
X56.052 Y-31.359
X56.076 Y-31.347
X56.093 Y-31.336
X56.11 Y-31.321
X56.128 Y-31.301
X56.143 Y-31.281
X56.153 Y-31.265
X56.16 Y-31.249
X56.165 Y-31.232
X56.169 Y-31.216
X56.17 Y-31.199
Y-31.183
X56.168 Y-31.167
X56.165 Y-31.15
X56.159 Y-31.134
X56.152 Y-31.117
X56.141 Y-31.101
X56.128 Y-31.084
X56.113 Y-31.07
X56.098 Y-31.059
X56.083 Y-31.051
X56.068 Y-31.044
X55.543 Y-30.848
X55.412 Y-30.796
X55.149 Y-30.686
X54.887 Y-30.576
X54.493 Y-30.396
X54.361 Y-30.331
X54.259 Y-30.277
X54.23 Y-30.261
X54.099 Y-30.163
X53.966 Y-30.034
X53.911 Y-29.968
X53.862 Y-29.903
X53.836 Y-29.861
X53.788 Y-29.771
X53.727 Y-29.64
X53.705 Y-29.576
X53.685 Y-29.509
X53.648 Y-29.378
X53.615 Y-29.246
X53.554 Y-28.984
X53.523 Y-28.852
X53.496 Y-28.721
X53.458 Y-28.521
X53.444 Y-28.479
X53.42 Y-28.443
X53.386 Y-28.415
X53.346 Y-28.397
X53.302 Y-28.391
X53.261 Y-28.397
X53.214 Y-28.402
X53.168 Y-28.393
X53.127 Y-28.372
X53.093 Y-28.339
X53.071 Y-28.298
X53.061 Y-28.252
X53.049 Y-28.011
X52.996 Y-27.018
X52.999 Y-26.982
X53.009 Y-26.947
X53.027 Y-26.916
G3 X53.319 Y-26.187 I-1.278 J0.934
G1 X53.341 Y-25.964
X53.354 Y-25.832
X53.373 Y-25.701
X53.417 Y-25.439
X53.431 Y-25.367
X53.452 Y-25.219
Y-25.069
X53.433 Y-24.92
X53.398 Y-24.774
X53.346 Y-24.618
X53.276 Y-24.454
X53.177 Y-24.267
X53.046 Y-24.06
X52.891 Y-23.855
X52.691 Y-23.628
X52.449 Y-23.396
X52.171 Y-23.169
X52.123 Y-23.136
X52.021 Y-23.087
X51.909 Y-23.071
X51.797 Y-23.089
G3 X51.721 Y-23.327 I0.055 J-0.149
G1 X52. Y-23.738
X52.91 Y-25.076
X53.145 Y-25.421
G3 X53.431 Y-25.367 I0.131 J0.089
G1 X53.443 Y-25.307
X53.506 Y-25.045
X53.539 Y-24.913
X53.595 Y-24.742
X53.635 Y-24.598
X53.644 Y-24.448
X53.63 Y-24.299
X53.599 Y-24.152
X53.553 Y-24.009
X53.486 Y-23.849
X53.404 Y-23.691
X53.284 Y-23.498
X53.142 Y-23.307
X52.964 Y-23.104
X52.833 Y-22.976
X52.761 Y-22.917
X52.639 Y-22.85
X52.502 Y-22.832
X52.367 Y-22.867
X52.332 Y-22.892
X52.305 Y-22.925
X52.287 Y-22.964
X52.281 Y-23.007
X52.287 Y-23.05
X52.304 Y-23.09
X52.574 Y-23.541
X53.09 Y-24.402
X53.31 Y-24.769
G3 X53.595 Y-24.742 I0.136 J0.082
G1 X53.625 Y-24.651
X53.67 Y-24.519
X53.793 Y-24.257
X53.85 Y-24.118
X53.875 Y-23.97
X53.874 Y-23.82
X53.853 Y-23.672
X53.816 Y-23.526
X53.765 Y-23.385
X53.696 Y-23.233
X53.609 Y-23.076
X53.519 Y-22.941
X53.426 Y-22.823
X53.323 Y-22.714
X53.247 Y-22.647
X53.107 Y-22.571
X52.947 Y-22.56
X52.798 Y-22.619
X52.765 Y-22.65
X52.743 Y-22.689
X52.732 Y-22.734
X52.735 Y-22.779
X52.75 Y-22.822
X53.012 Y-23.315
X53.306 Y-23.87
X53.512 Y-24.259
G3 X53.793 Y-24.257 I0.14 J0.074
G1 X53.855 Y-24.126
X53.936 Y-23.994
X54.022 Y-23.863
X54.099 Y-23.734
X54.143 Y-23.591
X54.159 Y-23.442
X54.152 Y-23.292
X54.127 Y-23.144
X54.086 Y-23.
X54.03 Y-22.86
X53.963 Y-22.726
X53.883 Y-22.599
X53.789 Y-22.482
X53.684 Y-22.375
X53.645 Y-22.346
X53.506 Y-22.28
X53.352 Y-22.277
X53.211 Y-22.336
X53.18 Y-22.366
X53.158 Y-22.403
X53.148 Y-22.445
Y-22.487
X53.16 Y-22.529
X53.395 Y-23.049
X53.563 Y-23.422
X53.748 Y-23.835
G3 X54.022 Y-23.863 I0.145 J0.065
G1 X54.11 Y-23.732
X54.33 Y-23.413
X54.409 Y-23.286
X54.45 Y-23.141
X54.463 Y-22.992
X54.454 Y-22.842
X54.425 Y-22.695
X54.378 Y-22.552
X54.317 Y-22.415
X54.24 Y-22.287
X54.147 Y-22.169
X54.04 Y-22.064
X54.036 Y-22.061
X53.899 Y-22.002
X53.749 Y-22.001
X53.612 Y-22.059
X53.581 Y-22.089
X53.56 Y-22.126
X53.549 Y-22.167
Y-22.209
X53.561 Y-22.25
X53.791 Y-22.774
X53.875 Y-22.967
X54.057 Y-23.382
G3 X54.33 Y-23.413 I0.145 J0.064
G1 X54.624 Y-22.987
X54.703 Y-22.859
X54.744 Y-22.715
X54.756 Y-22.566
X54.744 Y-22.416
X54.71 Y-22.27
X54.657 Y-22.13
X54.586 Y-21.998
X54.494 Y-21.879
X54.481 Y-21.866
X54.407 Y-21.81
X54.323 Y-21.774
X54.232 Y-21.76
G3 X54.08 Y-21.961 I0.002 J-0.159
G1 X54.209 Y-22.439
X54.231 Y-22.519
X54.343 Y-22.934
G3 X54.624 Y-22.987 I0.153 J0.041
G1 X54.755 Y-22.797
X54.825 Y-22.681
X54.852 Y-22.616
X54.871 Y-22.55
X54.887 Y-22.458
X54.888 Y-22.419
X54.887 Y-22.351
X54.878 Y-22.287
X54.838 Y-22.156
X54.808 Y-22.09
X54.766 Y-22.025
X54.755 Y-22.009
X54.696 Y-21.945
X54.667 Y-21.916
X54.624 Y-21.884
X54.558 Y-21.841
X54.493 Y-21.809
X54.361 Y-21.77
X54.297 Y-21.762
X54.23 Y-21.76
X54.191 Y-21.762
X54.099 Y-21.778
X54.033 Y-21.797
X53.967 Y-21.824
X53.852 Y-21.893
X52.9 Y-22.55
X52.703 Y-22.681
X52.654 Y-22.713
X52.523 Y-22.793
X52.129 Y-22.978
X51.998 Y-23.023
X51.735 Y-23.109
X51.604 Y-23.143
X51.339 Y-23.206
X51.21 Y-23.232
X51.019 Y-23.264
G3 X51.082 Y-23.575 I0.032 J-0.156
X51.185 Y-23.504 I-0.032 J0.156
G1 X51.198 Y-23.46 Z7.027
X51.209 Y-23.419 Z7.048
X51.203 Y-23.391 Z7.073
X51.198 Y-23.37 Z7.105
X51.195 Y-23.357 Z7.14
X51.194 Y-23.352 Z7.179
G0 Z12.77
X47.226 Y-14.869
Z10.27
G1 Z7.02 F51.
X47.247 Y-14.838 F356.
X47.213 Y-14.823
X47.18 Y-14.841
X47.169 Y-14.877
X47.183 Y-14.912
X47.215 Y-14.931
X47.253 Y-14.934
X47.288 Y-14.922
X47.317 Y-14.897
X47.333 Y-14.863
X47.335 Y-14.826
X47.325 Y-14.79
X47.305 Y-14.758
X47.247 Y-14.71
X47.173 Y-14.697
X47.102 Y-14.718
X47.045 Y-14.767
X47.01 Y-14.834
X47.003 Y-14.909
X47.02 Y-14.982
X47.059 Y-15.045
X47.116 Y-15.094
X47.184 Y-15.125
X47.258 Y-15.137
X47.407 Y-15.12
X47.528 Y-15.031
X47.596 Y-14.897
X47.602 Y-14.747
X47.554 Y-14.605
X47.459 Y-14.489
X47.33 Y-14.414
X47.183 Y-14.384
X47.034 Y-14.401
X46.897 Y-14.463
X46.785 Y-14.563
X46.706 Y-14.69
X46.666 Y-14.835
X46.665 Y-14.985
X46.703 Y-15.13
X46.778 Y-15.26
X46.882 Y-15.368
X47.009 Y-15.447
X47.15 Y-15.499
X47.299 Y-15.514
X47.449 Y-15.499
X47.59 Y-15.449
X47.718 Y-15.371
X47.826 Y-15.267
X47.911 Y-15.143
X47.967 Y-15.004
X47.997 Y-14.857
X47.995 Y-14.707
X47.967 Y-14.56
X47.91 Y-14.421
X47.83 Y-14.294
X47.727 Y-14.185
X47.607 Y-14.095
X47.473 Y-14.029
X47.329 Y-13.985
X47.18 Y-13.968
X47.031 Y-13.975
X46.884 Y-14.007
X46.745 Y-14.064
X46.617 Y-14.142
X46.504 Y-14.24
X46.407 Y-14.355
X46.33 Y-14.483
X46.273 Y-14.622
X46.238 Y-14.768
X46.226 Y-14.917
X46.236 Y-15.067
X46.27 Y-15.213
X46.323 Y-15.354
X46.397 Y-15.484
X46.489 Y-15.603
X46.596 Y-15.708
X46.717 Y-15.796
X46.849 Y-15.868
X46.989 Y-15.921
X47.135 Y-15.954
X47.285 Y-15.967
X47.435 Y-15.96
X47.582 Y-15.933
X47.725 Y-15.887
X47.86 Y-15.823
X47.987 Y-15.741
X48.101 Y-15.644
X48.202 Y-15.533
X48.288 Y-15.411
X48.358 Y-15.278
X48.411 Y-15.138
X48.446 Y-14.992
X48.464 Y-14.843
X48.463 Y-14.693
X48.444 Y-14.544
X48.407 Y-14.399
X48.354 Y-14.258
X48.284 Y-14.126
X48.2 Y-14.002
X48.102 Y-13.888
X47.991 Y-13.787
X47.869 Y-13.699
X47.739 Y-13.625
X47.6 Y-13.567
X47.457 Y-13.524
X47.309 Y-13.498
X47.159 Y-13.488
X47.009 Y-13.494
X46.861 Y-13.517
X46.716 Y-13.556
X46.576 Y-13.61
X46.443 Y-13.679
X46.318 Y-13.762
X46.202 Y-13.858
X46.098 Y-13.965
X46.005 Y-14.083
X45.924 Y-14.209
X45.857 Y-14.343
X45.805 Y-14.484
X45.767 Y-14.629
X45.744 Y-14.777
X45.737 Y-14.927
X45.744 Y-15.077
X45.766 Y-15.225
X45.804 Y-15.371
X45.855 Y-15.512
X45.919 Y-15.647
X45.998 Y-15.775
X46.087 Y-15.895
X46.188 Y-16.006
X46.3 Y-16.107
X46.42 Y-16.196
X46.548 Y-16.274
X46.683 Y-16.339
X46.824 Y-16.391
X46.969 Y-16.43
X47.117 Y-16.456
X47.266 Y-16.467
X47.416 Y-16.464
X47.565 Y-16.448
X47.712 Y-16.417
X47.856 Y-16.374
X47.995 Y-16.318
X48.128 Y-16.249
X48.254 Y-16.168
X48.373 Y-16.077
X48.483 Y-15.975
X48.584 Y-15.863
X48.674 Y-15.743
X48.753 Y-15.616
X48.821 Y-15.482
X48.877 Y-15.343
X48.92 Y-15.2
X48.951 Y-15.053
X48.969 Y-14.904
X48.974 Y-14.754
X48.967 Y-14.604
X48.946 Y-14.455
X48.913 Y-14.309
X48.868 Y-14.166
X48.81 Y-14.027
X48.741 Y-13.894
X48.662 Y-13.767
X48.572 Y-13.647
X48.473 Y-13.535
X48.364 Y-13.431
X48.248 Y-13.336
X48.124 Y-13.252
X47.992 Y-13.177
X47.856 Y-13.114
X47.715 Y-13.062
X47.571 Y-13.021
X47.42 Y-12.992
X47.271 Y-12.976
X47.121 Y-12.971
X46.968 Y-12.979
X46.814 Y-12.999
X46.667 Y-13.031
X46.523 Y-13.074
X46.379 Y-13.131
X46.237 Y-13.2
X46.105 Y-13.277
X45.981 Y-13.365
X45.861 Y-13.465
X45.747 Y-13.577
X45.644 Y-13.695
X45.552 Y-13.819
X45.469 Y-13.952
X45.396 Y-14.095
X45.334 Y-14.243
X45.298 Y-14.355
X45.288 Y-14.392
X45.282 Y-14.431
X45.28 Y-14.47
Y-15.066
X45.289 Y-15.253
X45.309 Y-15.402
X45.342 Y-15.549
X45.387 Y-15.691
X45.446 Y-15.832
X45.515 Y-15.969
X45.595 Y-16.098
X45.688 Y-16.225
X45.794 Y-16.347
X45.911 Y-16.462
X46.038 Y-16.568
X46.171 Y-16.662
X46.312 Y-16.746
X46.462 Y-16.82
X46.62 Y-16.882
X46.785 Y-16.932
X46.953 Y-16.968
X47.121 Y-16.991
X47.29 Y-17.
X47.461 Y-16.996
X47.583 Y-16.982
X47.654 Y-16.967
X47.722 Y-16.939
X47.782 Y-16.897
X47.93 Y-16.773
X48.059 Y-16.673
X48.322 Y-16.477
X48.464 Y-16.379
X48.584 Y-16.301
X48.715 Y-16.222
X48.755 Y-16.2
X48.882 Y-16.12
X48.996 Y-16.022
X49.098 Y-15.912
X49.188 Y-15.792
X49.266 Y-15.664
X49.332 Y-15.53
X49.388 Y-15.387
X49.435 Y-15.235
X49.469 Y-15.078
X49.49 Y-14.916
X49.499 Y-14.747
X49.494 Y-14.574
X49.476 Y-14.4
X49.442 Y-14.224
X49.394 Y-14.049
X49.363 Y-13.963
X49.318 Y-13.877
X49.254 Y-13.806
X49.173 Y-13.754
X49.127 Y-13.742
X49.08 Y-13.744
X49.036 Y-13.76
X48.998 Y-13.788
X48.97 Y-13.825
X48.954 Y-13.869
X48.857 Y-14.362
X48.61 Y-15.606
X48.527 Y-16.028
G3 X48.755 Y-16.2 I0.156 J-0.031
G1 X48.847 Y-16.148
X49.169 Y-15.985
X49.241 Y-15.951
X49.313 Y-15.921
X49.448 Y-15.857
X49.57 Y-15.769
X49.675 Y-15.662
X49.764 Y-15.541
X49.837 Y-15.41
X49.897 Y-15.273
X49.944 Y-15.13
X49.979 Y-14.978
X50.004 Y-14.812
X50.016 Y-14.641
X50.014 Y-14.459
X49.999 Y-14.305
X49.989 Y-14.243
X49.936 Y-14.107
X49.834 Y-14.002
X49.7 Y-13.944
X49.653 Y-13.943
X49.607 Y-13.956
X49.567 Y-13.982
X49.537 Y-14.018
X49.519 Y-14.062
X49.387 Y-14.593
X49.209 Y-15.307
X49.103 Y-15.734
G3 X49.313 Y-15.921 I0.154 J-0.038
G1 X49.372 Y-15.897
X49.503 Y-15.851
X49.635 Y-15.808
X49.766 Y-15.78
X49.911 Y-15.742
X50.04 Y-15.666
X50.152 Y-15.566
X50.248 Y-15.45
X50.327 Y-15.323
X50.392 Y-15.188
X50.444 Y-15.047
X50.483 Y-14.901
X50.51 Y-14.754
X50.525 Y-14.604
X50.524 Y-14.454
X50.514 Y-14.371
X50.464 Y-14.222
X50.358 Y-14.108
X50.213 Y-14.048
X50.169
X50.126 Y-14.06
X50.088 Y-14.083
X50.058 Y-14.117
X50.039 Y-14.157
X49.868 Y-14.692
X49.727 Y-15.137
X49.587 Y-15.575
G3 X49.766 Y-15.78 I0.151 J-0.048
G1 X50.038 Y-15.722
X50.232 Y-15.686
X50.378 Y-15.652
X50.512 Y-15.585
X50.629 Y-15.491
X50.73 Y-15.38
X50.815 Y-15.256
X50.884 Y-15.123
X50.94 Y-14.984
X50.98 Y-14.839
X51.004 Y-14.691
X51.011 Y-14.541
X51.005 Y-14.471
X50.958 Y-14.318
X50.85 Y-14.2
X50.703 Y-14.138
X50.66 Y-14.137
X50.618 Y-14.148
X50.582 Y-14.17
X50.552 Y-14.201
X50.531 Y-14.238
X50.328 Y-14.771
X50.222 Y-15.048
X50.06 Y-15.473
G3 X50.232 Y-15.686 I0.148 J-0.057
G1 X50.752 Y-15.591
X50.898 Y-15.557
X51.03 Y-15.485
X51.145 Y-15.389
X51.243 Y-15.276
X51.324 Y-15.15
X51.389 Y-15.014
X51.437 Y-14.872
X51.463 Y-14.724
X51.472 Y-14.575
X51.469 Y-14.547
X51.419 Y-14.399
X51.312 Y-14.284
X51.168 Y-14.223
X51.125
X51.084 Y-14.233
X51.047 Y-14.255
X51.017 Y-14.285
X50.997 Y-14.322
X50.787 Y-14.854
X50.747 Y-14.954
X50.581 Y-15.376
G3 X50.752 Y-15.591 I0.148 J-0.058
G1 X51.21 Y-15.507
X51.276 Y-15.493
X51.341 Y-15.473
X51.377 Y-15.46
X51.473 Y-15.41
X51.524 Y-15.372
X51.574 Y-15.328
X51.604 Y-15.299
X51.677 Y-15.197
X51.71 Y-15.135
X51.735 Y-15.073
X51.755 Y-15.
X51.766 Y-14.935
Y-14.803
X51.755 Y-14.738
X51.735 Y-14.665
X51.71 Y-14.603
X51.677 Y-14.541
X51.604 Y-14.439
X51.574 Y-14.409
X51.524 Y-14.365
X51.473 Y-14.328
X51.377 Y-14.278
X51.341 Y-14.264
X51.276 Y-14.245
X51.21 Y-14.231
X50.028 Y-14.013
X49.635 Y-13.93
X49.495 Y-13.884
X49.372 Y-13.841
X49.241 Y-13.787
X49.169 Y-13.753
X48.847 Y-13.589
X48.715 Y-13.516
X48.584 Y-13.437
X48.453 Y-13.351
X48.322 Y-13.26
X48.059 Y-13.064
X47.928 Y-12.963
X47.774 Y-12.834
X47.714 Y-12.781
X47.597 Y-12.687
X47.464 Y-12.617
X47.323 Y-12.566
X47.177 Y-12.531
X47.029 Y-12.512
X46.879 Y-12.507
X46.729 Y-12.515
X46.573 Y-12.536
X46.412 Y-12.572
X46.248 Y-12.622
X46.084 Y-12.687
X45.922 Y-12.766
X45.764 Y-12.86
X45.612 Y-12.969
X45.466 Y-13.091
X45.39 Y-13.166
X45.33 Y-13.243
X45.293 Y-13.333
X45.28 Y-13.43
X45.288 Y-13.476
X45.31 Y-13.517
X45.343 Y-13.551
X45.384 Y-13.573
X45.429 Y-13.583
X45.476 Y-13.578
X45.965 Y-13.459
X47.21 Y-13.156
X47.643 Y-13.05
G3 X47.714 Y-12.781 I-0.038 J0.154
G1 X47.627 Y-12.702
X47.484 Y-12.571
X47.271 Y-12.36
X47.163 Y-12.256
X47.032 Y-12.183
X46.891 Y-12.132
X46.744 Y-12.102
X46.595 Y-12.088
X46.445 Y-12.09
X46.295 Y-12.106
X46.138 Y-12.135
X45.978 Y-12.179
X45.809 Y-12.24
X45.634 Y-12.319
X45.481 Y-12.404
X45.445 Y-12.428
X45.357 Y-12.51
X45.3 Y-12.617
X45.28 Y-12.736
X45.288 Y-12.78
X45.307 Y-12.82
X45.337 Y-12.853
X45.375 Y-12.876
X45.418 Y-12.888
X45.463 Y-12.887
X45.974 Y-12.808
X46.736 Y-12.69
X47.176 Y-12.622
G3 X47.271 Y-12.36 I-0.024 J0.157
G1 X47.098 Y-12.177
X46.981 Y-12.046
X46.924 Y-11.981
X46.819 Y-11.874
X46.694 Y-11.791
X46.556 Y-11.733
X46.41 Y-11.698
X46.261 Y-11.681
X46.111 Y-11.679
X45.961 Y-11.692
X45.808 Y-11.719
X45.663 Y-11.757
X45.522 Y-11.808
X45.492 Y-11.822
X45.38 Y-11.904
X45.306 Y-12.021
X45.28 Y-12.157
X45.289 Y-12.206
X45.314 Y-12.25
X45.351 Y-12.284
X45.397 Y-12.304
X45.447 Y-12.31
X45.979 Y-12.283
X46.375 Y-12.263
X46.809 Y-12.241
G3 X46.924 Y-11.981 I-0.008 J0.159
G1 X46.866 Y-11.915
X46.746 Y-11.771
X46.649 Y-11.652
X46.595 Y-11.58
X46.498 Y-11.466
X46.374 Y-11.381
X46.237 Y-11.322
X46.091 Y-11.284
X45.943 Y-11.266
X45.793 Y-11.264
X45.644 Y-11.281
X45.562 Y-11.301
X45.416 Y-11.374
X45.316 Y-11.502
X45.28 Y-11.661
X45.289 Y-11.708
X45.311 Y-11.751
X45.346 Y-11.784
X45.389 Y-11.806
X45.436 Y-11.814
X45.98 Y-11.823
X46.027 Y-11.824
X46.463 Y-11.831
G3 X46.595 Y-11.58 I0.003 J0.159
G1 X46.45 Y-11.389
X46.352 Y-11.258
X46.3 Y-11.186
X46.207 Y-11.068
X46.087 Y-10.979
X45.95 Y-10.917
X45.804 Y-10.882
X45.655 Y-10.873
X45.608 Y-10.878
X45.48 Y-10.917
X45.374 Y-10.999
X45.304 Y-11.114
X45.28 Y-11.246
X45.288 Y-11.292
X45.31 Y-11.334
X45.343 Y-11.368
X45.385 Y-11.39
X45.431 Y-11.399
X45.725 Y-11.412
X46.161 Y-11.432
G3 X46.3 Y-11.186 I0.007 J0.159
G1 X46.221 Y-11.073
X46.081 Y-10.864
X46.056 Y-10.824
X45.971 Y-10.701
X45.852 Y-10.609
X45.713 Y-10.555
X45.687 Y-10.553
X45.534 Y-10.569
X45.402 Y-10.647
X45.312 Y-10.771
X45.28 Y-10.921
X45.289 Y-10.97
X45.313 Y-11.013
X45.349 Y-11.047
X45.394 Y-11.068
X45.442 Y-11.074
X45.466
X45.923 Y-11.062
G3 X46.056 Y-10.824 I-0.004 J0.159
G1 X45.853 Y-10.497
X45.767 Y-10.374
X45.636 Y-10.337
X45.502 Y-10.356
X45.386 Y-10.426
X45.307 Y-10.537
X45.28 Y-10.67
X45.286 Y-10.721
X45.301 Y-10.769
X45.324 Y-10.814
G3 X45.853 Y-10.497 I0.261 J0.164
G1 X45.827 Y-10.455
X45.739 Y-10.306
X45.699 Y-10.243
X45.584 Y-10.146
X45.473 Y-10.148
X45.373 Y-10.199
X45.304 Y-10.287
X45.28 Y-10.396
X45.288 Y-10.465
G3 X45.606 Y-10.647 I0.237 J0.046
X45.739 Y-10.306 I-0.081 J0.228
G1 X45.683 Y-10.208
X45.637 Y-10.103
X45.625 Y-10.076
X45.611 Y-10.046
X45.596 Y-10.015
X45.489 Y-9.989
X45.384 Y-10.019
X45.308 Y-10.097
X45.28 Y-10.203
X45.285 Y-10.231
X45.299 Y-10.257
X45.32 Y-10.277
G3 X45.611 Y-10.046 I0.112 J0.158
G1 X45.6 Y-10.021
X45.586 Y-9.993
X45.576 Y-9.98
X45.564 Y-9.966
X45.552 Y-9.954
X45.539 Y-9.945
X45.526 Y-9.937
X45.513 Y-9.931
X45.499 Y-9.926
X45.486 Y-9.922
X45.459 Y-9.919
X45.433
X45.412 Y-9.921
X45.392 Y-9.926
X45.371 Y-9.934
X45.351 Y-9.945
X45.336 Y-9.956
X45.321 Y-9.971
X45.31 Y-9.984
X45.302 Y-9.997
X45.292 Y-10.017
X45.285 Y-10.037
X45.281 Y-10.057
X45.28 Y-10.076
Y-14.47
G3 X45.495 Y-14.618 I0.159 J0.
G1 X45.694 Y-14.542
G3 X45.581 Y-14.245 I-0.057 J0.148
X45.501 Y-14.312 I0.057 J-0.148
X45.28 Y-15.066 I1.36 J-0.809
G1 Y-16.057
X45.287 Y-16.207
X45.324 Y-16.352
X45.382 Y-16.491
X45.455 Y-16.622
X45.541 Y-16.744
X45.639 Y-16.859
X45.747 Y-16.965
X45.872 Y-17.07
X46.014 Y-17.17
X46.167 Y-17.262
X46.333 Y-17.342
X46.51 Y-17.412
X46.698 Y-17.47
X46.895 Y-17.513
X46.927 Y-17.517
X47.044 Y-17.514
X47.154 Y-17.475
X47.246 Y-17.404
X47.27 Y-17.368
X47.283 Y-17.326
X47.285 Y-17.282
X47.274 Y-17.24
X47.252 Y-17.202
X47.221 Y-17.171
X46.8 Y-16.863
X45.888 Y-16.195
X45.532 Y-15.935
G3 X45.28 Y-16.057 I-0.094 J-0.128
G1 Y-16.714
X45.287 Y-16.863
X45.326 Y-17.008
X45.388 Y-17.145
X45.468 Y-17.272
X45.562 Y-17.389
X45.666 Y-17.497
X45.782 Y-17.597
X45.918 Y-17.696
X46.065 Y-17.786
X46.226 Y-17.868
X46.364 Y-17.925
X46.459 Y-17.954
X46.602 Y-17.969
X46.741 Y-17.929
X46.853 Y-17.838
X46.871 Y-17.808
X46.883 Y-17.776
X46.887 Y-17.741
X46.88 Y-17.694
X46.859 Y-17.651
X46.827 Y-17.616
X46.405 Y-17.282
X45.878 Y-16.865
X45.537 Y-16.595
G3 X45.28 Y-16.714 I-0.099 J-0.124
G1 Y-17.298
X45.287 Y-17.448
X45.323 Y-17.593
X45.384 Y-17.73
X45.465 Y-17.857
X45.56 Y-17.973
X45.666 Y-18.079
X45.782 Y-18.174
X45.907 Y-18.257
X46.04 Y-18.327
X46.109 Y-18.354
X46.265 Y-18.378
X46.418 Y-18.335
X46.538 Y-18.233
X46.559 Y-18.191
X46.567 Y-18.145
X46.561 Y-18.099
X46.542 Y-18.056
X46.512 Y-18.021
X46.095 Y-17.66
X45.867 Y-17.463
X45.542 Y-17.183
G3 X45.28 Y-17.298 I-0.104 J-0.12
G1 Y-17.895
X45.287 Y-18.045
X45.328 Y-18.19
X45.395 Y-18.324
X45.481 Y-18.446
X45.584 Y-18.555
X45.703 Y-18.647
X45.833 Y-18.721
X45.845 Y-18.726
X46.003 Y-18.746
X46.154 Y-18.698
X46.272 Y-18.592
X46.291 Y-18.551
X46.298 Y-18.505
X46.292 Y-18.46
X46.273 Y-18.419
X46.243 Y-18.384
X45.867 Y-18.06
X45.542 Y-17.781
G3 X45.28 Y-17.895 I-0.104 J-0.12
G1 Y-18.453
X45.287 Y-18.603
X45.338 Y-18.744
X45.418 Y-18.871
X45.525 Y-18.976
X45.558 Y-18.997
X45.694 Y-19.052
X45.84 Y-19.049
X45.975 Y-18.99
X46.075 Y-18.883
X46.092 Y-18.839
X46.096 Y-18.792
X46.086 Y-18.746
X46.062 Y-18.706
X46.028 Y-18.673
X45.895 Y-18.582
X45.529 Y-18.328
G3 X45.28 Y-18.453 I-0.09 J-0.131
G1 Y-19.661
X45.281 Y-19.681
X45.285 Y-19.701
X45.292 Y-19.721
X45.302 Y-19.741
X45.31 Y-19.754
X45.321 Y-19.767
X45.336 Y-19.781
X45.351 Y-19.793
X45.371 Y-19.804
X45.392 Y-19.812
X45.412 Y-19.817
X45.433 Y-19.819
X45.459
X45.486 Y-19.815
X45.499 Y-19.812
X45.513 Y-19.807
X45.526 Y-19.801
X45.539 Y-19.793
X45.552 Y-19.783
X45.564 Y-19.772
X45.576 Y-19.758
X45.586 Y-19.744
X45.6 Y-19.717
X45.683 Y-19.53
X45.758 Y-19.399
X45.836 Y-19.267
X46.089 Y-18.861
X46.221 Y-18.665
X46.352 Y-18.479
X46.483 Y-18.304
X46.649 Y-18.086
X46.756 Y-17.954
X46.877 Y-17.809
X47.009 Y-17.66
X47.098 Y-17.561
X47.271 Y-17.377
X47.484 Y-17.167
X47.665 Y-17.
X47.782 Y-16.897
G3 X47.569 Y-16.662 I-0.107 J0.118
X47.517 Y-16.775 I0.107 J-0.118
G1 Y-16.78
X47.531 Y-16.817 Z7.027
X47.543 Y-16.852 Z7.044
X47.554 Y-16.882 Z7.07
X47.571 Y-16.897 Z7.102
X47.582 Y-16.907 Z7.139
X47.586 Y-16.911 Z7.179
G0 Z12.77
X49.295 Y-2.384
Z10.27
G1 Z7.02 F51.
X49.332 Y-2.386 F356.
X49.326 Y-2.348
X49.294 Y-2.33
X49.257 Y-2.34
X49.235 Y-2.37
X49.236 Y-2.407
X49.253 Y-2.441
X49.282 Y-2.465
X49.318 Y-2.476
X49.355 Y-2.472
X49.388 Y-2.454
X49.414 Y-2.427
X49.43 Y-2.393
X49.44 Y-2.319
X49.413 Y-2.249
X49.357 Y-2.199
X49.285 Y-2.176
X49.211 Y-2.182
X49.143 Y-2.215
X49.09 Y-2.268
X49.057 Y-2.335
X49.045 Y-2.409
X49.054 Y-2.483
X49.083 Y-2.552
X49.176 Y-2.67
X49.315 Y-2.726
X49.465 Y-2.714
X49.595 Y-2.64
X49.691 Y-2.525
X49.74 Y-2.383
X49.736 Y-2.233
X49.684 Y-2.092
X49.591 Y-1.975
X49.467 Y-1.891
X49.323 Y-1.848
X49.173
X49.029 Y-1.889
X48.901 Y-1.967
X48.798 Y-2.076
X48.726 Y-2.208
X48.689 Y-2.353
Y-2.503
X48.719 Y-2.65
X48.784 Y-2.785
X48.875 Y-2.904
X48.992 Y-2.999
X49.125 Y-3.067
X49.271 Y-3.104
X49.42 Y-3.111
X49.568 Y-3.086
X49.709 Y-3.033
X49.836 Y-2.954
X49.947 Y-2.852
X50.035 Y-2.731
X50.101 Y-2.596
X50.139 Y-2.451
X50.153 Y-2.302
X50.139 Y-2.153
X50.101 Y-2.008
X50.037 Y-1.872
X49.952 Y-1.748
X49.848 Y-1.64
X49.727 Y-1.552
X49.593 Y-1.484
X49.45 Y-1.439
X49.302 Y-1.416
X49.152 Y-1.419
X49.004 Y-1.443
X48.861 Y-1.49
X48.728 Y-1.559
X48.606 Y-1.646
X48.499 Y-1.751
X48.407 Y-1.87
X48.335 Y-2.002
X48.283 Y-2.142
X48.249 Y-2.288
X48.238 Y-2.438
X48.246 Y-2.587
X48.275 Y-2.735
X48.324 Y-2.877
X48.391 Y-3.011
X48.476 Y-3.134
X48.576 Y-3.246
X48.69 Y-3.343
X48.816 Y-3.424
X48.951 Y-3.489
X49.094 Y-3.535
X49.241 Y-3.563
X49.391 Y-3.572
X49.541 Y-3.562
X49.688 Y-3.533
X49.831 Y-3.487
X49.967 Y-3.423
X50.094 Y-3.344
X50.21 Y-3.25
X50.315 Y-3.142
X50.406 Y-3.023
X50.483 Y-2.894
X50.544 Y-2.757
X50.589 Y-2.614
X50.616 Y-2.466
X50.628 Y-2.317
X50.622 Y-2.167
X50.599 Y-2.019
X50.56 Y-1.874
X50.505 Y-1.734
X50.434 Y-1.602
X50.35 Y-1.478
X50.253 Y-1.364
X50.144 Y-1.261
X50.024 Y-1.17
X49.895 Y-1.093
X49.759 Y-1.03
X49.617 Y-0.982
X49.471 Y-0.949
X49.322 Y-0.932
X49.172 Y-0.929
X49.023 Y-0.943
X48.875 Y-0.973
X48.732 Y-1.016
X48.594 Y-1.075
X48.462 Y-1.147
X48.339 Y-1.232
X48.224 Y-1.329
X48.12 Y-1.437
X48.027 Y-1.555
X47.946 Y-1.681
X47.878 Y-1.814
X47.823 Y-1.954
X47.781 Y-2.098
X47.755 Y-2.246
X47.742 Y-2.395
Y-2.545
X47.758 Y-2.694
X47.788 Y-2.841
X47.83 Y-2.985
X47.887 Y-3.124
X47.956 Y-3.257
X48.037 Y-3.384
X48.129 Y-3.502
X48.232 Y-3.611
X48.344 Y-3.71
X48.465 Y-3.799
X48.594 Y-3.876
X48.729 Y-3.941
X48.869 Y-3.995
X49.014 Y-4.035
X49.161 Y-4.061
X49.311 Y-4.075
X49.461 Y-4.076
X49.61 Y-4.063
X49.758 Y-4.038
X49.903 Y-3.999
X50.044 Y-3.948
X50.18 Y-3.885
X50.31 Y-3.811
X50.434 Y-3.726
X50.549 Y-3.63
X50.656 Y-3.525
X50.755 Y-3.412
X50.842 Y-3.29
X50.92 Y-3.161
X50.986 Y-3.027
X51.041 Y-2.888
X51.085 Y-2.744
X51.116 Y-2.597
X51.135 Y-2.448
X51.142 Y-2.298
X51.136 Y-2.147
X51.119 Y-1.998
X51.089 Y-1.851
X51.048 Y-1.707
X50.993 Y-1.563
X50.929 Y-1.427
X50.854 Y-1.297
X50.767 Y-1.172
X50.669 Y-1.051
X50.564 Y-0.943
X50.452 Y-0.843
X50.328 Y-0.75
X50.195 Y-0.665
X50.06 Y-0.594
X49.92 Y-0.534
X49.772 Y-0.485
X49.617 Y-0.446
X49.463 Y-0.421
X49.309 Y-0.408
X49.152
X48.992 Y-0.42
X48.833 Y-0.446
X48.679 Y-0.483
X48.531 Y-0.532
X48.383 Y-0.594
X48.238 Y-0.67
X48.099 Y-0.757
X47.971 Y-0.852
X47.85 Y-0.958
X47.736 Y-1.076
X47.631 Y-1.204
X47.534 Y-1.342
X47.452 Y-1.483
X47.381 Y-1.63
X47.321 Y-1.786
X47.273 Y-1.947
X47.239 Y-2.113
X47.217 Y-2.282
X47.209 Y-2.451
X47.215 Y-2.618
X47.234 Y-2.785
X47.267 Y-2.952
X47.314 Y-3.119
X47.374 Y-3.281
X47.447 Y-3.438
X47.532 Y-3.588
X47.628 Y-3.73
X47.735 Y-3.863
X47.854 Y-3.989
X47.984 Y-4.107
X48.125 Y-4.214
X48.273 Y-4.31
X48.429 Y-4.394
X48.592 Y-4.465
X48.759 Y-4.522
X48.928 Y-4.566
X49.103 Y-4.596
X49.282 Y-4.612
X49.461 Y-4.614
X49.641 Y-4.602
X49.82 Y-4.575
X49.998 Y-4.533
X50.173 Y-4.477
X50.342 Y-4.407
X50.505 Y-4.324
X50.662 Y-4.227
X50.811 Y-4.119
X50.95 Y-3.999
X51.08 Y-3.867
X51.199 Y-3.724
X51.307 Y-3.573
X51.402 Y-3.412
X51.485 Y-3.243
X51.555 Y-3.067
X51.61 Y-2.887
X51.65 Y-2.701
X51.676 Y-2.512
X51.687 Y-2.321
X51.682 Y-2.13
X51.661 Y-1.939
X51.626 Y-1.749
X51.575 Y-1.563
X51.509 Y-1.381
X51.428 Y-1.204
X51.334 Y-1.034
X51.226 Y-0.872
X51.105 Y-0.718
X50.97 Y-0.574
X50.825 Y-0.441
X50.67 Y-0.32
X50.504 Y-0.211
X50.33 Y-0.115
X50.148 Y-0.034
X49.96 Y0.033
X49.767 Y0.084
X49.569 Y0.12
X49.368 Y0.14
X49.166 Y0.144
X48.965 Y0.131
X48.764 Y0.103
X48.566 Y0.058
X48.37 Y-0.003
X48.18 Y-0.08
X47.997 Y-0.171
X47.821 Y-0.278
X47.653 Y-0.398
X47.495 Y-0.533
X47.347 Y-0.68
X47.212 Y-0.839
X47.09 Y-1.008
X46.981 Y-1.187
X46.887 Y-1.376
X46.807 Y-1.572
X46.744 Y-1.775
X46.697 Y-1.982
X46.666 Y-2.192
X46.653 Y-2.404
X46.657 Y-2.619
X46.678 Y-2.833
X46.716 Y-3.045
X46.771 Y-3.254
X46.843 Y-3.458
X46.931 Y-3.655
X47.034 Y-3.846
X47.154 Y-4.028
X47.288 Y-4.2
X47.435 Y-4.362
X47.596 Y-4.512
X47.769 Y-4.649
X47.953 Y-4.772
X48.146 Y-4.879
X48.347 Y-4.971
X48.555 Y-5.047
X48.77 Y-5.106
X48.989 Y-5.148
X49.212 Y-5.172
X49.436 Y-5.178
X49.662 Y-5.166
X49.886 Y-5.135
X50.108 Y-5.087
X50.326 Y-5.021
X50.538 Y-4.938
X50.743 Y-4.837
X50.94 Y-4.721
X51.127 Y-4.588
X51.303 Y-4.441
X51.468 Y-4.28
X51.619 Y-4.105
X51.756 Y-3.918
X51.878 Y-3.72
X51.985 Y-3.513
X52.074 Y-3.297
X52.146 Y-3.073
X52.2 Y-2.845
X52.236 Y-2.612
X52.253 Y-2.376
X52.251 Y-2.139
X52.23 Y-1.902
X52.189 Y-1.668
X52.13 Y-1.436
X52.053 Y-1.21
X51.957 Y-0.99
X51.844 Y-0.779
X51.713 Y-0.576
X51.567 Y-0.384
X51.405 Y-0.204
X51.229 Y-0.037
X51.04 Y0.115
X50.838 Y0.253
X50.626 Y0.373
X50.404 Y0.477
X50.175 Y0.562
X49.938 Y0.63
X49.696 Y0.678
X49.451 Y0.706
X49.203 Y0.715
X48.956 Y0.704
X48.709 Y0.673
X48.465 Y0.622
X48.225 Y0.551
X47.991 Y0.461
X47.765 Y0.353
X47.547 Y0.226
X47.34 Y0.082
X47.144 Y-0.079
X46.962 Y-0.255
X46.793 Y-0.446
X46.641 Y-0.65
X46.504 Y-0.867
X46.385 Y-1.094
X46.285 Y-1.331
X46.204 Y-1.576
X46.142 Y-1.826
X46.101 Y-2.082
X46.081 Y-2.341
Y-2.601
X46.102 Y-2.861
X46.144 Y-3.119
X46.207 Y-3.373
X46.29 Y-3.622
X46.392 Y-3.863
X46.515 Y-4.096
X46.656 Y-4.319
X46.814 Y-4.531
X46.99 Y-4.73
X47.182 Y-4.914
X47.388 Y-5.083
X47.607 Y-5.235
X47.838 Y-5.369
X48.079 Y-5.484
X48.33 Y-5.58
X48.588 Y-5.655
X48.852 Y-5.71
X49.12 Y-5.743
X49.391 Y-5.755
X49.663 Y-5.745
X49.933 Y-5.713
X50.201 Y-5.66
X50.464 Y-5.585
X50.721 Y-5.488
X50.97 Y-5.372
X51.209 Y-5.235
X51.436 Y-5.08
X51.651 Y-4.906
X51.852 Y-4.716
X52.037 Y-4.509
X52.206 Y-4.287
X52.356 Y-4.052
X52.488 Y-3.806
X52.599 Y-3.548
X52.69 Y-3.283
X52.759 Y-3.01
X52.806 Y-2.731
X52.831 Y-2.45
X52.833 Y-2.166
X52.812 Y-1.883
X52.769 Y-1.602
X52.703 Y-1.324
X52.615 Y-1.052
X52.505 Y-0.788
X52.374 Y-0.533
X52.222 Y-0.289
X52.051 Y-0.057
X51.862 Y0.161
X51.655 Y0.363
X51.433 Y0.549
X51.195 Y0.716
X50.945 Y0.864
X50.683 Y0.992
X50.411 Y1.098
X50.131 Y1.183
X49.844 Y1.245
X49.553 Y1.283
X49.259 Y1.299
X48.964 Y1.29
X48.67 Y1.258
X48.379 Y1.202
X48.093 Y1.123
X47.814 Y1.021
X47.543 Y0.897
X47.282 Y0.751
X47.034 Y0.584
X46.799 Y0.397
X46.579 Y0.192
X46.376 Y-0.031
X46.191 Y-0.27
X46.026 Y-0.523
X45.881 Y-0.79
X45.758 Y-1.068
X45.657 Y-1.355
X45.58 Y-1.651
X45.526 Y-1.952
X45.497 Y-2.257
X45.492 Y-2.564
X45.512 Y-2.871
X45.556 Y-3.176
X45.625 Y-3.477
X45.718 Y-3.772
X45.835 Y-4.059
X45.975 Y-4.337
X46.136 Y-4.603
X46.319 Y-4.855
X46.522 Y-5.092
X46.744 Y-5.313
X46.983 Y-5.516
X47.238 Y-5.699
X47.507 Y-5.861
X47.789 Y-6.001
X48.082 Y-6.118
X48.384 Y-6.212
X48.694 Y-6.282
X49.008 Y-6.326
X49.326 Y-6.345
X49.645 Y-6.339
X49.963 Y-6.306
X50.278 Y-6.249
X50.588 Y-6.166
X50.891 Y-6.058
X51.185 Y-5.926
X51.468 Y-5.771
X51.738 Y-5.593
X51.993 Y-5.394
X52.232 Y-5.174
X52.453 Y-4.935
X52.654 Y-4.679
X52.835 Y-4.407
X52.993 Y-4.121
X53.129 Y-3.823
X53.24 Y-3.514
X53.288 Y-3.335
X53.296 Y-3.297
X53.301 Y-3.259
Y-3.22
X53.296 Y-3.117
X53.298 Y-2.724
X53.303 Y-2.592
X53.317 Y-2.33
X53.327 Y-2.198
X53.334 Y-2.126
X53.343 Y-1.933
X53.336 Y-1.715
X53.309 Y-1.465
X53.256 Y-1.196
X53.178 Y-0.916
X53.075 Y-0.637
X52.947 Y-0.359
X52.791 Y-0.082
X52.609 Y0.188
X52.403 Y0.445
X52.175 Y0.688
X51.927 Y0.913
X51.66 Y1.118
X51.377 Y1.302
X51.079 Y1.462
X50.769 Y1.599
X50.736 Y1.611
X50.696 Y1.622
X50.655 Y1.629
X50.614 Y1.631
X48.322
X48.134 Y1.622
X47.951 Y1.598
X47.762 Y1.557
X47.545 Y1.493
X47.305 Y1.399
X47.061 Y1.28
X46.814 Y1.135
X46.562 Y0.958
X46.313 Y0.752
X46.075 Y0.519
X45.852 Y0.263
X45.648 Y-0.013
X45.464 Y-0.307
X45.321 Y-0.585
X45.298 Y-0.639
X45.284 Y-0.696
X45.28 Y-0.755
G3 X45.535 Y-0.875 I0.159 J0.006
G1 X45.882 Y-0.608
X48.099 Y1.104
X48.413 Y1.347
G3 X48.322 Y1.631 I-0.097 J0.126
G1 X47.14
X46.99 Y1.624
X46.841 Y1.603
X46.696 Y1.565
X46.545 Y1.51
X46.394 Y1.442
X46.209 Y1.339
X46.024 Y1.215
X45.819 Y1.053
X45.599 Y0.847
X45.379 Y0.607
X45.358 Y0.579
X45.315 Y0.51
X45.289 Y0.433
X45.28 Y0.352
G3 X45.526 Y0.225 I0.159 J0.006
G1 X45.901 Y0.471
X46.9 Y1.129
X47.221 Y1.34
X47.251 Y1.365
X47.274 Y1.397
X47.288 Y1.434
X47.293 Y1.472
X47.286 Y1.52
X47.264 Y1.564
X47.23 Y1.599
X47.188 Y1.622
X47.14 Y1.631
X46.221
X46.071 Y1.624
X45.924 Y1.595
X45.781 Y1.548
X45.644 Y1.487
X45.493 Y1.402
X45.444 Y1.369
X45.356 Y1.287
X45.299 Y1.181
X45.28 Y1.062
G3 X45.512 Y0.926 I0.159 J0.006
G1 X45.924 Y1.142
X45.962 Y1.161
X46.289 Y1.332
G3 X46.221 Y1.631 I-0.073 J0.141
G1 X45.564
X45.492 Y1.63
X45.459
X45.433
X45.402 Y1.621
X45.375 Y1.609
X45.351 Y1.594
X45.329 Y1.562
X45.319 Y1.523
X45.324 Y1.484
X45.342 Y1.448
X45.371 Y1.421
X45.408 Y1.406
X45.447 Y1.404
X45.485 Y1.417
X45.516 Y1.441
X45.537 Y1.475
X45.544 Y1.514
X45.539 Y1.549
X45.523 Y1.581
X45.499 Y1.607
X45.468 Y1.624
X45.433 Y1.63
X45.418 Y1.627
X45.403 Y1.623
X45.387 Y1.617
X45.372 Y1.609
X45.351 Y1.594
X45.33 Y1.574
X45.314 Y1.556
X45.302 Y1.539
X45.294 Y1.523
X45.288 Y1.508
X45.284 Y1.493
X45.281 Y1.478
X45.28 Y1.347
Y-3.643
X45.29 Y-3.838
X45.309 Y-3.989
X45.345 Y-4.155
X45.402 Y-4.344
X45.485 Y-4.559
X45.589 Y-4.773
X45.729 Y-5.011
X45.903 Y-5.258
X46.108 Y-5.505
X46.341 Y-5.744
X46.597 Y-5.968
X46.876 Y-6.174
X47.175 Y-6.36
X47.492 Y-6.524
X47.629 Y-6.581
X47.7 Y-6.603
X47.774 Y-6.609
X47.848 Y-6.601
X47.928 Y-6.585
X48.214 Y-6.531
X48.322 Y-6.512
X48.715 Y-6.455
X49.109 Y-6.416
X49.241 Y-6.406
X49.503 Y-6.392
X49.635 Y-6.387
X50.028 Y-6.385
X50.422 Y-6.404
X50.554 Y-6.416
X50.757 Y-6.437
X50.907 Y-6.445
X51.057 Y-6.435
X51.205 Y-6.411
X51.371 Y-6.369
X51.546 Y-6.309
X51.756 Y-6.217
X51.963 Y-6.106
X52.193 Y-5.959
X52.435 Y-5.774
X52.678 Y-5.555
X52.913 Y-5.307
X53.132 Y-5.034
X53.333 Y-4.739
X53.392 Y-4.636
X53.426 Y-4.556
X53.44 Y-4.47
X53.433 Y-4.383
X53.417 Y-4.299
X53.373 Y-4.037
X53.354 Y-3.905
X53.327 Y-3.643
X53.315 Y-3.511
X53.301 Y-3.22
G3 X53.017 Y-3.136 I-0.158 J-0.013
G1 X52.769 Y-3.456
X50.931 Y-5.825
X50.654 Y-6.183
X50.635 Y-6.213
X50.624 Y-6.245
X50.62 Y-6.28
X50.627 Y-6.325
X50.646 Y-6.366
X50.675 Y-6.4
X50.714 Y-6.425
X50.757 Y-6.437
X50.816 Y-6.444
X50.948 Y-6.462
X51.21 Y-6.506
X51.341 Y-6.532
X51.473 Y-6.563
X51.62 Y-6.591
X51.77 Y-6.596
X51.919 Y-6.579
X52.065 Y-6.545
X52.213 Y-6.497
X52.371 Y-6.43
X52.552 Y-6.336
X52.749 Y-6.212
X52.952 Y-6.061
X53.177 Y-5.864
X53.409 Y-5.625
X53.579 Y-5.419
X53.629 Y-5.315
X53.645 Y-5.201
X53.625 Y-5.087
X53.603 Y-5.045
X53.569 Y-5.013
X53.527 Y-4.991
X53.48 Y-4.983
X53.433 Y-4.989
X53.39 Y-5.008
X52.97 Y-5.28
X51.783 Y-6.049
X51.429 Y-6.277
G3 X51.473 Y-6.563 I0.086 J-0.133
G1 X51.604 Y-6.595
X51.735 Y-6.628
X51.998 Y-6.714
X52.07 Y-6.739
X52.214 Y-6.781
X52.364 Y-6.794
X52.513 Y-6.783
X52.66 Y-6.754
X52.804 Y-6.71
X52.961 Y-6.646
X53.116 Y-6.568
X53.304 Y-6.453
X53.494 Y-6.315
X53.641 Y-6.188
X53.754 Y-6.075
X53.802 Y-6.018
X53.872 Y-5.893
X53.891 Y-5.751
X53.855 Y-5.612
X53.831 Y-5.577
X53.798 Y-5.55
X53.759 Y-5.533
X53.717 Y-5.526
X53.675 Y-5.531
X53.635 Y-5.547
X53.176 Y-5.809
X52.419 Y-6.241
X52.048 Y-6.453
G3 X52.07 Y-6.739 I0.079 J-0.138
G1 X52.129 Y-6.759
X52.523 Y-6.944
X52.563 Y-6.969
X52.694 Y-7.04
X52.843 Y-7.058
X52.993 Y-7.052
X53.141 Y-7.028
X53.286 Y-6.988
X53.43 Y-6.935
X53.575 Y-6.867
X53.713 Y-6.789
X53.837 Y-6.705
X53.952 Y-6.609
X54.058 Y-6.503
X54.101 Y-6.448
X54.168 Y-6.308
X54.173 Y-6.154
X54.113 Y-6.011
X54.081 Y-5.978
X54.042 Y-5.957
X53.997 Y-5.947
X53.952 Y-5.95
X53.91 Y-5.966
X53.42 Y-6.234
X52.977 Y-6.477
X52.574 Y-6.697
G3 X52.563 Y-6.969 I0.076 J-0.139
G1 X52.654 Y-7.025
X52.786 Y-7.111
X52.917 Y-7.199
X53.045 Y-7.278
X53.187 Y-7.324
X53.336 Y-7.341
X53.486 Y-7.336
X53.634 Y-7.311
X53.778 Y-7.269
X53.917 Y-7.213
X54.051 Y-7.144
X54.176 Y-7.061
X54.29 Y-6.964
X54.393 Y-6.854
X54.4 Y-6.844
X54.457 Y-6.708
Y-6.56
X54.399 Y-6.424
X54.369 Y-6.394
X54.332 Y-6.373
X54.291 Y-6.362
X54.249
X54.208 Y-6.374
X53.684 Y-6.603
X53.363 Y-6.744
X52.948 Y-6.926
G3 X52.917 Y-7.199 I0.064 J-0.145
G1 X53.351 Y-7.498
X53.478 Y-7.577
X53.621 Y-7.623
X53.77 Y-7.64
X53.92 Y-7.633
X54.067 Y-7.606
X54.21 Y-7.56
X54.347 Y-7.498
X54.475 Y-7.42
X54.591 Y-7.324
X54.635 Y-7.277
X54.703 Y-7.173
X54.733 Y-7.052
X54.72 Y-6.928
X54.668 Y-6.815
X54.639 Y-6.784
X54.602 Y-6.763
X54.562 Y-6.752
X54.52
X54.479 Y-6.763
X53.95 Y-6.986
X53.8 Y-7.049
X53.384 Y-7.225
G3 X53.351 Y-7.498 I0.062 J-0.146
G1 X53.777 Y-7.793
X53.81 Y-7.815
X53.836 Y-7.833
X53.933 Y-7.893
X53.947 Y-7.889
G3 X54.032 Y-7.644 I-0.044 J0.153
G1 X53.759 Y-7.265
X53.615 Y-7.064
G3 X53.342 Y-7.223 I-0.129 J-0.093
X53.836 Y-7.833 I1.438 J0.66
G1 X53.852 Y-7.844
X53.944 Y-7.9
X53.967 Y-7.914
X54.004 Y-7.929
X54.07 Y-7.952
X54.082 Y-7.944
X54.119 Y-7.914
X54.146 Y-7.873
X54.159 Y-7.827
X54.157 Y-7.778
X54.141 Y-7.733
X53.892 Y-7.267
X53.855 Y-7.197
G3 X53.556 Y-7.283 I-0.14 J-0.075
X54.004 Y-7.929 I0.767 J0.053
G1 X54.033 Y-7.941
X54.099 Y-7.96
X54.127 Y-7.965
X54.162 Y-7.971
X54.215 Y-7.977
X54.224
X54.234 Y-7.967
X54.261 Y-7.932
X54.277 Y-7.891
X54.282 Y-7.847
X54.274 Y-7.804
X54.254 Y-7.764
X54.224 Y-7.732
X54.013 Y-7.556
G3 X53.809 Y-7.799 I-0.101 J-0.122
X54.162 Y-7.971 I0.512 J0.604
G1 X54.191 Y-7.976
X54.23 Y-7.977
X54.267 Y-7.976
X54.297
X54.38 Y-7.961
X54.408 Y-7.953
G3 X54.32 Y-7.649 I-0.052 J0.15
G1 X54.262 Y-7.662
G3 X54.297 Y-7.976 I0.037 J-0.154
G1 X54.361 Y-7.967
X54.434 Y-7.945
X54.493 Y-7.927
X54.558 Y-7.897
X54.624 Y-7.855
X54.64 Y-7.844
X54.703 Y-7.785
X54.733 Y-7.756
X54.765 Y-7.713
X54.807 Y-7.647
X54.84 Y-7.582
X54.878 Y-7.45
X54.887 Y-7.386
X54.888 Y-7.319
X54.887 Y-7.28
X54.871 Y-7.188
X54.852 Y-7.122
X54.825 Y-7.056
X54.755 Y-6.941
X54.099 Y-5.989
X53.967 Y-5.792
X53.936 Y-5.743
X53.855 Y-5.612
X53.67 Y-5.218
X53.612 Y-5.047
X53.539 Y-4.824
X53.506 Y-4.693
X53.442 Y-4.429
X53.433 Y-4.383
G0 Z12.77
X45.582 Y-2.753
Z7.338
G1 Z7.179 F356.
X45.578 Y-2.759 Z7.13
X45.567 Y-2.779 Z7.085
X45.549 Y-2.809 Z7.05
X45.526 Y-2.847 Z7.028
X45.501 Y-2.889 Z7.02
G3 X45.28 Y-3.643 I1.36 J-0.809
G1 Y-4.824
X45.287 Y-4.974
X45.319 Y-5.121
X45.366 Y-5.263
X45.425 Y-5.403
X45.516 Y-5.577
X45.623 Y-5.748
X45.772 Y-5.948
X45.959 Y-6.16
X46.169 Y-6.363
X46.427 Y-6.575
X46.696 Y-6.763
X46.8 Y-6.813
X46.914 Y-6.829
X47.027 Y-6.809
G3 X47.093 Y-6.559 I-0.056 J0.148
G1 X46.783 Y-6.189
X45.819 Y-5.037
X45.56 Y-4.728
G3 X45.28 Y-4.824 I-0.122 J-0.102
G1 Y-5.684
X45.287 Y-5.834
X45.322 Y-5.98
X45.374 Y-6.121
X45.44 Y-6.256
X45.523 Y-6.397
X45.637 Y-6.557
X45.778 Y-6.726
X45.928 Y-6.878
X46.058 Y-6.991
X46.179 Y-7.08
X46.192 Y-7.087
X46.335 Y-7.136
X46.484 Y-7.123
X46.617 Y-7.053
X46.648 Y-7.015
X46.666 Y-6.969
X46.669 Y-6.92
X46.657 Y-6.872
X46.631 Y-6.831
X46.28 Y-6.423
X45.823 Y-5.893
X45.559 Y-5.586
G3 X45.28 Y-5.684 I-0.12 J-0.104
G1 Y-6.4
X45.287 Y-6.55
X45.315 Y-6.697
X45.363 Y-6.839
X45.428 Y-6.974
X45.508 Y-7.101
X45.601 Y-7.219
X45.708 Y-7.324
X45.827 Y-7.415
X45.912 Y-7.461
X46.043 Y-7.501
X46.179 Y-7.488
X46.3 Y-7.424
X46.387 Y-7.319
X46.407 Y-7.28
X46.415 Y-7.237
X46.411 Y-7.193
X46.396 Y-7.152
X46.369 Y-7.117
X45.971 Y-6.716
X45.845 Y-6.589
X45.551 Y-6.294
G3 X45.28 Y-6.4 I-0.113 J-0.112
G1 Y-7.129
X45.287 Y-7.279
X45.333 Y-7.421
X45.406 Y-7.552
X45.502 Y-7.668
X45.617 Y-7.765
X45.748 Y-7.838
X45.765 Y-7.844
X45.899 Y-7.864
X46.032 Y-7.834
X46.144 Y-7.758
X46.222 Y-7.647
X46.233 Y-7.606
Y-7.564
X46.221 Y-7.523
X46.199 Y-7.486
X46.168 Y-7.457
X45.892 Y-7.262
X45.53 Y-7.005
G3 X45.28 Y-7.129 I-0.092 J-0.129
G1 Y-7.621
X45.287 Y-7.771
X45.339 Y-7.912
X45.428 Y-8.033
X45.543 Y-8.13
X45.575 Y-8.146
X45.719 Y-8.184
X45.865 Y-8.162
X45.992 Y-8.085
X46.078 Y-7.964
X46.089 Y-7.92
X46.086 Y-7.874
X46.071 Y-7.831
X46.045 Y-7.794
X46.009 Y-7.767
X45.917 Y-7.715
X45.517 Y-7.489
G3 X45.28 Y-7.621 I-0.078 J-0.138
G1 Y-8.048
X45.287 Y-8.198
X45.36 Y-8.329
X45.381 Y-8.347
X45.501 Y-8.42
X45.64 Y-8.443
X45.777 Y-8.413
X45.893 Y-8.334
X45.972 Y-8.217
X45.981 Y-8.174
X45.979 Y-8.13
X45.965 Y-8.088
X45.94 Y-8.052
X45.906 Y-8.025
X45.866 Y-8.007
X45.481 Y-7.9
X45.434 Y-7.895
X45.387 Y-7.903
X45.345 Y-7.925
X45.311 Y-7.959
X45.289 Y-8.001
X45.28 Y-8.048
Y-8.343
Y-9.092
X45.282 Y-9.108
X45.285 Y-9.124
X45.29 Y-9.141
X45.302 Y-9.165
X45.313 Y-9.182
X45.328 Y-9.199
X45.348 Y-9.217
X45.367 Y-9.232
X45.384 Y-9.242
X45.4 Y-9.249
X45.416 Y-9.255
X45.433 Y-9.258
X45.449 Y-9.259
X45.466
X45.482 Y-9.257
X45.499 Y-9.254
X45.515 Y-9.248
X45.531 Y-9.241
X45.548 Y-9.23
X45.564 Y-9.217
X45.578 Y-9.202
X45.589 Y-9.187
X45.598 Y-9.172
X45.605 Y-9.157
X45.8 Y-8.632
X45.853 Y-8.501
X45.963 Y-8.238
X46.073 Y-7.976
X46.252 Y-7.582
X46.318 Y-7.45
X46.371 Y-7.348
X46.387 Y-7.319
X46.485 Y-7.188
X46.615 Y-7.055
X46.68 Y-7.
X46.746 Y-6.951
X46.787 Y-6.925
X46.877 Y-6.877
X47.009 Y-6.816
X47.073 Y-6.794
X47.14 Y-6.774
X47.271 Y-6.737
X47.402 Y-6.704
X47.665 Y-6.643
X47.825 Y-6.606
X47.848 Y-6.601
X47.881 Y-6.59
X47.91 Y-6.571
X48.467 Y-6.12
X52.759 Y-2.647
X53.276 Y-2.228
X53.304 Y-2.2
X53.323 Y-2.165
X53.334 Y-2.126
X53.366 Y-1.804
X53.423 Y-1.411
X53.471 Y-1.148
X53.496 Y-1.017
X53.519 Y-0.869
X53.523 Y-0.719
X53.511 Y-0.569
X53.483 Y-0.414
X53.439 Y-0.249
X53.371 Y-0.054
X53.276 Y0.157
X53.156 Y0.378
X52.995 Y0.623
X52.799 Y0.876
X52.569 Y1.127
X52.314 Y1.365
X52.078 Y1.551
X52.008 Y1.595
X51.93 Y1.622
X51.848 Y1.631
X50.614
G3 X50.514 Y1.355 I0.006 J-0.159
G1 X50.817 Y1.081
X52.895 Y-0.79
X53.235 Y-1.096
G3 X53.496 Y-1.017 I0.106 J0.118
G1 X53.523 Y-0.885
X53.584 Y-0.623
X53.615 Y-0.491
X53.648 Y-0.36
X53.668 Y-0.288
X53.702 Y-0.142
X53.715 Y0.008
X53.707 Y0.157
X53.681 Y0.305
X53.642 Y0.45
X53.58 Y0.621
X53.502 Y0.791
X53.387 Y0.996
X53.243 Y1.211
X53.067 Y1.432
X52.991 Y1.514
X52.913 Y1.577
X52.821 Y1.617
X52.721 Y1.631
G3 X52.582 Y1.406 I0.006 J-0.159
G1 X52.781 Y0.977
X53.203 Y0.062
X53.373 Y-0.306
G3 X53.668 Y-0.288 I0.144 J0.067
G1 X53.705 Y-0.162
X53.727 Y-0.098
X53.788 Y0.034
X53.836 Y0.124
X53.862 Y0.165
X53.942 Y0.292
X53.976 Y0.438
X53.985 Y0.588
X53.974 Y0.737
X53.946 Y0.885
X53.905 Y1.029
X53.841 Y1.197
X53.767 Y1.355
X53.715 Y1.445
X53.632 Y1.544
X53.521 Y1.609
X53.394 Y1.631
X53.347 Y1.622
X53.305 Y1.6
X53.271 Y1.566
X53.249 Y1.524
X53.241 Y1.477
X53.246 Y1.43
X53.381 Y0.95
X53.467 Y0.642
X53.585 Y0.221
G3 X53.862 Y0.165 I0.153 J0.043
G1 X53.911 Y0.231
X53.967 Y0.298
X54.099 Y0.426
X54.206 Y0.53
X54.273 Y0.665
X54.31 Y0.81
X54.325 Y0.959
X54.32 Y1.109
X54.299 Y1.258
X54.258 Y1.403
X54.178 Y1.523
X54.058 Y1.603
X53.916 Y1.631
X53.874 Y1.624
X53.835 Y1.606
X53.803 Y1.578
X53.779 Y1.542
X53.766 Y1.502
X53.764 Y1.459
X53.805 Y0.979
X53.842 Y0.537
G3 X54.099 Y0.426 I0.158 J0.014
G1 X54.23 Y0.524
X54.295 Y0.559
X54.361 Y0.593
X54.492 Y0.667
X54.588 Y0.782
X54.655 Y0.916
X54.697 Y1.06
X54.712 Y1.209
X54.707 Y1.287
X54.671 Y1.421
X54.59 Y1.532
X54.473 Y1.605
X54.337 Y1.631
X54.291 Y1.623
X54.25 Y1.601
X54.217 Y1.569
X54.194 Y1.528
X54.184 Y1.483
X54.167 Y1.205
X54.137 Y0.748
G3 X54.361 Y0.593 I0.158 J-0.01
G1 X54.493 Y0.659
X54.729 Y0.767
X54.862 Y0.836
X54.962 Y0.947
X55.03 Y1.081
X55.065 Y1.227
X55.066 Y1.259
X55.038 Y1.401
X54.958 Y1.522
X54.837 Y1.603
X54.695 Y1.631
X54.649 Y1.623
X54.608 Y1.601
X54.574 Y1.569
X54.552 Y1.528
X54.542 Y1.482
X54.537 Y1.386
X54.509 Y0.922
G3 X54.729 Y0.767 I0.158 J-0.009
G1 X54.887 Y0.838
X55.09 Y0.924
X55.225 Y0.989
X55.317 Y1.107
X55.326 Y1.133
X55.349 Y1.273
X55.317 Y1.411
X55.236 Y1.527
X55.118 Y1.604
X54.979 Y1.631
X54.935 Y1.624
X54.896 Y1.605
X54.863 Y1.576
X54.84 Y1.539
X54.827 Y1.497
Y1.453
X54.876 Y1.053
X54.889 Y1.007
X54.915 Y0.967
X54.952 Y0.936
X54.996 Y0.918
X55.043 Y0.914
X55.09 Y0.924
X55.385 Y1.047
X55.453 Y1.079
X55.556 Y1.188
X55.572 Y1.344
X55.515 Y1.49
X55.396 Y1.594
X55.243 Y1.631
X55.194 Y1.624
X55.148 Y1.608
G3 X55.385 Y1.047 I0.131 J-0.275
G1 X55.476 Y1.084
X55.543 Y1.111
X55.583 Y1.126
X55.652 Y1.155
X55.764 Y1.255
X55.777 Y1.388
X55.728 Y1.512
X55.627 Y1.6
X55.497 Y1.631
X55.458 Y1.627
G3 X55.249 Y1.309 I0.043 J-0.256
X55.583 Y1.126 I0.252 J0.063
G1 X55.806 Y1.209
X55.875 Y1.238
X55.923 Y1.334
X55.924 Y1.442
X55.878 Y1.539
X55.795 Y1.607
X55.69 Y1.631
X55.658 Y1.626
X55.628 Y1.614
G3 X55.806 Y1.209 I0.107 J-0.195
G1 X55.937 Y1.258
X55.977 Y1.272
X56.004 Y1.283
X56.029 Y1.293
X56.071 Y1.401
X56.05 Y1.514
X55.972 Y1.6
X55.861 Y1.631
X55.835 Y1.627
X55.81 Y1.615
X55.791 Y1.597
G3 X56.004 Y1.283 I0.151 J-0.127
G1 X56.068 Y1.306
X56.083 Y1.313
X56.098 Y1.322
X56.113 Y1.333
X56.128 Y1.347
X56.141 Y1.363
X56.152 Y1.38
X56.159 Y1.396
X56.165 Y1.412
X56.168 Y1.429
X56.17 Y1.445
Y1.462
X56.169 Y1.478
X56.166 Y1.494
X56.16 Y1.511
X56.153 Y1.527
X56.143 Y1.544
X56.128 Y1.563
X56.11 Y1.583
X56.093 Y1.598
X56.076 Y1.609
X56.052 Y1.621
X56.035 Y1.626
X56.019 Y1.629
X56.003 Y1.631
X51.848
G3 X51.853 Y1.314 I0.006 J-0.159
G1 X51.854
X51.898 Y1.32
X51.938 Y1.338
X51.972 Y1.367
X51.987 Y1.403 Z7.026
X52.001 Y1.438 Z7.041
X52.013 Y1.467 Z7.065
Y1.472 Z7.07
X52.01 Y1.496 Z7.102
X52.008 Y1.51 Z7.139
X52.007 Y1.515 Z7.179
G0 Z12.77
X61.779 Y-29.423
Z10.27
G1 Z7.02 F51.
Y-29.461 F356.
X61.816 Y-29.453
X61.832 Y-29.42
X61.821 Y-29.384
X61.79 Y-29.363
X61.752 Y-29.366
X61.72 Y-29.385
X61.697 Y-29.415
X61.688 Y-29.451
X61.694 Y-29.488
X61.714 Y-29.52
X61.742 Y-29.545
X61.777 Y-29.559
X61.852 Y-29.565
X61.92 Y-29.535
X61.967 Y-29.476
X61.986 Y-29.403
X61.976 Y-29.329
X61.94 Y-29.263
X61.884 Y-29.213
X61.816 Y-29.183
X61.741 Y-29.175
X61.667 Y-29.188
X61.6 Y-29.221
X61.487 Y-29.32
X61.438 Y-29.462
X61.458 Y-29.61
X61.538 Y-29.737
X61.659 Y-29.827
X61.803 Y-29.868
X61.952 Y-29.857
X62.09 Y-29.797
X62.203 Y-29.698
X62.28 Y-29.57
X62.316 Y-29.424
X62.308 Y-29.274
X62.259 Y-29.132
X62.175 Y-29.009
X62.06 Y-28.911
X61.925 Y-28.846
X61.778 Y-28.817
X61.628 Y-28.824
X61.483 Y-28.862
X61.351 Y-28.934
X61.237 Y-29.032
X61.149 Y-29.153
X61.088 Y-29.29
X61.059 Y-29.437
X61.06 Y-29.587
X61.092 Y-29.733
X61.152 Y-29.871
X61.238 Y-29.994
X61.345 Y-30.099
X61.471 Y-30.181
X61.609 Y-30.239
X61.755 Y-30.27
X61.905 Y-30.277
X62.054 Y-30.255
X62.196 Y-30.209
X62.329 Y-30.138
X62.448 Y-30.047
X62.55 Y-29.937
X62.632 Y-29.812
X62.693 Y-29.675
X62.73 Y-29.529
X62.745 Y-29.38
X62.735 Y-29.23
X62.703 Y-29.084
X62.649 Y-28.944
X62.574 Y-28.814
X62.48 Y-28.697
X62.37 Y-28.596
X62.246 Y-28.511
X62.111 Y-28.446
X61.968 Y-28.4
X61.82 Y-28.374
X61.67 Y-28.371
X61.521 Y-28.387
X61.375 Y-28.423
X61.236 Y-28.479
X61.106 Y-28.553
X60.987 Y-28.644
X60.88 Y-28.75
X60.789 Y-28.869
X60.715 Y-28.999
X60.657 Y-29.138
X60.619 Y-29.283
X60.598 Y-29.432
X60.597 Y-29.582
X60.615 Y-29.73
X60.651 Y-29.876
X60.705 Y-30.016
X60.776 Y-30.148
X60.862 Y-30.271
X60.962 Y-30.383
X61.075 Y-30.482
X61.198 Y-30.567
X61.331 Y-30.636
X61.471 Y-30.69
X61.616 Y-30.728
X61.765 Y-30.747
X61.915 Y-30.751
X62.064 Y-30.737
X62.211 Y-30.707
X62.354 Y-30.66
X62.49 Y-30.598
X62.619 Y-30.521
X62.739 Y-30.43
X62.848 Y-30.327
X62.944 Y-30.213
X63.029 Y-30.089
X63.099 Y-29.956
X63.155 Y-29.817
X63.196 Y-29.673
X63.221 Y-29.525
X63.23 Y-29.375
X63.225 Y-29.225
X63.203 Y-29.077
X63.166 Y-28.931
X63.115 Y-28.79
X63.05 Y-28.655
X62.971 Y-28.528
X62.88 Y-28.409
X62.777 Y-28.3
X62.663 Y-28.201
X62.541 Y-28.114
X62.411 Y-28.04
X62.274 Y-27.979
X62.132 Y-27.931
X61.986 Y-27.897
X61.837 Y-27.878
X61.687 Y-27.873
X61.537 Y-27.882
X61.389 Y-27.905
X61.244 Y-27.942
X61.102 Y-27.992
X60.966 Y-28.056
X60.837 Y-28.132
X60.715 Y-28.219
X60.602 Y-28.317
X60.498 Y-28.426
X60.405 Y-28.543
X60.322 Y-28.669
X60.252 Y-28.801
X60.194 Y-28.939
X60.148 Y-29.082
X60.116 Y-29.229
X60.097 Y-29.377
X60.09 Y-29.527
X60.097 Y-29.677
X60.118 Y-29.826
X60.151 Y-29.972
X60.197 Y-30.115
X60.255 Y-30.253
X60.326 Y-30.386
X60.406 Y-30.512
X60.498 Y-30.631
X60.599 Y-30.741
X60.71 Y-30.843
X60.828 Y-30.935
X60.954 Y-31.016
X61.087 Y-31.087
X61.224 Y-31.146
X61.367 Y-31.194
X61.512 Y-31.23
X61.661 Y-31.253
X61.81 Y-31.265
X61.96 Y-31.264
X62.111 Y-31.25
X62.259 Y-31.225
X62.404 Y-31.188
X62.546 Y-31.139
X62.687 Y-31.077
X62.819 Y-31.006
X62.945 Y-30.924
X63.066 Y-30.831
X63.181 Y-30.726
X63.284 Y-30.617
X63.378 Y-30.499
X63.464 Y-30.371
X63.542 Y-30.234
X63.606 Y-30.095
X63.658 Y-29.952
X63.7 Y-29.801
X63.731 Y-29.645
X63.748 Y-29.489
X63.753 Y-29.335
X63.745 Y-29.178
X63.724 Y-29.019
X63.691 Y-28.862
X63.645 Y-28.71
X63.632 Y-28.676
X63.618 Y-28.646
X63.602 Y-28.616
X63.584 Y-28.589
X63.388 Y-28.327
X63.29 Y-28.184
X63.186 Y-28.042
X63.088 Y-27.928
X62.981 Y-27.824
X62.864 Y-27.729
X62.74 Y-27.644
X62.61 Y-27.57
X62.471 Y-27.504
X62.321 Y-27.448
X62.164 Y-27.403
X62.007 Y-27.372
X61.848 Y-27.353
X61.683 Y-27.347
X61.516 Y-27.354
X61.348 Y-27.375
X61.182 Y-27.409
X61.019 Y-27.457
X60.863 Y-27.517
X60.711 Y-27.589
X60.66 Y-27.618
X60.603 Y-27.66
X60.554 Y-27.711
X60.516 Y-27.771
G3 X60.633 Y-27.995 I0.144 J-0.067
G1 X61.12 Y-28.078
X62.71 Y-28.351
X63.127 Y-28.423
G3 X63.29 Y-28.184 I0.027 J0.156
G1 X63.212 Y-28.065
X63.133 Y-27.933
X63.059 Y-27.802
X62.896 Y-27.48
X62.825 Y-27.347
X62.727 Y-27.234
X62.613 Y-27.137
X62.487 Y-27.054
X62.354 Y-26.986
X62.214 Y-26.931
X62.07 Y-26.889
X61.913 Y-26.856
X61.744 Y-26.835
X61.569 Y-26.828
X61.389 Y-26.835
X61.202 Y-26.857
X61.083 Y-26.881
X60.962 Y-26.928
X60.865 Y-27.014
X60.804 Y-27.128
X60.797 Y-27.171
X60.803 Y-27.214
X60.82 Y-27.254
X60.847 Y-27.288
X60.883 Y-27.313
X60.924 Y-27.328
X61.437 Y-27.434
X62.288 Y-27.609
X62.718 Y-27.698
G3 X62.896 Y-27.48 I0.032 J0.155
G1 X62.862 Y-27.408
X62.808 Y-27.277
X62.762 Y-27.145
X62.719 Y-27.014
X62.672 Y-26.872
X62.585 Y-26.749
X62.478 Y-26.644
X62.356 Y-26.557
X62.225 Y-26.484
X62.087 Y-26.425
X61.944 Y-26.38
X61.788 Y-26.345
X61.629 Y-26.323
X61.479 Y-26.314
X61.329 Y-26.319
X61.241 Y-26.33
X61.097 Y-26.379
X60.985 Y-26.482
X60.924 Y-26.621
X60.923 Y-26.668
X60.936 Y-26.713
X60.961 Y-26.752
X60.997 Y-26.783
X61.04 Y-26.802
X61.571 Y-26.943
X62.07 Y-27.075
X62.521 Y-27.195
G3 X62.719 Y-27.014 I0.041 J0.153
G1 X62.633 Y-26.61
X62.626 Y-26.574
X62.592 Y-26.428
X62.517 Y-26.298
X62.418 Y-26.185
X62.303 Y-26.088
X62.177 Y-26.008
X62.042 Y-25.942
X61.902 Y-25.89
X61.757 Y-25.851
X61.609 Y-25.827
X61.459 Y-25.819
X61.309 Y-25.828
X61.303 Y-25.83
X61.17 Y-25.887
X61.069 Y-25.991
X61.016 Y-26.125
X61.015 Y-26.169
X61.027 Y-26.211
X61.05 Y-26.248
X61.082 Y-26.278
X61.121 Y-26.298
X61.655 Y-26.483
X61.983 Y-26.597
X62.417 Y-26.747
X62.443 Y-26.754
X62.469 Y-26.756
X62.514 Y-26.75
X62.556 Y-26.731
X62.59 Y-26.701
X62.614 Y-26.663
X62.627 Y-26.619
X62.626 Y-26.574
X62.538 Y-26.095
X62.504 Y-25.949
X62.435 Y-25.816
X62.34 Y-25.7
X62.228 Y-25.6
X62.103 Y-25.517
X61.969 Y-25.449
X61.828 Y-25.398
X61.683 Y-25.362
X61.533 Y-25.348
X61.455 Y-25.35
X61.333 Y-25.375
X61.225 Y-25.439
X61.145 Y-25.536
X61.102 Y-25.653
Y-25.696
X61.113 Y-25.737
X61.134 Y-25.774
X61.164 Y-25.804
X61.201 Y-25.824
X61.734 Y-26.034
X61.901 Y-26.1
X62.323 Y-26.266
G3 X62.538 Y-26.095 I0.058 J0.148
G1 X62.442 Y-25.57
X62.407 Y-25.424
X62.332 Y-25.294
X62.232 Y-25.182
X62.116 Y-25.088
X61.987 Y-25.011
X61.848 Y-24.954
X61.703 Y-24.916
X61.69 Y-24.915
X61.617
X61.545 Y-24.93
X61.477 Y-24.958
G3 X61.468 Y-25.226 I0.081 J-0.137
G1 X61.851 Y-25.488
X62.195 Y-25.724
G3 X62.442 Y-25.57 I0.09 J0.131
G1 X62.418 Y-25.439
X62.404 Y-25.373
X62.384 Y-25.307
X62.371 Y-25.271
X62.321 Y-25.176
X62.283 Y-25.125
X62.239 Y-25.074
X62.21 Y-25.045
X62.108 Y-24.972
X62.046 Y-24.938
X61.984 Y-24.913
X61.911 Y-24.894
X61.845 Y-24.883
X61.714
X61.649 Y-24.894
X61.576 Y-24.913
X61.514 Y-24.938
X61.452 Y-24.972
X61.35 Y-25.045
X61.32 Y-25.074
X61.276 Y-25.125
X61.239 Y-25.176
X61.189 Y-25.271
X61.175 Y-25.307
X61.156 Y-25.373
X61.142 Y-25.439
X60.924 Y-26.62
X60.841 Y-27.014
X60.795 Y-27.154
X60.752 Y-27.277
X60.698 Y-27.408
X60.664 Y-27.479
X60.5 Y-27.802
X60.427 Y-27.933
X60.348 Y-28.065
X60.262 Y-28.196
X60.171 Y-28.327
X59.975 Y-28.59
X59.876 Y-28.719
X59.785 Y-28.838
X59.719 Y-28.973
X59.667 Y-29.114
X59.629 Y-29.259
X59.604 Y-29.407
X59.592 Y-29.556
Y-29.709
X59.605 Y-29.868
X59.632 Y-30.031
X59.672 Y-30.196
X59.726 Y-30.357
X59.793 Y-30.514
X59.874 Y-30.668
X59.969 Y-30.819
X60.076 Y-30.962
X60.196 Y-31.098
X60.328 Y-31.224
X60.402 Y-31.285
X60.473 Y-31.331
X60.553 Y-31.359
X60.637 Y-31.369
X62.705
X62.855 Y-31.361
X63.003 Y-31.334
X63.145 Y-31.286
X63.281 Y-31.222
X63.409 Y-31.144
X63.529 Y-31.055
X63.641 Y-30.955
X63.75 Y-30.84
X63.854 Y-30.712
X63.951 Y-30.571
X64.038 Y-30.419
X64.114 Y-30.257
X64.179 Y-30.084
X64.23 Y-29.904
X64.268 Y-29.717
X64.285 Y-29.573
X64.282 Y-29.463
X64.246 Y-29.358
X64.181 Y-29.269
X64.144 Y-29.244
X64.102 Y-29.229
X64.058 Y-29.227
X64.014 Y-29.237
X63.976 Y-29.258
X63.944 Y-29.29
X63.635 Y-29.705
X62.847 Y-30.763
X62.584 Y-31.115
G3 X62.705 Y-31.369 I0.127 J-0.095
G1 X63.421
X63.571 Y-31.361
X63.717 Y-31.328
X63.856 Y-31.271
X63.985 Y-31.195
X64.105 Y-31.105
X64.216 Y-31.003
X64.317 Y-30.893
X64.413 Y-30.768
X64.507 Y-30.623
X64.596 Y-30.459
X64.672 Y-30.289
X64.724 Y-30.139
X64.744 Y-30.064
X64.753 Y-29.928
X64.714 Y-29.799
X64.63 Y-29.692
X64.595 Y-29.67
X64.554 Y-29.658
X64.512 Y-29.657
X64.472 Y-29.667
X64.435 Y-29.687
X64.405 Y-29.716
X64.074 Y-30.135
X63.572 Y-30.77
X63.302 Y-31.112
G3 X63.421 Y-31.369 I0.125 J-0.098
G1 X64.078
X64.227 Y-31.361
X64.371 Y-31.317
X64.505 Y-31.25
X64.629 Y-31.165
X64.743 Y-31.068
X64.846 Y-30.959
X64.94 Y-30.842
X65.024 Y-30.718
X65.096 Y-30.586
X65.155 Y-30.448
X65.162 Y-30.424
X65.174 Y-30.277
X65.128 Y-30.136
X65.03 Y-30.025
X64.988 Y-30.003
X64.941 Y-29.996
X64.894 Y-30.002
X64.851 Y-30.022
X64.815 Y-30.054
X64.471 Y-30.479
X64.233 Y-30.773
X63.96 Y-31.11
G3 X64.078 Y-31.369 I0.123 J-0.1
G1 X64.643
X64.792 Y-31.361
X64.937 Y-31.321
X65.072 Y-31.256
X65.195 Y-31.171
X65.307 Y-31.071
X65.406 Y-30.958
X65.487 Y-30.832
X65.519 Y-30.764
X65.553 Y-30.64
X65.543 Y-30.512
X65.49 Y-30.395
X65.399 Y-30.303
X65.358 Y-30.284
X65.313 Y-30.277
X65.268 Y-30.283
X65.226 Y-30.302
X65.191 Y-30.332
X64.83 Y-30.754
X64.807 Y-30.781
X64.528 Y-31.107
G3 X64.643 Y-31.369 I0.121 J-0.103
G1 X65.2
X65.35 Y-31.361
X65.493 Y-31.317
X65.624 Y-31.244
X65.738 Y-31.146
X65.831 Y-31.029
X65.844 Y-31.004
X65.884 Y-30.875
X65.874 Y-30.741
X65.818 Y-30.619
X65.721 Y-30.525
X65.679 Y-30.507
X65.633 Y-30.502
X65.588 Y-30.51
X65.546 Y-30.53
X65.513 Y-30.562
X65.35 Y-30.769
X65.081 Y-31.112
G3 X65.2 Y-31.369 I0.125 J-0.098
G1 X65.693
X65.843 Y-31.361
X65.98 Y-31.3
X66.008 Y-31.277
X66.095 Y-31.169
X66.136 Y-31.037
X66.126 Y-30.898
X66.066 Y-30.773
X65.964 Y-30.679
X65.924 Y-30.663
X65.88 Y-30.658
X65.838 Y-30.665
X65.798 Y-30.684
X65.765 Y-30.712
X65.742 Y-30.749
X65.555 Y-31.142
G3 X65.693 Y-31.369 I0.143 J-0.068
G1 X66.047
X66.122 Y-31.365
X66.262 Y-31.311
X66.335 Y-31.192
X66.349 Y-31.052
X66.299 Y-30.921
X66.198 Y-30.825
X66.135 Y-30.799
G3 X65.77 Y-31.035 I-0.078 J-0.28
X66.047 Y-31.369 I0.287 J-0.044
G1 X66.283
X66.358 Y-31.365
X66.46 Y-31.28
X66.502 Y-31.154
X66.472 Y-31.025
X66.38 Y-30.931
X66.33 Y-30.913
X66.277 Y-30.909
G3 X66.283 Y-31.369 I0.014 J-0.23
G1 X66.441
X66.481
X66.508
X66.534 Y-31.368
X66.615 Y-31.29
X66.642 Y-31.181
X66.608 Y-31.074
X66.522 Y-31.001
X66.489 Y-30.995
X66.457 Y-30.999
G3 X66.508 Y-31.369 I0.058 J-0.18
G1 X66.572
X66.592 Y-31.367
X66.612 Y-31.364
X66.632 Y-31.357
X66.652 Y-31.347
X66.665 Y-31.339
X66.678 Y-31.328
X66.692 Y-31.313
X66.704 Y-31.298
X66.715 Y-31.277
X66.723 Y-31.257
X66.728 Y-31.236
X66.73 Y-31.216
Y-31.189
X66.726 Y-31.163
X66.723 Y-31.149
X66.718 Y-31.136
X66.712 Y-31.123
X66.704 Y-31.11
X66.694 Y-31.097
X66.683 Y-31.084
X66.669 Y-31.072
X66.655 Y-31.063
X66.628 Y-31.049
X66.441 Y-30.965
X66.31 Y-30.891
X66.178 Y-30.813
X65.772 Y-30.559
X65.576 Y-30.428
X65.39 Y-30.297
X65.215 Y-30.165
X64.997 Y-29.999
X64.865 Y-29.893
X64.72 Y-29.771
X64.571 Y-29.64
X64.471 Y-29.55
X64.288 Y-29.378
X64.078 Y-29.165
X63.911 Y-28.984
X63.815 Y-28.875
X63.684 Y-28.719
X63.584 Y-28.589
X63.547 Y-28.556
X63.502 Y-28.535
X63.453 Y-28.529
X62.817 Y-28.555
X60.646 Y-28.641
X59.987 Y-28.667
X59.946 Y-28.674
X59.908 Y-28.692
X59.876 Y-28.719
X59.745 Y-28.875
X59.648 Y-28.984
X59.482 Y-29.165
X59.438 Y-29.21
X59.338 Y-29.322
X59.263 Y-29.452
X59.211 Y-29.592
X59.178 Y-29.738
X59.161 Y-29.888
X59.16 Y-30.038
X59.171 Y-30.187
X59.197 Y-30.343
X59.238 Y-30.509
X59.295 Y-30.679
X59.367 Y-30.847
X59.457 Y-31.018
X59.565 Y-31.188
X59.59 Y-31.221
X59.672 Y-31.301
X59.773 Y-31.351
X59.886 Y-31.369
X59.93 Y-31.361
X59.971 Y-31.341
X60.004 Y-31.31
X60.027 Y-31.271
X60.038 Y-31.228
X60.037 Y-31.183
X59.947 Y-30.677
X59.78 Y-29.735
X59.703 Y-29.298
G3 X59.438 Y-29.21 I-0.156 J-0.028
G1 X59.271 Y-29.378
X59.088 Y-29.55
X59.033 Y-29.6
X58.927 Y-29.705
X58.848 Y-29.833
X58.794 Y-29.973
X58.761 Y-30.119
X58.746 Y-30.269
Y-30.419
X58.76 Y-30.568
X58.788 Y-30.722
X58.832 Y-30.892
X58.882 Y-31.033
X58.943 Y-31.17
X58.948 Y-31.179
X59.031 Y-31.28
X59.143 Y-31.346
X59.272 Y-31.369
X59.314 Y-31.362
X59.353 Y-31.343
X59.385 Y-31.315
X59.409 Y-31.28
X59.422 Y-31.239
X59.424 Y-31.196
X59.378 Y-30.671
X59.332 Y-30.145
X59.293 Y-29.708
G3 X59.033 Y-29.6 I-0.158 J-0.014
G1 X58.839 Y-29.771
X58.682 Y-29.903
X58.646 Y-29.932
X58.534 Y-30.032
X58.45 Y-30.156
X58.39 Y-30.294
X58.353 Y-30.439
X58.334 Y-30.587
X58.331 Y-30.737
X58.342 Y-30.887
X58.371 Y-31.034
X58.394 Y-31.11
X58.471 Y-31.245
X58.596 Y-31.336
X58.748 Y-31.369
X58.795 Y-31.36
X58.838 Y-31.337
X58.872 Y-31.302
X58.894 Y-31.258
X58.901 Y-31.21
Y-30.669
Y-30.493
X58.9 Y-30.059
G3 X58.646 Y-29.932 I-0.159 J0.
G1 X58.563 Y-29.999
X58.3 Y-30.199
X58.228 Y-30.253
X58.113 Y-30.348
X58.029 Y-30.473
X57.971 Y-30.611
X57.935 Y-30.757
X57.923 Y-30.906
X57.933 Y-31.056
X57.939 Y-31.083
X58.011 Y-31.231
X58.14 Y-31.333
X58.3 Y-31.369
X58.347 Y-31.36
X58.389 Y-31.338
X58.422 Y-31.304
X58.444 Y-31.262
X58.453 Y-31.215
X58.465 Y-30.822
X58.478 Y-30.388
G3 X58.228 Y-30.253 I-0.159 J0.005
G1 X58.169 Y-30.297
X57.984 Y-30.428
X57.841 Y-30.524
X57.721 Y-30.613
X57.635 Y-30.736
X57.583 Y-30.877
X57.563 Y-31.025
X57.564 Y-31.031
X57.6 Y-31.162
X57.682 Y-31.272
X57.798 Y-31.344
X57.933 Y-31.369
X57.98 Y-31.36
X58.023 Y-31.336
X58.057 Y-31.301
X58.079 Y-31.258
X58.086 Y-31.209
X58.085 Y-31.107
X58.083 Y-30.658
G3 X57.841 Y-30.524 I-0.159 J-0.001
G1 X57.775 Y-30.567
X57.366 Y-30.822
X57.25 Y-30.891
X57.119 Y-30.965
X56.932 Y-31.049
X56.904 Y-31.063
X56.891 Y-31.072
X56.877 Y-31.084
X56.865 Y-31.097
X56.856 Y-31.11
X56.848 Y-31.123
X56.842 Y-31.136
X56.837 Y-31.149
X56.833 Y-31.163
X56.83 Y-31.189
Y-31.216
X56.832 Y-31.236
X56.837 Y-31.257
X56.844 Y-31.277
X56.856 Y-31.298
X56.867 Y-31.313
X56.882 Y-31.328
X56.895 Y-31.339
X56.908 Y-31.347
X56.928 Y-31.357
X56.948 Y-31.364
X56.968 Y-31.367
X56.987 Y-31.369
X60.637
G3 X60.631 Y-31.051 I-0.006 J0.159
G1 X60.587 Y-31.058
X60.547 Y-31.076
X60.513 Y-31.104
X60.498 Y-31.141 Z7.026
X60.484 Y-31.176 Z7.041
X60.472 Y-31.205 Z7.065
Y-31.21 Z7.07
X60.475 Y-31.233 Z7.102
X60.477 Y-31.248 Z7.139
X60.478 Y-31.253 Z7.179
G0 Z12.77
X61.78 Y-0.315
Z10.27
G1 Z7.02 F51.
X61.811 Y-0.336 F356.
X61.826 Y-0.302
X61.807 Y-0.269
X61.771 Y-0.258
X61.737 Y-0.272
X61.718 Y-0.304
X61.715 Y-0.342
X61.727 Y-0.377
X61.751 Y-0.406
X61.785 Y-0.422
X61.823 Y-0.423
X61.859 Y-0.414
X61.891 Y-0.394
X61.938 Y-0.336
X61.952 Y-0.262
X61.93 Y-0.19
X61.881 Y-0.134
X61.815 Y-0.099
X61.74 Y-0.091
X61.667 Y-0.109
X61.603 Y-0.148
X61.554 Y-0.205
X61.523 Y-0.273
X61.511 Y-0.347
X61.529 Y-0.496
X61.618 Y-0.617
X61.752 Y-0.685
X61.901 Y-0.691
X62.044 Y-0.643
X62.159 Y-0.548
X62.235 Y-0.419
X62.265 Y-0.272
X62.247 Y-0.123
X62.186 Y0.014
X62.086 Y0.126
X61.958 Y0.205
X61.814 Y0.246
X61.664
X61.519 Y0.208
X61.389 Y0.133
X61.281 Y0.029
X61.202 Y-0.098
X61.15 Y-0.239
X61.134 Y-0.388
X61.15 Y-0.537
X61.199 Y-0.679
X61.277 Y-0.807
X61.381 Y-0.915
X61.505 Y-1.
X61.644 Y-1.056
X61.791 Y-1.086
X61.941 Y-1.084
X62.089 Y-1.056
X62.228 Y-0.999
X62.354 Y-0.919
X62.463 Y-0.816
X62.554 Y-0.696
X62.62 Y-0.562
X62.664 Y-0.418
X62.681 Y-0.269
X62.674 Y-0.12
X62.641 Y0.027
X62.585 Y0.166
X62.507 Y0.294
X62.408 Y0.407
X62.294 Y0.504
X62.165 Y0.581
X62.027 Y0.639
X61.881 Y0.673
X61.731 Y0.685
X61.582 Y0.675
X61.435 Y0.642
X61.295 Y0.588
X61.165 Y0.514
X61.046 Y0.422
X60.941 Y0.315
X60.852 Y0.194
X60.781 Y0.063
X60.728 Y-0.078
X60.695 Y-0.224
X60.681 Y-0.374
X60.689 Y-0.523
X60.715 Y-0.671
X60.761 Y-0.814
X60.826 Y-0.949
X60.907 Y-1.075
X61.005 Y-1.189
X61.115 Y-1.291
X61.238 Y-1.377
X61.371 Y-1.447
X61.511 Y-1.5
X61.657 Y-1.535
X61.806 Y-1.552
X61.956
X62.105 Y-1.533
X62.25 Y-1.496
X62.39 Y-1.443
X62.523 Y-1.373
X62.647 Y-1.289
X62.76 Y-1.19
X62.861 Y-1.079
X62.95 Y-0.958
X63.023 Y-0.828
X63.081 Y-0.689
X63.124 Y-0.546
X63.151 Y-0.398
X63.161 Y-0.248
X63.154 Y-0.098
X63.131 Y0.05
X63.092 Y0.195
X63.038 Y0.335
X62.969 Y0.468
X62.886 Y0.593
X62.791 Y0.709
X62.684 Y0.813
X62.566 Y0.906
X62.44 Y0.987
X62.305 Y1.054
X62.165 Y1.106
X62.02 Y1.144
X61.871 Y1.167
X61.721 Y1.175
X61.572 Y1.168
X61.423 Y1.145
X61.278 Y1.108
X61.137 Y1.056
X61.002 Y0.992
X60.874 Y0.914
X60.754 Y0.824
X60.643 Y0.723
X60.542 Y0.611
X60.453 Y0.491
X60.375 Y0.363
X60.309 Y0.228
X60.257 Y0.087
X60.218 Y-0.058
X60.193 Y-0.205
X60.182 Y-0.355
X60.184 Y-0.505
X60.201 Y-0.654
X60.231 Y-0.801
X60.275 Y-0.945
X60.331 Y-1.084
X60.4 Y-1.217
X60.481 Y-1.343
X60.572 Y-1.462
X60.674 Y-1.572
X60.785 Y-1.673
X60.905 Y-1.763
X61.032 Y-1.842
X61.166 Y-1.91
X61.306 Y-1.966
X61.449 Y-2.009
X61.596 Y-2.04
X61.745 Y-2.058
X61.895 Y-2.063
X62.045 Y-2.055
X62.193 Y-2.035
X62.339 Y-2.002
X62.483 Y-1.957
X62.621 Y-1.899
X62.754 Y-1.83
X62.882 Y-1.751
X63.002 Y-1.661
X63.114 Y-1.562
X63.218 Y-1.453
X63.312 Y-1.337
X63.397 Y-1.213
X63.471 Y-1.081
X63.535 Y-0.945
X63.587 Y-0.804
X63.627 Y-0.66
X63.656 Y-0.509
X63.673 Y-0.36
X63.678 Y-0.21
X63.67 Y-0.057
X63.649 Y0.097
X63.618 Y0.244
X63.574 Y0.388
X63.518 Y0.532
X63.449 Y0.674
X63.371 Y0.806
X63.284 Y0.93
X63.184 Y1.051
X63.072 Y1.164
X62.954 Y1.267
X62.83 Y1.359
X62.696 Y1.442
X62.554 Y1.515
X62.405 Y1.577
X62.294 Y1.613
X62.257 Y1.623
X62.218 Y1.629
X62.18 Y1.631
X61.583
X61.395 Y1.622
X61.246 Y1.602
X61.1 Y1.569
X60.957 Y1.524
X60.816 Y1.465
X60.679 Y1.395
X60.55 Y1.316
X60.423 Y1.223
X60.301 Y1.117
X60.186 Y1.
X60.081 Y0.873
X59.986 Y0.74
X59.902 Y0.599
X59.829 Y0.449
X59.767 Y0.291
X59.717 Y0.126
X59.68 Y-0.042
X59.658 Y-0.21
X59.649 Y-0.379
X59.653 Y-0.55
X59.666 Y-0.672
X59.681 Y-0.744
X59.71 Y-0.811
X59.752 Y-0.871
X59.876 Y-1.019
X59.975 Y-1.148
X60.171 Y-1.411
X60.27 Y-1.553
X60.348 Y-1.673
X60.427 Y-1.804
X60.449 Y-1.844
X60.529 Y-1.971
X60.627 Y-2.085
X60.737 Y-2.187
X60.857 Y-2.277
X60.985 Y-2.355
X61.119 Y-2.421
X61.262 Y-2.477
X61.414 Y-2.524
X61.571 Y-2.558
X61.733 Y-2.579
X61.902 Y-2.588
X62.075 Y-2.583
X62.249 Y-2.564
X62.425 Y-2.531
X62.599 Y-2.483
X62.686 Y-2.451
X62.771 Y-2.407
X62.842 Y-2.342
X62.894 Y-2.262
X62.906 Y-2.216
X62.904 Y-2.169
X62.889 Y-2.125
X62.861 Y-2.087
X62.824 Y-2.059
X62.779 Y-2.043
X62.286 Y-1.945
X61.043 Y-1.699
X60.621 Y-1.616
G3 X60.449 Y-1.844 I-0.031 J-0.156
G1 X60.5 Y-1.936
X60.664 Y-2.258
X60.698 Y-2.33
X60.728 Y-2.402
X60.792 Y-2.537
X60.879 Y-2.659
X60.987 Y-2.764
X61.108 Y-2.853
X61.238 Y-2.926
X61.376 Y-2.986
X61.519 Y-3.032
X61.671 Y-3.068
X61.837 Y-3.093
X62.008 Y-3.105
X62.19 Y-3.103
X62.344 Y-3.088
X62.406 Y-3.078
X62.542 Y-3.025
X62.647 Y-2.923
X62.705 Y-2.789
X62.706 Y-2.742
X62.693 Y-2.696
X62.667 Y-2.656
X62.63 Y-2.626
X62.587 Y-2.608
X62.056 Y-2.476
X61.342 Y-2.298
X60.914 Y-2.192
G3 X60.728 Y-2.402 I-0.038 J-0.154
G1 X60.752 Y-2.461
X60.798 Y-2.592
X60.841 Y-2.724
X60.869 Y-2.855
X60.907 Y-3.
X60.983 Y-3.129
X61.083 Y-3.241
X61.199 Y-3.337
X61.326 Y-3.416
X61.461 Y-3.481
X61.602 Y-3.533
X61.748 Y-3.572
X61.895 Y-3.599
X62.044 Y-3.614
X62.194 Y-3.613
X62.278 Y-3.603
X62.426 Y-3.553
X62.541 Y-3.446
X62.601 Y-3.302
Y-3.257
X62.589 Y-3.215
X62.565 Y-3.177
X62.532 Y-3.147
X62.492 Y-3.128
X61.957 Y-2.957
X61.511 Y-2.816
X61.073 Y-2.676
G3 X60.869 Y-2.855 I-0.048 J-0.151
G1 X60.926 Y-3.127
X60.962 Y-3.321
X60.997 Y-3.467
X61.064 Y-3.601
X61.158 Y-3.718
X61.269 Y-3.819
X61.393 Y-3.904
X61.526 Y-3.973
X61.665 Y-4.028
X61.809 Y-4.069
X61.958 Y-4.093
X62.107 Y-4.1
X62.177 Y-4.094
X62.33 Y-4.046
X62.449 Y-3.939
X62.511 Y-3.792
Y-3.749
X62.501 Y-3.707
X62.479 Y-3.67
X62.448 Y-3.641
X62.411 Y-3.62
X61.877 Y-3.417
X61.601 Y-3.311
X61.176 Y-3.149
G3 X60.962 Y-3.321 I-0.057 J-0.148
G1 X61.058 Y-3.841
X61.092 Y-3.987
X61.163 Y-4.119
X61.26 Y-4.234
X61.373 Y-4.332
X61.499 Y-4.413
X61.634 Y-4.478
X61.777 Y-4.526
X61.924 Y-4.552
X62.074 Y-4.56
X62.102 Y-4.557
X62.25 Y-4.508
X62.365 Y-4.401
X62.425 Y-4.257
X62.426 Y-4.214
X62.415 Y-4.173
X62.394 Y-4.136
X62.364 Y-4.106
X62.327 Y-4.086
X61.795 Y-3.876
X61.694 Y-3.836
X61.273 Y-3.67
G3 X61.058 Y-3.841 I-0.058 J-0.148
G1 X61.142 Y-4.299
X61.156 Y-4.365
X61.175 Y-4.43
X61.189 Y-4.466
X61.239 Y-4.562
X61.276 Y-4.613
X61.32 Y-4.664
X61.35 Y-4.693
X61.452 Y-4.766
X61.514 Y-4.799
X61.576 Y-4.824
X61.649 Y-4.844
X61.714 Y-4.855
X61.845
X61.911 Y-4.844
X61.984 Y-4.824
X62.046 Y-4.799
X62.108 Y-4.766
X62.21 Y-4.693
X62.239 Y-4.663
X62.283 Y-4.613
X62.321 Y-4.562
X62.371 Y-4.466
X62.384 Y-4.43
X62.404 Y-4.365
X62.418 Y-4.299
X62.635 Y-3.117
X62.719 Y-2.724
X62.765 Y-2.584
X62.808 Y-2.461
X62.862 Y-2.33
X62.896 Y-2.258
X63.059 Y-1.936
X63.133 Y-1.804
X63.212 Y-1.673
X63.297 Y-1.542
X63.388 Y-1.411
X63.584 Y-1.148
X63.685 Y-1.017
X63.815 Y-0.863
X63.868 Y-0.803
X63.962 Y-0.686
X64.032 Y-0.553
X64.083 Y-0.412
X64.117 Y-0.266
X64.137 Y-0.118
X64.142 Y0.032
X64.134 Y0.182
X64.112 Y0.338
X64.077 Y0.499
X64.027 Y0.663
X63.962 Y0.827
X63.882 Y0.989
X63.788 Y1.147
X63.68 Y1.299
X63.558 Y1.445
X63.483 Y1.521
X63.406 Y1.581
X63.316 Y1.618
X63.219 Y1.631
X63.173 Y1.623
X63.132 Y1.601
X63.098 Y1.568
X63.076 Y1.527
X63.066 Y1.481
X63.07 Y1.435
X63.19 Y0.946
X63.493 Y-0.299
X63.598 Y-0.732
G3 X63.868 Y-0.803 I0.154 J0.038
G1 X63.946 Y-0.716
X64.078 Y-0.573
X64.288 Y-0.36
X64.392 Y-0.252
X64.466 Y-0.121
X64.516 Y0.02
X64.547 Y0.167
X64.561 Y0.316
X64.559 Y0.466
X64.543 Y0.615
X64.513 Y0.773
X64.47 Y0.933
X64.409 Y1.102
X64.33 Y1.277
X64.245 Y1.43
X64.221 Y1.466
X64.139 Y1.554
X64.032 Y1.611
X63.913 Y1.631
X63.869 Y1.623
X63.829 Y1.604
X63.796 Y1.574
X63.773 Y1.536
X63.761 Y1.493
Y1.448
X63.84 Y0.937
X63.958 Y0.175
X64.027 Y-0.265
G3 X64.288 Y-0.36 I0.157 J0.024
G1 X64.471 Y-0.187
X64.603 Y-0.07
X64.667 Y-0.013
X64.775 Y0.092
X64.858 Y0.217
X64.915 Y0.355
X64.951 Y0.501
X64.968 Y0.65
X64.969 Y0.8
X64.956 Y0.95
X64.93 Y1.103
X64.892 Y1.248
X64.841 Y1.389
X64.827 Y1.419
X64.745 Y1.531
X64.628 Y1.605
X64.492 Y1.631
X64.443 Y1.621
X64.399 Y1.597
X64.365 Y1.56
X64.344 Y1.514
X64.339 Y1.464
X64.366 Y0.932
X64.386 Y0.536
X64.408 Y0.102
G3 X64.667 Y-0.013 I0.159 J0.008
G1 X64.734 Y0.045
X64.877 Y0.165
X64.997 Y0.262
X65.068 Y0.316
X65.183 Y0.413
X65.267 Y0.537
X65.327 Y0.674
X65.364 Y0.82
X65.383 Y0.968
X65.385 Y1.118
X65.367 Y1.267
X65.348 Y1.349
X65.275 Y1.495
X65.147 Y1.595
X64.988 Y1.631
X64.94 Y1.622
X64.898 Y1.6
X64.864 Y1.565
X64.843 Y1.522
X64.835 Y1.475
X64.826 Y0.931
X64.825 Y0.884
X64.818 Y0.448
G3 X65.068 Y0.316 I0.159 J-0.003
G1 X65.259 Y0.461
X65.391 Y0.559
X65.463 Y0.611
X65.58 Y0.704
X65.67 Y0.824
X65.732 Y0.961
X65.767 Y1.106
X65.776 Y1.256
X65.771 Y1.303
X65.732 Y1.431
X65.649 Y1.537
X65.535 Y1.607
X65.403 Y1.631
X65.356 Y1.623
X65.315 Y1.601
X65.281 Y1.567
X65.259 Y1.526
X65.25 Y1.48
X65.236 Y1.186
X65.217 Y0.75
G3 X65.463 Y0.611 I0.159 J-0.007
G1 X65.576 Y0.69
X65.784 Y0.83
X65.824 Y0.854
X65.947 Y0.94
X66.039 Y1.059
X66.094 Y1.198
X66.096 Y1.224
X66.079 Y1.377
X66.002 Y1.509
X65.878 Y1.599
X65.728 Y1.631
X65.679 Y1.622
X65.636 Y1.598
X65.602 Y1.562
X65.581 Y1.517
X65.574 Y1.469
X65.575 Y1.445
X65.586 Y0.988
G3 X65.824 Y0.854 I0.159 J0.004
G1 X66.152 Y1.058
X66.275 Y1.144
X66.312 Y1.275
X66.293 Y1.409
X66.222 Y1.525
X66.112 Y1.604
X65.979 Y1.631
X65.928 Y1.625
X65.879 Y1.61
X65.834 Y1.587
G3 X66.152 Y1.058 I0.164 J-0.261
G1 X66.193 Y1.084
X66.343 Y1.172
X66.406 Y1.212
X66.503 Y1.326
X66.5 Y1.438
X66.45 Y1.538
X66.362 Y1.607
X66.253 Y1.631
X66.183 Y1.623
G3 X66.002 Y1.305 I0.046 J-0.237
X66.343 Y1.172 I0.228 J0.081
G1 X66.441 Y1.228
X66.546 Y1.274
X66.572 Y1.286
X66.603 Y1.3
X66.633 Y1.315
X66.659 Y1.422
X66.629 Y1.527
X66.551 Y1.603
X66.446 Y1.631
X66.417 Y1.626
X66.392 Y1.612
X66.372 Y1.591
G3 X66.603 Y1.3 I0.158 J-0.112
G1 X66.628 Y1.311
X66.655 Y1.325
X66.669 Y1.335
X66.683 Y1.347
X66.694 Y1.359
X66.704 Y1.372
X66.712 Y1.385
X66.718 Y1.398
X66.723 Y1.412
X66.726 Y1.425
X66.73 Y1.452
Y1.478
X66.728 Y1.499
X66.723 Y1.519
X66.715 Y1.54
X66.704 Y1.56
X66.692 Y1.575
X66.678 Y1.59
X66.665 Y1.601
X66.652 Y1.609
X66.632 Y1.619
X66.612 Y1.626
X66.592 Y1.63
X66.572 Y1.631
X62.18
G3 X62.031 Y1.416 I0. J-0.159
G1 X62.107 Y1.217
G3 X62.404 Y1.33 I0.148 J0.056
X62.336 Y1.41 I-0.148 J-0.056
X61.583 Y1.631 I-0.809 J-1.36
G1 X60.592
X60.442 Y1.624
X60.296 Y1.587
X60.158 Y1.529
X60.027 Y1.456
X59.904 Y1.37
X59.79 Y1.272
X59.684 Y1.164
X59.579 Y1.039
X59.478 Y0.897
X59.387 Y0.744
X59.306 Y0.579
X59.236 Y0.401
X59.179 Y0.213
X59.136 Y0.016
X59.132 Y-0.016
X59.134 Y-0.133
X59.173 Y-0.243
X59.245 Y-0.335
X59.281 Y-0.359
X59.323 Y-0.372
X59.367 Y-0.374
X59.409 Y-0.363
X59.447 Y-0.341
X59.478 Y-0.31
X59.786 Y0.111
X60.453 Y1.023
X60.714 Y1.379
G3 X60.592 Y1.631 I-0.128 J0.094
G1 X59.935
X59.785 Y1.624
X59.64 Y1.585
X59.504 Y1.523
X59.377 Y1.443
X59.259 Y1.349
X59.152 Y1.245
X59.052 Y1.129
X58.953 Y0.993
X58.862 Y0.846
X58.781 Y0.685
X58.724 Y0.547
X58.695 Y0.452
X58.679 Y0.309
X58.72 Y0.17
X58.811 Y0.058
X58.84 Y0.04
X58.873 Y0.028
X58.908 Y0.024
X58.955 Y0.031
X58.998 Y0.052
X59.033 Y0.084
X59.366 Y0.506
X59.784 Y1.033
X60.054 Y1.374
G3 X59.935 Y1.631 I-0.124 J0.099
G1 X59.351
X59.201 Y1.624
X59.055 Y1.588
X58.918 Y1.527
X58.792 Y1.446
X58.676 Y1.351
X58.57 Y1.245
X58.475 Y1.129
X58.391 Y1.004
X58.322 Y0.871
X58.295 Y0.802
X58.27 Y0.646
X58.313 Y0.493
X58.416 Y0.373
X58.458 Y0.352
X58.504 Y0.344
X58.55 Y0.35
X58.593 Y0.369
X58.628 Y0.399
X58.988 Y0.816
X59.185 Y1.044
X59.465 Y1.369
G3 X59.351 Y1.631 I-0.12 J0.104
G1 X58.753
X58.604 Y1.624
X58.459 Y1.583
X58.325 Y1.516
X58.202 Y1.43
X58.093 Y1.327
X58.002 Y1.208
X57.927 Y1.078
X57.923 Y1.066
X57.903 Y0.908
X57.95 Y0.757
X58.057 Y0.639
X58.098 Y0.62
X58.143 Y0.613
X58.189 Y0.619
X58.23 Y0.638
X58.265 Y0.668
X58.588 Y1.044
X58.868 Y1.369
G3 X58.753 Y1.631 I-0.12 J0.104
G1 X58.196
X58.046 Y1.624
X57.905 Y1.573
X57.778 Y1.493
X57.673 Y1.386
X57.652 Y1.353
X57.597 Y1.217
X57.6 Y1.071
X57.659 Y0.936
X57.766 Y0.836
X57.809 Y0.819
X57.856 Y0.815
X57.902 Y0.825
X57.943 Y0.849
X57.975 Y0.883
X58.067 Y1.016
X58.321 Y1.382
G3 X58.196 Y1.631 I-0.131 J0.09
G1 X56.987
X56.968 Y1.63
X56.948 Y1.626
X56.928 Y1.619
X56.908 Y1.609
X56.895 Y1.601
X56.882 Y1.59
X56.867 Y1.575
X56.856 Y1.56
X56.844 Y1.54
X56.837 Y1.519
X56.832 Y1.499
X56.83 Y1.478
Y1.452
X56.833 Y1.425
X56.837 Y1.412
X56.842 Y1.398
X56.848 Y1.385
X56.856 Y1.372
X56.865 Y1.359
X56.877 Y1.347
X56.891 Y1.335
X56.904 Y1.325
X56.932 Y1.311
X57.119 Y1.228
X57.25 Y1.153
X57.381 Y1.075
X57.787 Y0.822
X57.984 Y0.69
X58.169 Y0.559
X58.344 Y0.428
X58.563 Y0.262
X58.694 Y0.155
X58.839 Y0.034
X58.988 Y-0.098
X59.088 Y-0.187
X59.271 Y-0.36
X59.482 Y-0.573
X59.648 Y-0.754
X59.752 Y-0.871
G3 X59.987 Y-0.658 I0.118 J0.107
X59.874 Y-0.606 I-0.118 J-0.107
G1 X59.869
X59.831 Y-0.62 Z7.027
X59.797 Y-0.632 Z7.044
X59.767 Y-0.643 Z7.07
X59.751 Y-0.66 Z7.102
X59.741 Y-0.671 Z7.139
X59.738 Y-0.675 Z7.179
G0 Z12.77
X74.266 Y-2.383
Z10.27
G1 Z7.02 F51.
X74.303 F356.
X74.296 Y-2.346
X74.262 Y-2.33
X74.226 Y-2.341
X74.206 Y-2.373
X74.208 Y-2.41
X74.227 Y-2.442
X74.257 Y-2.465
X74.294 Y-2.474
X74.331 Y-2.468
X74.362 Y-2.448
X74.387 Y-2.42
X74.402 Y-2.385
X74.408 Y-2.311
X74.377 Y-2.242
X74.318 Y-2.196
X74.246 Y-2.177
X74.171 Y-2.186
X74.106 Y-2.222
X74.055 Y-2.278
X74.025 Y-2.347
X74.018 Y-2.421
X74.031 Y-2.495
X74.063 Y-2.563
X74.162 Y-2.675
X74.304 Y-2.724
X74.453 Y-2.704
X74.579 Y-2.624
X74.669 Y-2.504
X74.71 Y-2.359
X74.699 Y-2.21
X74.64 Y-2.072
X74.541 Y-1.959
X74.412 Y-1.882
X74.266 Y-1.846
X74.117 Y-1.854
X73.975 Y-1.903
X73.851 Y-1.988
X73.754 Y-2.102
X73.689 Y-2.237
X73.659 Y-2.384
X73.667 Y-2.534
X73.704 Y-2.679
X73.776 Y-2.811
X73.874 Y-2.925
X73.995 Y-3.013
X74.132 Y-3.074
X74.279 Y-3.104
X74.429 Y-3.103
X74.576 Y-3.07
X74.713 Y-3.011
X74.836 Y-2.924
X74.941 Y-2.817
X75.023 Y-2.692
X75.082 Y-2.554
X75.113 Y-2.407
X75.119 Y-2.257
X75.097 Y-2.109
X75.051 Y-1.966
X74.981 Y-1.833
X74.89 Y-1.714
X74.78 Y-1.612
X74.654 Y-1.53
X74.517 Y-1.469
X74.372 Y-1.432
X74.222 Y-1.417
X74.073 Y-1.427
X73.926 Y-1.459
X73.786 Y-1.513
X73.657 Y-1.589
X73.539 Y-1.682
X73.438 Y-1.793
X73.353 Y-1.916
X73.288 Y-2.052
X73.243 Y-2.195
X73.217 Y-2.342
X73.213 Y-2.492
X73.229 Y-2.641
X73.266 Y-2.787
X73.322 Y-2.926
X73.395 Y-3.057
X73.487 Y-3.175
X73.592 Y-3.282
X73.712 Y-3.373
X73.842 Y-3.448
X73.98 Y-3.505
X74.125 Y-3.544
X74.274 Y-3.564
X74.424 Y-3.565
X74.573 Y-3.547
X74.718 Y-3.511
X74.858 Y-3.457
X74.991 Y-3.387
X75.114 Y-3.301
X75.225 Y-3.2
X75.324 Y-3.088
X75.409 Y-2.964
X75.479 Y-2.831
X75.533 Y-2.691
X75.57 Y-2.546
X75.59 Y-2.397
X75.593 Y-2.247
X75.58 Y-2.098
X75.549 Y-1.951
X75.503 Y-1.808
X75.44 Y-1.672
X75.363 Y-1.543
X75.273 Y-1.424
X75.17 Y-1.315
X75.055 Y-1.218
X74.931 Y-1.133
X74.799 Y-1.063
X74.659 Y-1.008
X74.515 Y-0.966
X74.367 Y-0.941
X74.217 Y-0.932
X74.068 Y-0.937
X73.919 Y-0.959
X73.774 Y-0.996
X73.633 Y-1.047
X73.498 Y-1.113
X73.37 Y-1.192
X73.251 Y-1.283
X73.142 Y-1.385
X73.044 Y-1.499
X72.957 Y-1.621
X72.882 Y-1.751
X72.821 Y-1.888
X72.774 Y-2.031
X72.74 Y-2.177
X72.721 Y-2.326
X72.715 Y-2.475
X72.724 Y-2.625
X72.747 Y-2.773
X72.785 Y-2.919
X72.835 Y-3.06
X72.898 Y-3.196
X72.974 Y-3.325
X73.061 Y-3.447
X73.16 Y-3.561
X73.268 Y-3.664
X73.386 Y-3.758
X73.511 Y-3.84
X73.644 Y-3.91
X73.782 Y-3.968
X73.925 Y-4.014
X74.071 Y-4.047
X74.22 Y-4.066
X74.37 Y-4.072
X74.52 Y-4.065
X74.668 Y-4.044
X74.814 Y-4.011
X74.957 Y-3.965
X75.095 Y-3.907
X75.228 Y-3.837
X75.354 Y-3.756
X75.473 Y-3.664
X75.584 Y-3.563
X75.685 Y-3.452
X75.777 Y-3.334
X75.859 Y-3.208
X75.929 Y-3.076
X75.989 Y-2.938
X76.036 Y-2.796
X76.072 Y-2.65
X76.096 Y-2.502
X76.107 Y-2.352
X76.106 Y-2.202
X76.093 Y-2.052
X76.067 Y-1.903
X76.03 Y-1.758
X75.981 Y-1.616
X75.919 Y-1.475
X75.848 Y-1.343
X75.767 Y-1.217
X75.673 Y-1.097
X75.569 Y-0.981
X75.459 Y-0.878
X75.342 Y-0.785
X75.213 Y-0.698
X75.076 Y-0.621
X74.937 Y-0.557
X74.794 Y-0.504
X74.643 Y-0.462
X74.487 Y-0.432
X74.331 Y-0.414
X74.177 Y-0.41
X74.02 Y-0.417
X73.861 Y-0.438
X73.704 Y-0.472
X73.553 Y-0.517
X73.406 Y-0.574
X73.262 Y-0.644
X73.121 Y-0.727
X72.987 Y-0.821
X72.864 Y-0.923
X72.749 Y-1.035
X72.642 Y-1.158
X72.543 Y-1.292
X72.454 Y-1.435
X72.379 Y-1.58
X72.316 Y-1.73
X72.264 Y-1.889
X72.225 Y-2.052
X72.198 Y-2.22
X72.186 Y-2.39
X72.187 Y-2.559
X72.201 Y-2.725
X72.229 Y-2.891
X72.27 Y-3.057
X72.326 Y-3.22
X72.394 Y-3.379
X72.475 Y-3.532
X72.568 Y-3.678
X72.672 Y-3.814
X72.785 Y-3.942
X72.911 Y-4.062
X73.047 Y-4.172
X73.193 Y-4.272
X73.346 Y-4.36
X73.506 Y-4.436
X73.672 Y-4.498
X73.842 Y-4.547
X74.013 Y-4.582
X74.189 Y-4.603
X74.369 Y-4.61
X74.548 Y-4.602
X74.727 Y-4.58
X74.905 Y-4.544
X75.08 Y-4.493
X75.251 Y-4.428
X75.416 Y-4.35
X75.575 Y-4.258
X75.728 Y-4.153
X75.87 Y-4.037
X76.002 Y-3.91
X76.125 Y-3.771
X76.237 Y-3.623
X76.337 Y-3.466
X76.424 Y-3.301
X76.498 Y-3.127
X76.558 Y-2.949
X76.604 Y-2.765
X76.635 Y-2.578
X76.651 Y-2.388
Y-2.197
X76.636 Y-2.006
X76.606 Y-1.816
X76.561 Y-1.628
X76.5 Y-1.445
X76.425 Y-1.267
X76.335 Y-1.094
X76.232 Y-0.929
X76.116 Y-0.773
X75.987 Y-0.626
X75.845 Y-0.489
X75.693 Y-0.363
X75.532 Y-0.25
X75.361 Y-0.151
X75.182 Y-0.064
X74.995 Y0.008
X74.804 Y0.064
X74.609 Y0.106
X74.41 Y0.131
X74.208 Y0.141
X74.006 Y0.134
X73.806 Y0.111
X73.607 Y0.072
X73.411 Y0.017
X73.219 Y-0.054
X73.033 Y-0.141
X72.855 Y-0.241
X72.685 Y-0.357
X72.524 Y-0.486
X72.372 Y-0.629
X72.233 Y-0.784
X72.106 Y-0.949
X71.993 Y-1.124
X71.893 Y-1.309
X71.809 Y-1.502
X71.74 Y-1.702
X71.687 Y-1.908
X71.65 Y-2.117
X71.631 Y-2.328
X71.629 Y-2.541
X71.644 Y-2.755
X71.676 Y-2.968
X71.725 Y-3.178
X71.791 Y-3.384
X71.873 Y-3.584
X71.971 Y-3.776
X72.085 Y-3.961
X72.213 Y-4.136
X72.356 Y-4.302
X72.512 Y-4.456
X72.68 Y-4.597
X72.86 Y-4.725
X73.05 Y-4.838
X73.248 Y-4.935
X73.453 Y-5.017
X73.666 Y-5.081
X73.883 Y-5.129
X74.104 Y-5.159
X74.328 Y-5.172
X74.553 Y-5.166
X74.777 Y-5.142
X74.999 Y-5.101
X75.218 Y-5.041
X75.432 Y-4.964
X75.64 Y-4.869
X75.84 Y-4.758
X76.03 Y-4.632
X76.21 Y-4.49
X76.379 Y-4.333
X76.534 Y-4.164
X76.676 Y-3.981
X76.804 Y-3.788
X76.916 Y-3.584
X77.011 Y-3.371
X77.089 Y-3.151
X77.149 Y-2.924
X77.192 Y-2.692
X77.215 Y-2.458
X77.22 Y-2.222
X77.205 Y-1.985
X77.172 Y-1.75
X77.119 Y-1.518
X77.048 Y-1.29
X76.959 Y-1.068
X76.852 Y-0.853
X76.728 Y-0.648
X76.587 Y-0.452
X76.431 Y-0.268
X76.26 Y-0.097
X76.076 Y0.061
X75.879 Y0.203
X75.67 Y0.33
X75.452 Y0.439
X75.225 Y0.531
X74.991 Y0.605
X74.751 Y0.659
X74.507 Y0.695
X74.261 Y0.71
X74.014 Y0.706
X73.767 Y0.682
X73.522 Y0.638
X73.281 Y0.575
X73.045 Y0.492
X72.816 Y0.39
X72.596 Y0.27
X72.385 Y0.132
X72.185 Y-0.023
X71.998 Y-0.193
X71.825 Y-0.379
X71.667 Y-0.578
X71.525 Y-0.79
X71.4 Y-1.014
X71.293 Y-1.247
X71.206 Y-1.489
X71.137 Y-1.737
X71.089 Y-1.991
X71.061 Y-2.248
X71.054 Y-2.507
X71.068 Y-2.767
X71.102 Y-3.026
X71.158 Y-3.281
X71.233 Y-3.532
X71.329 Y-3.776
X71.444 Y-4.012
X71.579 Y-4.238
X71.731 Y-4.454
X71.9 Y-4.657
X72.086 Y-4.846
X72.287 Y-5.02
X72.502 Y-5.178
X72.728 Y-5.318
X72.966 Y-5.44
X73.213 Y-5.543
X73.468 Y-5.625
X73.73 Y-5.687
X73.996 Y-5.728
X74.266 Y-5.748
X74.537 Y-5.745
X74.808 Y-5.721
X75.077 Y-5.675
X75.341 Y-5.608
X75.6 Y-5.519
X75.852 Y-5.41
X76.094 Y-5.28
X76.325 Y-5.132
X76.545 Y-4.965
X76.75 Y-4.78
X76.941 Y-4.579
X77.115 Y-4.363
X77.272 Y-4.133
X77.41 Y-3.891
X77.528 Y-3.637
X77.626 Y-3.375
X77.703 Y-3.104
X77.758 Y-2.828
X77.791 Y-2.548
X77.801 Y-2.265
X77.788 Y-1.982
X77.753 Y-1.7
X77.695 Y-1.422
X77.614 Y-1.148
X77.512 Y-0.881
X77.389 Y-0.623
X77.244 Y-0.375
X77.08 Y-0.139
X76.898 Y0.084
X76.697 Y0.291
X76.48 Y0.483
X76.248 Y0.656
X76.003 Y0.811
X75.745 Y0.946
X75.477 Y1.06
X75.199 Y1.152
X74.915 Y1.222
X74.626 Y1.269
X74.333 Y1.292
X74.039
X73.745 Y1.268
X73.453 Y1.221
X73.165 Y1.15
X72.884 Y1.056
X72.61 Y0.94
X72.346 Y0.802
X72.093 Y0.642
X71.854 Y0.463
X71.629 Y0.264
X71.42 Y0.048
X71.229 Y-0.185
X71.057 Y-0.434
X70.905 Y-0.695
X70.774 Y-0.969
X70.665 Y-1.253
X70.58 Y-1.546
X70.518 Y-1.844
X70.48 Y-2.148
X70.466 Y-2.454
X70.477 Y-2.761
X70.513 Y-3.067
X70.574 Y-3.369
X70.658 Y-3.666
X70.766 Y-3.956
X70.898 Y-4.237
X71.052 Y-4.506
X71.227 Y-4.763
X71.423 Y-5.006
X71.638 Y-5.233
X71.871 Y-5.441
X72.12 Y-5.631
X72.384 Y-5.801
X72.662 Y-5.949
X72.951 Y-6.074
X73.249 Y-6.176
X73.556 Y-6.254
X73.868 Y-6.307
X74.185 Y-6.335
X74.503 Y-6.338
X74.822 Y-6.315
X75.138 Y-6.266
X75.449 Y-6.192
X75.755 Y-6.093
X76.051 Y-5.97
X76.338 Y-5.823
X76.612 Y-5.653
X76.872 Y-5.461
X77.117 Y-5.249
X77.344 Y-5.017
X77.552 Y-4.767
X77.74 Y-4.501
X77.906 Y-4.22
X78.05 Y-3.926
X78.169 Y-3.621
X78.264 Y-3.307
X78.271 Y-3.274
X78.276 Y-3.248
X78.279 Y-3.222
X78.28 Y-3.195
Y-1.804
X78.268 Y-1.575
X78.237 Y-1.335
X78.184 Y-1.089
X78.107 Y-0.83
X78.001 Y-0.559
X77.867 Y-0.283
X77.707 Y-0.011
X77.521 Y0.254
X77.312 Y0.506
X77.081 Y0.743
X76.83 Y0.962
X76.56 Y1.161
X76.274 Y1.339
X75.974 Y1.494
X75.714 Y1.602
X75.668 Y1.618
X75.62 Y1.628
X75.572 Y1.631
G3 X75.452 Y1.375 I0.006 J-0.159
G1 X75.72 Y1.03
X77.752 Y-1.583
X77.996 Y-1.896
G3 X78.28 Y-1.804 I0.125 J0.097
G1 Y-0.419
X78.272 Y-0.269
X78.248 Y-0.121
X78.209 Y0.023
X78.152 Y0.179
X78.072 Y0.353
X77.964 Y0.547
X77.831 Y0.746
X77.656 Y0.967
X77.443 Y1.196
X77.2 Y1.417
X77.025 Y1.553
X76.956 Y1.596
X76.879 Y1.622
X76.798 Y1.631
G3 X76.673 Y1.382 I0.006 J-0.159
G1 X76.928 Y1.017
X77.768 Y-0.186
X77.991 Y-0.505
G3 X78.28 Y-0.419 I0.13 J0.091
G1 Y0.5
X78.272 Y0.65
X78.246 Y0.797
X78.201 Y0.94
X78.142 Y1.078
X78.063 Y1.226
X77.961 Y1.385
X77.884 Y1.485
X77.803 Y1.564
X77.702 Y1.614
X77.59 Y1.631
G3 X77.456 Y1.397 I0.006 J-0.159
G1 X77.677 Y0.99
X77.804 Y0.756
X77.982 Y0.43
G3 X78.28 Y0.5 I0.139 J0.076
G1 Y1.288
Y1.32
Y1.347
X78.271 Y1.496
X78.268 Y1.505
X78.252 Y1.538
X78.233 Y1.568
X78.209 Y1.594
G3 X77.963 Y1.463 I-0.087 J-0.133
G1 X77.962 Y1.354
G3 X78.28 Y1.347 I0.159 J-0.001
G1 X78.279 Y1.478
X78.276 Y1.493
X78.272 Y1.508
X78.266 Y1.523
X78.258 Y1.539
X78.246 Y1.556
X78.23 Y1.574
X78.209 Y1.594
X78.187 Y1.609
X78.172 Y1.617
X78.157 Y1.623
X78.142 Y1.627
X78.127 Y1.63
X77.995 Y1.631
X73.269
X73.113 Y1.623
X72.94 Y1.601
X72.733 Y1.556
X72.525 Y1.494
X72.291 Y1.403
X72.04 Y1.281
X71.782 Y1.129
X71.527 Y0.95
X71.282 Y0.747
X71.048 Y0.518
X70.826 Y0.264
X70.622 Y-0.012
X70.439 Y-0.306
X70.279 Y-0.616
X70.144 Y-0.939
X70.113 Y-1.033
X70.099 Y-1.093
X70.095 Y-1.155
X70.101 Y-1.216
X70.137 Y-1.411
X70.193 Y-1.804
X70.233 Y-2.198
X70.242 Y-2.33
X70.257 Y-2.592
X70.262 Y-2.724
X70.264 Y-3.117
X70.245 Y-3.511
X70.241 Y-3.551
X70.234 Y-3.701
X70.247 Y-3.85
X70.272 Y-4.008
X70.319 Y-4.195
X70.387 Y-4.397
X70.479 Y-4.613
X70.606 Y-4.853
X70.765 Y-5.104
X70.95 Y-5.351
X71.162 Y-5.589
X71.404 Y-5.822
X71.673 Y-6.041
X71.963 Y-6.242
X72.272 Y-6.421
X72.32 Y-6.443
X72.391 Y-6.469
X72.466 Y-6.479
X72.541 Y-6.474
X72.612 Y-6.462
X72.743 Y-6.444
X73.006 Y-6.416
X73.137 Y-6.404
X73.531 Y-6.385
X73.925 Y-6.387
X74.056 Y-6.392
X74.319 Y-6.406
X74.45 Y-6.416
X74.844 Y-6.455
X75.238 Y-6.512
X75.346 Y-6.531
X75.494 Y-6.551
X75.644 Y-6.557
X75.794 Y-6.548
X75.962 Y-6.522
X76.136 Y-6.481
X76.343 Y-6.414
X76.569 Y-6.32
X76.8 Y-6.202
X77.052 Y-6.046
X77.311 Y-5.856
X77.567 Y-5.634
X77.813 Y-5.384
X78.042 Y-5.109
X78.212 Y-4.869
X78.249 Y-4.803
X78.272 Y-4.731
X78.28 Y-4.655
Y-3.195
G3 X78.001 Y-3.097 I-0.159 J-0.006
G1 X77.736 Y-3.404
X75.559 Y-5.926
X75.26 Y-6.273
G3 X75.346 Y-6.531 I0.12 J-0.104
G1 X75.632 Y-6.585
X75.763 Y-6.612
X76.026 Y-6.673
X76.197 Y-6.714
X76.344 Y-6.743
X76.494 Y-6.749
X76.643 Y-6.735
X76.791 Y-6.707
X76.946 Y-6.662
X77.118 Y-6.596
X77.313 Y-6.504
X77.516 Y-6.386
X77.748 Y-6.226
X77.992 Y-6.027
X78.166 Y-5.861
X78.228 Y-5.783
X78.267 Y-5.692
X78.28 Y-5.593
G3 X78.049 Y-5.457 I-0.159 J-0.006
G1 X77.634 Y-5.67
X76.531 Y-6.235
X76.169 Y-6.42
G3 X76.197 Y-6.714 I0.072 J-0.141
G1 X76.289 Y-6.737
X76.42 Y-6.774
X76.487 Y-6.794
X76.551 Y-6.816
X76.682 Y-6.877
X76.71 Y-6.891
X76.845 Y-6.956
X76.993 Y-6.983
X77.143 Y-6.987
X77.292 Y-6.971
X77.438 Y-6.938
X77.581 Y-6.894
X77.757 Y-6.823
X77.931 Y-6.736
X78.102 Y-6.632
X78.126 Y-6.615
X78.209 Y-6.533
X78.262 Y-6.429
X78.28 Y-6.314
G3 X78.072 Y-6.169 I-0.159 J-0.006
G1 X77.605 Y-6.321
X77.141 Y-6.473
X76.741 Y-6.603
G3 X76.71 Y-6.891 I0.049 J-0.151
G1 X76.772 Y-6.925
X76.814 Y-6.951
X76.879 Y-7.
X76.947 Y-7.056
X76.986 Y-7.096
X77.095 Y-7.198
X77.23 Y-7.264
X77.376 Y-7.299
X77.526 Y-7.311
X77.675 Y-7.304
X77.824 Y-7.28
X77.969 Y-7.243
X78.042 Y-7.215
X78.167 Y-7.135
X78.25 Y-7.013
X78.28 Y-6.869
X78.272 Y-6.826
X78.254 Y-6.787
X78.225 Y-6.754
X78.188 Y-6.73
X78.147 Y-6.718
X78.103 Y-6.717
X77.583 Y-6.776
X77.52 Y-6.783
X77.085 Y-6.832
G3 X76.986 Y-7.096 I0.018 J-0.158
G1 X77.076 Y-7.19
X77.172 Y-7.319
X77.192 Y-7.355
X77.27 Y-7.483
X77.387 Y-7.576
X77.523 Y-7.639
X77.668 Y-7.677
X77.818 Y-7.692
X77.967 Y-7.681
X77.993 Y-7.676
X78.141 Y-7.604
X78.243 Y-7.475
X78.28 Y-7.315
X78.271 Y-7.268
X78.249 Y-7.227
X78.216 Y-7.193
X78.175 Y-7.171
X78.128 Y-7.162
X77.796 Y-7.146
X77.341 Y-7.125
G3 X77.192 Y-7.355 I-0.007 J-0.159
G1 X77.242 Y-7.45
X77.307 Y-7.582
X77.367 Y-7.713
X77.436 Y-7.846
X77.549 Y-7.946
X77.681 Y-8.016
X77.826 Y-8.053
X77.889 Y-8.057
X78.037 Y-8.035
X78.164 Y-7.956
X78.25 Y-7.834
X78.28 Y-7.687
X78.271 Y-7.641
X78.25 Y-7.6
X78.218 Y-7.567
X78.177 Y-7.544
X78.132 Y-7.534
X77.986 Y-7.524
X77.524 Y-7.494
G3 X77.367 Y-7.713 I-0.011 J-0.158
G1 X77.487 Y-7.976
X77.531 Y-8.08
X77.596 Y-8.216
X77.712 Y-8.31
X77.851 Y-8.368
X77.866 Y-8.369
X78.021 Y-8.355
X78.156 Y-8.278
X78.247 Y-8.153
X78.28 Y-8.001
X78.27 Y-7.953
X78.246 Y-7.909
X78.21 Y-7.875
X78.164 Y-7.854
X78.115 Y-7.848
X77.673 Y-7.865
G3 X77.531 Y-8.08 I0.006 J-0.159
G1 X77.669 Y-8.409
X77.701 Y-8.477
X77.807 Y-8.583
X77.939 Y-8.606
X78.07 Y-8.577
X78.18 Y-8.501
X78.254 Y-8.389
X78.28 Y-8.257
X78.273 Y-8.206
X78.255 Y-8.157
G3 X77.669 Y-8.409 I-0.287 J-0.14
G1 X77.747 Y-8.602
X77.759 Y-8.632
X77.789 Y-8.701
X77.898 Y-8.804
X78.035 Y-8.812
X78.16 Y-8.757
X78.248 Y-8.652
X78.28 Y-8.519
X78.275 Y-8.48
X78.263 Y-8.443
G3 X77.759 Y-8.632 I-0.248 J-0.104
G1 X77.833 Y-8.831
X77.863 Y-8.9
X77.97 Y-9.005
X78.082 Y-9.008
X78.184 Y-8.961
X78.255 Y-8.875
X78.28 Y-8.766
X78.276 Y-8.726
G3 X77.997 Y-8.536 I-0.226 J-0.033
X77.833 Y-8.831 I0.053 J-0.222
G1 X77.906 Y-9.026
X77.921 Y-9.066
X77.931 Y-9.093
X77.942 Y-9.118
X78.051 Y-9.157
X78.164 Y-9.133
X78.249 Y-9.054
X78.28 Y-8.943
X78.274 Y-8.914
X78.261 Y-8.889
X78.24 Y-8.868
G3 X77.931 Y-9.093 I-0.119 J-0.162
G1 X77.955 Y-9.157
X77.962 Y-9.172
X77.97 Y-9.187
X77.981 Y-9.202
X77.995 Y-9.217
X78.012 Y-9.23
X78.028 Y-9.241
X78.045 Y-9.248
X78.061 Y-9.254
X78.077 Y-9.257
X78.094 Y-9.259
X78.11
X78.127 Y-9.258
X78.143 Y-9.255
X78.16 Y-9.249
X78.176 Y-9.242
X78.192 Y-9.232
X78.212 Y-9.217
X78.232 Y-9.199
X78.247 Y-9.182
X78.258 Y-9.165
X78.27 Y-9.141
X78.275 Y-9.124
X78.278 Y-9.108
X78.28 Y-9.092
Y-4.655
G0 Z12.77
X74.159 Y1.329
Z7.338
G1 Z7.179 F356.
X74.152 Y1.333 Z7.13
X74.133 Y1.344 Z7.085
X74.102 Y1.362 Z7.05
X74.064 Y1.385 Z7.028
X74.022 Y1.41 Z7.02
G3 X73.269 Y1.631 I-0.809 J-1.36
G1 X72.087
X71.937 Y1.624
X71.789 Y1.599
X71.645 Y1.558
X71.491 Y1.5
X71.334 Y1.425
X71.149 Y1.318
X70.953 Y1.182
X70.752 Y1.017
X70.534 Y0.807
X70.314 Y0.558
X70.102 Y0.276
X69.935 Y0.011
X69.892 Y-0.083
X69.877 Y-0.186
X69.891 Y-0.288
G3 X70.145 Y-0.361 I0.151 J0.049
G1 X70.508 Y-0.056
X71.875 Y1.092
X72.183 Y1.351
G3 X72.087 Y1.631 I-0.102 J0.122
G1 X71.168
X71.018 Y1.624
X70.872 Y1.591
X70.73 Y1.54
X70.595 Y1.477
X70.44 Y1.387
X70.288 Y1.282
X70.104 Y1.131
X69.926 Y0.959
X69.764 Y0.775
X69.661 Y0.638
X69.652 Y0.623
X69.6 Y0.486
X69.605 Y0.338
X69.668 Y0.205
X69.698 Y0.176
X69.736 Y0.156
X69.777 Y0.146
X69.819 Y0.148
X69.859 Y0.16
X69.895 Y0.183
X70.299 Y0.528
X70.958 Y1.089
X71.265 Y1.352
G3 X71.168 Y1.631 I-0.103 J0.121
G1 X70.38
X70.23 Y1.624
X70.085 Y1.587
X69.945 Y1.533
X69.812 Y1.464
X69.686 Y1.382
X69.567 Y1.291
X69.459 Y1.187
X69.362 Y1.073
X69.28 Y0.947
X69.273 Y0.931
X69.241 Y0.81
X69.251 Y0.685
X69.302 Y0.571
X69.389 Y0.48
X69.427 Y0.46
X69.47 Y0.452
X69.513 Y0.455
X69.554 Y0.47
X69.589 Y0.496
X69.998 Y0.89
X70.186 Y1.071
X70.485 Y1.358
G3 X70.38 Y1.631 I-0.11 J0.114
G1 X69.684
X69.534 Y1.624
X69.389 Y1.584
X69.254 Y1.518
X69.132 Y1.432
X69.025 Y1.326
X68.939 Y1.204
X68.91 Y1.14
X68.875 Y1.002
X68.896 Y0.861
X68.968 Y0.739
X69.081 Y0.652
X69.121 Y0.64
X69.163 Y0.639
X69.204 Y0.649
X69.241 Y0.669
X69.271 Y0.698
X69.533 Y1.032
X69.803 Y1.374
G3 X69.684 Y1.631 I-0.125 J0.098
G1 X69.126
X68.976 Y1.624
X68.837 Y1.569
X68.716 Y1.48
X68.616 Y1.368
X68.586 Y1.312
X68.544 Y1.168
X68.562 Y1.018
X68.638 Y0.888
X68.759 Y0.8
X68.803 Y0.788
X68.849 Y0.79
X68.892 Y0.805
X68.929 Y0.831
X68.957 Y0.867
X69.031 Y0.995
X69.258 Y1.394
G3 X69.126 Y1.631 I-0.138 J0.079
G1 X68.7
X68.55 Y1.624
X68.417 Y1.555
X68.31 Y1.449
X68.306 Y1.443
X68.259 Y1.295
X68.277 Y1.14
X68.357 Y1.007
X68.484 Y0.917
X68.533 Y0.907
X68.582 Y0.913
X68.628 Y0.933
X68.665 Y0.967
X68.689 Y1.01
X68.843 Y1.416
G3 X68.7 Y1.631 I-0.149 J0.056
G1 X68.343
X67.557
X67.541 Y1.629
X67.524 Y1.626
X67.508 Y1.621
X67.484 Y1.609
X67.467 Y1.598
X67.45 Y1.583
X67.432 Y1.563
X67.416 Y1.544
X67.407 Y1.527
X67.399 Y1.511
X67.394 Y1.494
X67.391 Y1.478
X67.389 Y1.462
Y1.445
X67.391 Y1.429
X67.395 Y1.412
X67.4 Y1.396
X67.408 Y1.38
X67.418 Y1.363
X67.432 Y1.347
X67.446 Y1.333
X67.461 Y1.322
X67.476 Y1.313
X67.491 Y1.306
X68.017 Y1.111
X68.148 Y1.058
X68.41 Y0.948
X68.673 Y0.838
X69.067 Y0.659
X69.198 Y0.593
X69.3 Y0.54
X69.33 Y0.524
X69.461 Y0.426
X69.594 Y0.296
X69.649 Y0.231
X69.697 Y0.165
X69.724 Y0.124
X69.772 Y0.034
X69.833 Y-0.098
X69.855 Y-0.162
X69.875 Y-0.229
X69.912 Y-0.36
X69.945 Y-0.491
