(MACHINEABLEWAX)
(T1  D=1.587 CR=0. - ZMIN=1.913 - FLAT END MILL)
G0 G90 G94 G17
G21
G53 G0 Z0.

(ADAPTIVE1)
M5
M9
T1
S16500 M3
G4 P4.
G55
M8
G0 X-28.505 Y5.662
Z20.363
Z10.363
Z7.863
G1 Z4.613 F51.
X-28.468 Y5.661 F356.
X-28.475 Y5.698
X-28.508 Y5.715
X-28.544 Y5.704
X-28.565 Y5.673
X-28.563 Y5.635
X-28.544 Y5.603
X-28.514 Y5.58
X-28.478 Y5.57
X-28.441 Y5.576
X-28.409 Y5.595
X-28.384 Y5.624
X-28.369 Y5.658
X-28.362 Y5.733
X-28.393 Y5.801
X-28.451 Y5.849
X-28.523 Y5.868
X-28.598 Y5.86
X-28.664 Y5.824
X-28.714 Y5.769
X-28.745 Y5.7
X-28.754 Y5.626
X-28.741 Y5.552
X-28.71 Y5.484
X-28.612 Y5.37
X-28.47 Y5.32
X-28.321 Y5.339
X-28.194 Y5.418
X-28.103 Y5.537
X-28.06 Y5.681
X-28.07 Y5.831
X-28.128 Y5.969
X-28.226 Y6.083
X-28.354 Y6.161
X-28.499 Y6.198
X-28.649 Y6.192
X-28.791 Y6.145
X-28.916 Y6.061
X-29.014 Y5.948
X-29.081 Y5.813
X-29.111 Y5.666
X-29.106 Y5.517
X-29.069 Y5.371
X-28.999 Y5.239
X-28.902 Y5.124
X-28.782 Y5.034
X-28.646 Y4.972
X-28.499 Y4.941
X-28.349 Y4.94
X-28.202 Y4.972
X-28.064 Y5.03
X-27.94 Y5.115
X-27.834 Y5.221
X-27.751 Y5.346
X-27.691 Y5.483
X-27.658 Y5.629
X-27.651 Y5.779
X-27.671 Y5.928
X-27.716 Y6.071
X-27.785 Y6.204
X-27.875 Y6.324
X-27.984 Y6.427
X-28.109 Y6.511
X-28.245 Y6.573
X-28.39 Y6.612
X-28.539 Y6.628
X-28.689 Y6.62
X-28.836 Y6.589
X-28.976 Y6.536
X-29.106 Y6.462
X-29.225 Y6.37
X-29.327 Y6.26
X-29.413 Y6.137
X-29.48 Y6.003
X-29.526 Y5.86
X-29.554 Y5.713
X-29.559 Y5.563
X-29.544 Y5.414
X-29.509 Y5.268
X-29.455 Y5.128
X-29.382 Y4.997
X-29.292 Y4.877
X-29.187 Y4.769
X-29.069 Y4.677
X-28.94 Y4.601
X-28.802 Y4.542
X-28.657 Y4.503
X-28.509 Y4.481
X-28.359 Y4.478
X-28.21 Y4.495
X-28.064 Y4.529
X-27.923 Y4.582
X-27.79 Y4.651
X-27.666 Y4.736
X-27.554 Y4.835
X-27.454 Y4.947
X-27.367 Y5.069
X-27.297 Y5.202
X-27.241 Y5.341
X-27.203 Y5.486
X-27.181 Y5.635
X-27.176 Y5.784
X-27.188 Y5.934
X-27.218 Y6.081
X-27.263 Y6.224
X-27.324 Y6.361
X-27.4 Y6.491
X-27.489 Y6.611
X-27.591 Y6.721
X-27.704 Y6.819
X-27.828 Y6.905
X-27.959 Y6.976
X-28.098 Y7.033
X-28.242 Y7.076
X-28.39 Y7.102
X-28.539 Y7.113
X-28.689 Y7.109
X-28.838 Y7.089
X-28.984 Y7.054
X-29.125 Y7.004
X-29.261 Y6.94
X-29.389 Y6.862
X-29.509 Y6.772
X-29.619 Y6.67
X-29.718 Y6.558
X-29.806 Y6.436
X-29.882 Y6.307
X-29.944 Y6.17
X-29.994 Y6.029
X-30.029 Y5.883
X-30.05 Y5.734
X-30.056 Y5.585
X-30.049 Y5.435
X-30.027 Y5.286
X-29.992 Y5.141
X-29.943 Y4.999
X-29.881 Y4.862
X-29.806 Y4.732
X-29.72 Y4.609
X-29.623 Y4.495
X-29.515 Y4.391
X-29.399 Y4.296
X-29.274 Y4.212
X-29.142 Y4.141
X-29.005 Y4.081
X-28.862 Y4.034
X-28.716 Y4.
X-28.568 Y3.98
X-28.418 Y3.972
X-28.268 Y3.977
X-28.119 Y3.997
X-27.973 Y4.029
X-27.829 Y4.073
X-27.69 Y4.13
X-27.557 Y4.199
X-27.43 Y4.278
X-27.31 Y4.368
X-27.199 Y4.469
X-27.096 Y4.578
X-27.003 Y4.696
X-26.92 Y4.821
X-26.849 Y4.953
X-26.788 Y5.09
X-26.739 Y5.232
X-26.702 Y5.377
X-26.677 Y5.525
X-26.664 Y5.674
X-26.663 Y5.824
X-26.675 Y5.975
X-26.699 Y6.123
X-26.735 Y6.269
X-26.782 Y6.411
X-26.843 Y6.553
X-26.913 Y6.686
X-26.993 Y6.812
X-27.085 Y6.934
X-27.188 Y7.051
X-27.297 Y7.155
X-27.414 Y7.25
X-27.541 Y7.337
X-27.678 Y7.416
X-27.816 Y7.482
X-27.958 Y7.535
X-28.109 Y7.579
X-28.265 Y7.611
X-28.42 Y7.63
X-28.574 Y7.636
X-28.731 Y7.63
X-28.89 Y7.61
X-29.048 Y7.578
X-29.2 Y7.535
X-29.347 Y7.479
X-29.492 Y7.411
X-29.633 Y7.329
X-29.768 Y7.236
X-29.893 Y7.135
X-30.008 Y7.025
X-30.117 Y6.903
X-30.218 Y6.77
X-30.308 Y6.628
X-30.384 Y6.483
X-30.449 Y6.333
X-30.502 Y6.176
X-30.543 Y6.012
X-30.571 Y5.845
X-30.585 Y5.675
X-30.586 Y5.506
X-30.573 Y5.34
X-30.547 Y5.174
X-30.507 Y5.008
X-30.453 Y4.844
X-30.386 Y4.684
X-30.307 Y4.53
X-30.215 Y4.384
X-30.113 Y4.246
X-30.001 Y4.117
X-29.877 Y3.996
X-29.742 Y3.885
X-29.597 Y3.783
X-29.445 Y3.694
X-29.285 Y3.617
X-29.12 Y3.552
X-28.95 Y3.502
X-28.779 Y3.466
X-28.603 Y3.443
X-28.424 Y3.434
X-28.245 Y3.44
X-28.066 Y3.46
X-27.887 Y3.495
X-27.711 Y3.544
X-27.54 Y3.607
X-27.374 Y3.684
X-27.214 Y3.774
X-27.061 Y3.877
X-26.917 Y3.992
X-26.784 Y4.118
X-26.659 Y4.255
X-26.546 Y4.403
X-26.445 Y4.558
X-26.356 Y4.723
X-26.28 Y4.895
X-26.218 Y5.074
X-26.171 Y5.256
X-26.138 Y5.444
X-26.12 Y5.634
X-26.118 Y5.825
X-26.131 Y6.015
X-26.159 Y6.206
X-26.203 Y6.394
X-26.262 Y6.577
X-26.335 Y6.756
X-26.423 Y6.93
X-26.525 Y7.096
X-26.64 Y7.254
X-26.767 Y7.402
X-26.907 Y7.54
X-27.058 Y7.667
X-27.218 Y7.782
X-27.388 Y7.883
X-27.567 Y7.971
X-27.752 Y8.045
X-27.942 Y8.104
X-28.137 Y8.147
X-28.336 Y8.174
X-28.538 Y8.186
X-28.74 Y8.181
X-28.941 Y8.16
X-29.14 Y8.123
X-29.336 Y8.07
X-29.529 Y8.001
X-29.716 Y7.916
X-29.895 Y7.817
X-30.066 Y7.704
X-30.229 Y7.576
X-30.381 Y7.434
X-30.522 Y7.281
X-30.651 Y7.117
X-30.766 Y6.943
X-30.867 Y6.759
X-30.953 Y6.567
X-31.024 Y6.367
X-31.079 Y6.162
X-31.118 Y5.954
X-31.139 Y5.742
X-31.144 Y5.529
X-31.131 Y5.316
X-31.101 Y5.102
X-31.054 Y4.892
X-30.99 Y4.685
X-30.91 Y4.485
X-30.813 Y4.291
X-30.702 Y4.105
X-30.575 Y3.929
X-30.434 Y3.762
X-30.279 Y3.606
X-30.112 Y3.463
X-29.934 Y3.334
X-29.745 Y3.219
X-29.548 Y3.12
X-29.343 Y3.036
X-29.132 Y2.969
X-28.915 Y2.92
X-28.694 Y2.887
X-28.471 Y2.873
X-28.246 Y2.876
X-28.021 Y2.897
X-27.798 Y2.937
X-27.579 Y2.995
X-27.364 Y3.07
X-27.155 Y3.162
X-26.955 Y3.271
X-26.763 Y3.396
X-26.582 Y3.536
X-26.411 Y3.691
X-26.254 Y3.859
X-26.11 Y4.04
X-25.981 Y4.232
X-25.867 Y4.435
X-25.77 Y4.647
X-25.69 Y4.866
X-25.627 Y5.093
X-25.583 Y5.323
X-25.557 Y5.558
X-25.55 Y5.794
X-25.562 Y6.031
X-25.593 Y6.266
X-25.643 Y6.499
X-25.712 Y6.727
X-25.799 Y6.95
X-25.904 Y7.166
X-26.026 Y7.373
X-26.165 Y7.57
X-26.319 Y7.755
X-26.488 Y7.928
X-26.671 Y8.087
X-26.867 Y8.232
X-27.074 Y8.36
X-27.291 Y8.472
X-27.517 Y8.566
X-27.75 Y8.642
X-27.99 Y8.699
X-28.233 Y8.737
X-28.48 Y8.755
X-28.727 Y8.753
X-28.974 Y8.732
X-29.219 Y8.69
X-29.461 Y8.629
X-29.698 Y8.548
X-29.927 Y8.449
X-30.149 Y8.331
X-30.361 Y8.195
X-30.562 Y8.042
X-30.751 Y7.874
X-30.926 Y7.69
X-31.086 Y7.492
X-31.23 Y7.282
X-31.357 Y7.059
X-31.466 Y6.827
X-31.556 Y6.586
X-31.627 Y6.338
X-31.678 Y6.085
X-31.708 Y5.828
X-31.718 Y5.569
X-31.707 Y5.309
X-31.675 Y5.05
X-31.622 Y4.794
X-31.549 Y4.543
X-31.455 Y4.298
X-31.342 Y4.061
X-31.21 Y3.833
X-31.06 Y3.616
X-30.893 Y3.411
X-30.709 Y3.22
X-30.51 Y3.044
X-30.297 Y2.884
X-30.071 Y2.742
X-29.835 Y2.617
X-29.589 Y2.513
X-29.334 Y2.427
X-29.073 Y2.363
X-28.807 Y2.319
X-28.538 Y2.297
X-28.267
X-27.996 Y2.318
X-27.727 Y2.362
X-27.461 Y2.427
X-27.202 Y2.513
X-26.949 Y2.62
X-26.706 Y2.747
X-26.473 Y2.893
X-26.252 Y3.058
X-26.044 Y3.24
X-25.852 Y3.44
X-25.676 Y3.654
X-25.517 Y3.882
X-25.376 Y4.123
X-25.255 Y4.375
X-25.155 Y4.637
X-25.075 Y4.906
X-25.017 Y5.182
X-24.993 Y5.38
X-24.992 Y5.399
Y5.419
X-24.999 Y5.62
X-24.997 Y5.752
X-25.009 Y6.121
X-25.037 Y6.37
X-25.087 Y6.627
X-25.16 Y6.886
X-25.255 Y7.143
X-25.372 Y7.396
X-25.51 Y7.641
X-25.669 Y7.876
X-25.847 Y8.099
X-26.044 Y8.308
X-26.257 Y8.501
X-26.487 Y8.677
X-26.73 Y8.834
X-26.985 Y8.972
X-27.252 Y9.089
X-27.528 Y9.185
X-27.565 Y9.194
X-27.607 Y9.203
X-27.649 Y9.206
X-27.691 Y9.205
X-27.758 Y9.199
X-28.021 Y9.181
X-28.152 Y9.175
X-28.416 Y9.17
X-28.547 Y9.169
X-28.942 Y9.181
X-29.014 Y9.187
X-29.164 Y9.191
X-29.336 Y9.18
X-29.535 Y9.152
X-29.75 Y9.103
X-29.965 Y9.036
X-30.193 Y8.943
X-30.428 Y8.826
X-30.662 Y8.684
X-30.891 Y8.519
X-31.11 Y8.333
X-31.316 Y8.127
X-31.507 Y7.902
X-31.682 Y7.66
X-31.837 Y7.404
X-31.972 Y7.134
X-31.987 Y7.097
X-32.002 Y7.052
X-32.011 Y7.005
X-32.014 Y6.958
G3 X-31.761 Y6.836 I0.159 J0.006
G1 X-31.405 Y7.096
X-29.265 Y8.662
X-28.938 Y8.901
G3 X-29.014 Y9.187 I-0.094 J0.128
G1 X-29.336 Y9.213
X-29.468 Y9.228
X-29.731 Y9.261
X-29.862 Y9.279
X-29.994 Y9.301
X-30.143 Y9.319
X-30.292 Y9.314
X-30.441 Y9.292
X-30.586 Y9.254
X-30.732 Y9.204
X-30.908 Y9.127
X-31.084 Y9.032
X-31.277 Y8.907
X-31.484 Y8.747
X-31.693 Y8.558
X-31.89 Y8.349
X-31.932 Y8.296
X-31.977 Y8.226
X-32.004 Y8.147
X-32.014 Y8.065
G3 X-31.774 Y7.934 I0.159 J0.006
G1 X-31.38 Y8.165
X-30.294 Y8.804
X-29.946 Y9.009
G3 X-29.994 Y9.301 I-0.08 J0.137
G1 X-30.257 Y9.347
X-30.667 Y9.434
X-30.702 Y9.443
X-30.849 Y9.472
X-30.999 Y9.471
X-31.148 Y9.448
X-31.292 Y9.409
X-31.433 Y9.356
X-31.581 Y9.286
X-31.752 Y9.188
X-31.853 Y9.118
X-31.939 Y9.036
X-31.994 Y8.93
X-32.014 Y8.813
G3 X-31.793 Y8.672 I0.159 J0.006
G1 X-31.353 Y8.859
X-31.047 Y8.99
X-30.683 Y9.144
G3 X-30.702 Y9.443 I-0.062 J0.146
G1 X-31.046 Y9.529
X-31.177 Y9.566
X-31.309 Y9.609
X-31.452 Y9.655
X-31.602 Y9.657
X-31.75 Y9.635
X-31.753 Y9.634
X-31.889 Y9.557
X-31.981 Y9.432
X-32.014 Y9.28
G3 X-31.797 Y9.138 I0.159 J0.006
G1 X-31.724 Y9.166
X-31.327 Y9.322
G3 X-31.309 Y9.609 I-0.058 J0.148
G1 X-31.484 Y9.697
X-31.572 Y9.755
X-31.601 Y9.777
X-31.638 Y9.806
X-31.668 Y9.829
X-31.698 Y9.851
X-31.815 Y9.844
X-31.918 Y9.788
X-31.989 Y9.695
X-32.014 Y9.58
X-32.005 Y9.533
X-31.982 Y9.491
X-31.948 Y9.457
X-31.906 Y9.435
G3 X-31.668 Y9.829 I0.075 J0.223
G1 X-31.703 Y9.86
X-31.736 Y9.891
X-31.753 Y9.903
X-31.769 Y9.912
X-31.786 Y9.919
X-31.802 Y9.923
X-31.818 Y9.926
X-31.835 Y9.928
X-31.851 Y9.927
X-31.868 Y9.925
X-31.884 Y9.921
X-31.901 Y9.915
X-31.917 Y9.907
X-31.933 Y9.896
X-31.966 Y9.865
X-31.982 Y9.847
X-31.994 Y9.829
X-32.002 Y9.812
X-32.007 Y9.796
X-32.011 Y9.779
X-32.013 Y9.763
X-32.014 Y4.7
X-32.004 Y4.515
X-31.985 Y4.366
X-31.947 Y4.19
X-31.894 Y4.013
X-31.816 Y3.814
X-31.712 Y3.6
X-31.583 Y3.382
X-31.434 Y3.169
X-31.257 Y2.957
X-31.055 Y2.75
X-30.83 Y2.554
X-30.586 Y2.374
X-30.325 Y2.212
X-30.292 Y2.195
X-30.238 Y2.172
X-30.181 Y2.158
X-30.122 Y2.154
G3 X-29.999 Y2.406 I-0.006 J0.159
G1 X-30.259 Y2.763
X-31.496 Y4.47
X-31.726 Y4.787
G3 X-32.014 Y4.7 I-0.129 J-0.093
G1 Y3.575
X-32.006 Y3.425
X-31.979 Y3.278
X-31.934 Y3.135
X-31.876 Y2.996
X-31.799 Y2.848
X-31.695 Y2.681
X-31.572 Y2.515
X-31.409 Y2.33
X-31.337 Y2.259
X-31.26 Y2.202
X-31.172 Y2.166
X-31.078 Y2.154
G3 X-30.948 Y2.395 I-0.006 J0.159
G1 X-31.186 Y2.783
X-31.521 Y3.329
X-31.72 Y3.653
G3 X-32.014 Y3.575 I-0.135 J-0.083
G1 Y2.727
Y2.687
Y2.659
X-32.006 Y2.51
X-31.975 Y2.412
X-31.898 Y2.277
X-31.773 Y2.186
X-31.622 Y2.154
G3 X-31.495 Y2.4 I-0.006 J0.159
G1 X-31.509 Y2.421
X-31.723 Y2.742
G3 X-32.014 Y2.659 I-0.132 J-0.088
G1 Y2.332
X-32.011 Y2.303
X-32.008 Y2.289
X-32.004 Y2.274
X-31.998 Y2.26
X-31.99 Y2.245
X-31.979 Y2.231
X-31.966 Y2.216
X-31.951 Y2.201
X-31.936 Y2.188
X-31.922 Y2.178
X-31.907 Y2.17
X-31.893 Y2.164
X-31.878 Y2.159
X-31.864 Y2.156
X-31.835 Y2.154
X-27.1
X-26.951 Y2.161
X-26.803 Y2.19
X-26.656 Y2.231
X-26.481 Y2.296
X-26.297 Y2.381
X-26.106 Y2.489
X-25.9 Y2.628
X-25.69 Y2.797
X-25.483 Y2.991
X-25.288 Y3.207
X-25.106 Y3.444
X-24.937 Y3.705
X-24.883 Y3.805
X-24.852 Y3.882
X-24.839 Y3.963
X-24.844 Y4.045
G3 X-25.099 Y4.135 I-0.155 J-0.033
G1 X-25.457 Y3.845
X-26.884 Y2.688
X-27.195 Y2.436
G3 X-27.1 Y2.154 I0.1 J-0.123
G1 X-26.18
X-26.03 Y2.161
X-25.882 Y2.188
X-25.739 Y2.233
X-25.601 Y2.291
X-25.456 Y2.369
X-25.306 Y2.466
X-25.133 Y2.597
X-24.967 Y2.746
X-24.79 Y2.934
X-24.754 Y2.978
X-24.697 Y3.076
X-24.673 Y3.187
X-24.683 Y3.3
G3 X-24.927 Y3.386 I-0.153 J-0.044
G1 X-25.322 Y3.107
X-25.947 Y2.667
X-26.266 Y2.442
G3 X-26.18 Y2.154 I0.091 J-0.13
G1 X-25.391
X-25.241 Y2.161
X-25.093 Y2.188
X-24.951 Y2.237
X-24.816 Y2.301
X-24.694 Y2.376
X-24.593 Y2.468
X-24.532 Y2.59
X-24.52 Y2.727
X-24.558 Y2.858
X-24.585 Y2.893
X-24.619 Y2.92
X-24.66 Y2.936
X-24.704 Y2.94
X-24.747 Y2.932
X-24.787 Y2.913
X-25.155 Y2.662
X-25.475 Y2.444
G3 X-25.391 Y2.154 I0.089 J-0.131
G1 X-24.733
X-24.583 Y2.161
X-24.467 Y2.238
X-24.396 Y2.357
X-24.383 Y2.495
X-24.432 Y2.625
G3 X-24.688 Y2.629 I-0.13 J-0.092
G1 X-24.855 Y2.408
G3 X-24.733 Y2.154 I0.127 J-0.095
G1 X-24.434
X-24.404
X-24.388 Y2.156
X-24.362 Y2.164
X-24.339 Y2.173
X-24.315 Y2.196
X-24.299 Y2.226
X-24.294 Y2.259
X-24.3 Y2.292
X-24.319 Y2.324
X-24.349 Y2.348
X-24.384 Y2.359
X-24.422 Y2.357
X-24.456 Y2.341
X-24.482 Y2.313
X-24.497 Y2.278
Y2.241
X-24.484 Y2.205
X-24.459 Y2.177
X-24.425 Y2.16
X-24.388 Y2.156
X-24.371 Y2.16
X-24.355 Y2.165
X-24.339 Y2.173
X-24.32 Y2.185
X-24.302 Y2.201
X-24.272 Y2.234
X-24.261 Y2.25
X-24.253 Y2.267
X-24.247 Y2.283
X-24.242 Y2.3
X-24.24 Y2.316
Y2.332
X-24.241 Y2.349
X-24.244 Y2.365
X-24.249 Y2.382
X-24.256 Y2.398
X-24.265 Y2.415
X-24.277 Y2.431
X-24.308 Y2.464
X-24.339 Y2.499
X-24.412 Y2.596
X-24.47 Y2.683
X-24.558 Y2.859
X-24.602 Y2.992
X-24.639 Y3.122
X-24.733 Y3.5
X-24.82 Y3.911
X-24.866 Y4.174
X-24.888 Y4.305
X-24.906 Y4.437
X-24.939 Y4.7
X-24.954 Y4.831
X-24.986 Y5.226
X-24.992 Y5.419
G3 X-25.283 Y5.501 I-0.159 J-0.005
G1 X-25.495 Y5.18
X-25.5 Y5.173
G3 X-25.453 Y4.952 I0.133 J-0.087
X-25.232 Y5.002 I0.086 J0.134
X-24.997 Y5.752 I-1.346 J0.833
G1 X-24.993 Y6.015
X-24.986 Y6.146
X-24.968 Y6.409
X-24.957 Y6.541
X-24.905 Y6.935
X-24.898 Y6.975
X-24.88 Y7.124
X-24.885 Y7.274
X-24.907 Y7.422
X-24.945 Y7.575
X-24.996 Y7.728
X-25.073 Y7.909
X-25.175 Y8.101
X-25.298 Y8.295
X-25.455 Y8.504
X-25.644 Y8.716
X-25.86 Y8.923
X-26.1 Y9.119
X-26.361 Y9.299
X-26.428 Y9.338
X-26.517 Y9.375
X-26.614 Y9.387
X-26.71 Y9.375
G3 X-26.791 Y9.13 I0.047 J-0.152
G1 X-26.507 Y8.738
X-25.428 Y7.253
X-25.182 Y6.914
G3 X-24.898 Y6.975 I0.128 J0.093
G1 X-24.882 Y7.067
X-24.855 Y7.198
X-24.827 Y7.33
X-24.792 Y7.461
X-24.743 Y7.636
X-24.71 Y7.782
X-24.704 Y7.932
X-24.72 Y8.081
X-24.754 Y8.227
X-24.801 Y8.37
X-24.87 Y8.528
X-24.955 Y8.688
X-25.07 Y8.869
X-25.22 Y9.066
X-25.389 Y9.255
X-25.589 Y9.445
X-25.697 Y9.533
X-25.81 Y9.595
X-25.937 Y9.615
X-26.063 Y9.59
X-26.102 Y9.567
X-26.133 Y9.533
X-26.152 Y9.492
X-26.16 Y9.447
X-26.154 Y9.401
X-26.135 Y9.36
X-25.863 Y8.927
X-25.255 Y7.959
X-25.029 Y7.599
G3 X-24.743 Y7.636 I0.134 J0.084
G1 X-24.718 Y7.725
X-24.673 Y7.856
X-24.571 Y8.119
X-24.554 Y8.159
X-24.502 Y8.299
X-24.484 Y8.448
X-24.491 Y8.598
X-24.517 Y8.746
X-24.559 Y8.89
X-24.617 Y9.038
X-24.689 Y9.183
X-24.789 Y9.353
X-24.9 Y9.509
X-25. Y9.628
X-25.106 Y9.735
X-25.176 Y9.794
X-25.311 Y9.868
X-25.465 Y9.879
X-25.61 Y9.827
X-25.645 Y9.795
X-25.669 Y9.754
X-25.68 Y9.709
X-25.677 Y9.661
X-25.66 Y9.617
X-25.392 Y9.139
X-25.051 Y8.53
X-24.836 Y8.149
G3 X-24.554 Y8.159 I0.138 J0.078
G1 X-24.515 Y8.251
X-24.47 Y8.342
X-24.449 Y8.382
X-24.339 Y8.56
X-24.264 Y8.69
X-24.225 Y8.835
X-24.215 Y8.984
X-24.226 Y9.134
X-24.256 Y9.281
X-24.3 Y9.424
X-24.358 Y9.563
X-24.427 Y9.696
X-24.508 Y9.822
X-24.601 Y9.94
X-24.705 Y10.048
X-24.76 Y10.091
X-24.9 Y10.16
X-25.056 Y10.165
X-25.2 Y10.106
X-25.231 Y10.075
X-25.253 Y10.037
X-25.263 Y9.995
X-25.262 Y9.951
X-25.249 Y9.91
X-25.004 Y9.399
X-24.808 Y8.992
X-24.612 Y8.582
G3 X-24.339 Y8.56 I0.143 J0.069
G1 X-24.284 Y8.645
X-24.056 Y8.975
X-23.977 Y9.103
X-23.933 Y9.246
X-23.917 Y9.395
X-23.924 Y9.545
X-23.95 Y9.693
X-23.993 Y9.836
X-24.052 Y9.974
X-24.125 Y10.105
X-24.213 Y10.226
X-24.315 Y10.336
X-24.353 Y10.367
X-24.493 Y10.438
X-24.651 Y10.444
X-24.797 Y10.384
X-24.827 Y10.354
X-24.848 Y10.318
X-24.859 Y10.277
Y10.234
X-24.847 Y10.193
X-24.619 Y9.669
X-24.511 Y9.422
X-24.329 Y9.006
G3 X-24.056 Y8.975 I0.145 J0.064
G1 X-23.754 Y9.413
X-23.675 Y9.54
X-23.633 Y9.684
X-23.619 Y9.834
X-23.63 Y9.983
X-23.662 Y10.13
X-23.713 Y10.271
X-23.781 Y10.405
X-23.868 Y10.527
X-23.97 Y10.636
X-23.978 Y10.642
X-24.089 Y10.7
X-24.213 Y10.717
X-24.336 Y10.692
X-24.377 Y10.667
X-24.408 Y10.63
X-24.427 Y10.586
X-24.432 Y10.538
X-24.422 Y10.49
X-24.23 Y9.982
X-24.187 Y9.868
X-24.03 Y9.451
G3 X-23.754 Y9.413 I0.149 J0.056
G1 X-23.55 Y9.711
X-23.476 Y9.829
X-23.425 Y9.96
X-23.418 Y9.991
X-23.406 Y10.092
Y10.157
X-23.413 Y10.223
X-23.418 Y10.253
X-23.432 Y10.304
X-23.449 Y10.355
X-23.479 Y10.421
X-23.518 Y10.486
X-23.55 Y10.526
X-23.59 Y10.572
X-23.641 Y10.618
X-23.681 Y10.649
X-23.747 Y10.688
X-23.813 Y10.718
X-23.864 Y10.736
X-23.915 Y10.749
X-23.944 Y10.754
X-24.01 Y10.761
X-24.076 Y10.762
X-24.176 Y10.749
X-24.207 Y10.742
X-24.339 Y10.691
X-24.457 Y10.618
X-24.865 Y10.337
X-25.522 Y9.884
X-25.633 Y9.813
X-25.785 Y9.719
X-25.826 Y9.697
X-25.917 Y9.652
X-26.048 Y9.596
X-26.311 Y9.495
X-26.443 Y9.449
X-26.746 Y9.365
X-26.837 Y9.34
X-27.013 Y9.303
X-27.1 Y9.285
X-27.232 Y9.263
X-27.626 Y9.211
X-27.691 Y9.205
G3 X-27.652 Y8.89 I0.02 J-0.158
X-27.544 Y8.952 I-0.02 J0.158
G1 X-27.533 Y8.986 Z4.618
X-27.522 Y9.019 Z4.63
X-27.513 Y9.047 Z4.65
X-27.518 Y9.077 Z4.685
X-27.521 Y9.096 Z4.726
X-27.523 Y9.103 Z4.772
G0 Z10.363
X-30.418 Y17.654
Z7.863
G1 Z4.613 F51.
X-30.399 Y17.687 F356.
X-30.435 Y17.699
X-30.466 Y17.678
X-30.475 Y17.641
X-30.458 Y17.608
X-30.424 Y17.591
X-30.387
X-30.352 Y17.606
X-30.326 Y17.632
X-30.312 Y17.667
X-30.313 Y17.705
X-30.325 Y17.74
X-30.348 Y17.77
X-30.409 Y17.814
X-30.483 Y17.821
X-30.554 Y17.795
X-30.607 Y17.742
X-30.636 Y17.673
X-30.638 Y17.598
X-30.616 Y17.526
X-30.571 Y17.465
X-30.511 Y17.421
X-30.441 Y17.395
X-30.366 Y17.389
X-30.219 Y17.417
X-30.105 Y17.515
X-30.047 Y17.653
X-30.052 Y17.803
X-30.11 Y17.941
X-30.214 Y18.05
X-30.349 Y18.116
X-30.498 Y18.134
X-30.645 Y18.106
X-30.777 Y18.034
X-30.881 Y17.926
X-30.95 Y17.793
X-30.98 Y17.646
X-30.969 Y17.497
X-30.92 Y17.355
X-30.836 Y17.23
X-30.724 Y17.131
X-30.591 Y17.061
X-30.447 Y17.02
X-30.297 Y17.016
X-30.149 Y17.042
X-30.012 Y17.102
X-29.89 Y17.189
X-29.79 Y17.301
X-29.715 Y17.431
X-29.669 Y17.574
X-29.651 Y17.723
X-29.663 Y17.872
X-29.702 Y18.017
X-29.769 Y18.151
X-29.858 Y18.272
X-29.969 Y18.373
X-30.095 Y18.454
X-30.235 Y18.51
X-30.381 Y18.543
X-30.531 Y18.549
X-30.68 Y18.531
X-30.823 Y18.487
X-30.958 Y18.421
X-31.08 Y18.333
X-31.185 Y18.227
X-31.274 Y18.106
X-31.341 Y17.972
X-31.387 Y17.829
X-31.411 Y17.681
X-31.412 Y17.531
X-31.391 Y17.382
X-31.346 Y17.239
X-31.283 Y17.103
X-31.199 Y16.979
X-31.099 Y16.867
X-30.984 Y16.77
X-30.857 Y16.691
X-30.72 Y16.629
X-30.576 Y16.587
X-30.428 Y16.565
X-30.278 Y16.563
X-30.129 Y16.582
X-29.984 Y16.619
X-29.845 Y16.676
X-29.715 Y16.75
X-29.595 Y16.84
X-29.488 Y16.946
X-29.396 Y17.064
X-29.319 Y17.193
X-29.259 Y17.33
X-29.216 Y17.474
X-29.192 Y17.622
X-29.186 Y17.772
X-29.198 Y17.922
X-29.228 Y18.068
X-29.275 Y18.211
X-29.339 Y18.347
X-29.418 Y18.474
X-29.512 Y18.591
X-29.618 Y18.697
X-29.736 Y18.789
X-29.864 Y18.868
X-30. Y18.932
X-30.142 Y18.98
X-30.288 Y19.012
X-30.438 Y19.027
X-30.588 Y19.026
X-30.737 Y19.008
X-30.883 Y18.975
X-31.024 Y18.925
X-31.16 Y18.861
X-31.287 Y18.782
X-31.406 Y18.69
X-31.514 Y18.586
X-31.611 Y18.471
X-31.695 Y18.347
X-31.766 Y18.215
X-31.822 Y18.076
X-31.864 Y17.932
X-31.891 Y17.784
X-31.903 Y17.635
X-31.899 Y17.485
X-31.881 Y17.336
X-31.848 Y17.19
X-31.799 Y17.048
X-31.738 Y16.911
X-31.663 Y16.781
X-31.576 Y16.659
X-31.477 Y16.546
X-31.368 Y16.442
X-31.25 Y16.351
X-31.123 Y16.27
X-30.99 Y16.202
X-30.85 Y16.147
X-30.706 Y16.106
X-30.559 Y16.077
X-30.409 Y16.063
X-30.259 Y16.064
X-30.11 Y16.077
X-29.962 Y16.105
X-29.883 Y16.127
X-29.847 Y16.14
X-29.812 Y16.155
X-29.78 Y16.175
X-29.731 Y16.207
X-29.468 Y16.362
X-29.342 Y16.444
X-29.224 Y16.536
X-29.116 Y16.64
X-29.019 Y16.754
X-28.932 Y16.877
X-28.859 Y17.008
X-28.797 Y17.145
X-28.749 Y17.287
X-28.713 Y17.432
X-28.69 Y17.581
X-28.681 Y17.73
X-28.685 Y17.88
X-28.701 Y18.029
X-28.731 Y18.176
X-28.773 Y18.32
X-28.827 Y18.46
X-28.895 Y18.598
X-28.939 Y18.658
X-28.995 Y18.707
X-29.06 Y18.745
X-29.105 Y18.756
X-29.151 Y18.754
X-29.195 Y18.738
X-29.232 Y18.71
X-29.26 Y18.673
X-29.276 Y18.629
X-29.376 Y18.134
X-29.615 Y16.95
X-29.699 Y16.533
G3 X-29.468 Y16.362 I0.156 J-0.031
G1 X-29.395 Y16.404
X-29.336 Y16.437
X-28.942 Y16.616
X-28.869 Y16.641
X-28.73 Y16.696
X-28.607 Y16.783
X-28.502 Y16.889
X-28.412 Y17.01
X-28.339 Y17.141
X-28.28 Y17.279
X-28.236 Y17.422
X-28.204 Y17.568
X-28.185 Y17.717
X-28.179 Y17.871
X-28.186 Y18.032
X-28.205 Y18.196
X-28.22 Y18.269
X-28.274 Y18.399
X-28.371 Y18.499
X-28.499 Y18.556
X-28.547 Y18.558
X-28.594 Y18.546
X-28.634 Y18.52
X-28.665 Y18.482
X-28.684 Y18.438
X-28.81 Y17.91
X-28.964 Y17.27
X-29.069 Y16.83
G3 X-28.869 Y16.641 I0.154 J-0.037
G1 X-28.81 Y16.661
X-28.547 Y16.74
X-28.416 Y16.771
X-28.27 Y16.805
X-28.14 Y16.881
X-28.028 Y16.981
X-27.933 Y17.097
X-27.855 Y17.225
X-27.792 Y17.361
X-27.744 Y17.503
X-27.709 Y17.649
X-27.687 Y17.797
X-27.678 Y17.947
X-27.685 Y18.097
X-27.693 Y18.153
X-27.747 Y18.294
X-27.853 Y18.402
X-27.992 Y18.459
X-28.037
X-28.08 Y18.446
X-28.118 Y18.423
X-28.148 Y18.389
X-28.167 Y18.348
X-28.332 Y17.813
X-28.454 Y17.419
X-28.591 Y16.974
G3 X-28.416 Y16.771 I0.152 J-0.047
G1 X-27.949 Y16.857
X-27.803 Y16.891
X-27.67 Y16.961
X-27.554 Y17.056
X-27.455 Y17.169
X-27.373 Y17.295
X-27.306 Y17.429
X-27.255 Y17.57
X-27.218 Y17.715
X-27.2 Y17.864
X-27.198 Y18.014
X-27.203 Y18.052
X-27.254 Y18.198
X-27.361 Y18.31
X-27.503 Y18.369
X-27.547
X-27.588 Y18.358
X-27.625 Y18.336
X-27.655 Y18.305
X-27.675 Y18.267
X-27.874 Y17.734
X-27.962 Y17.497
X-28.121 Y17.069
G3 X-27.949 Y16.857 I0.149 J-0.055
G1 X-27.455 Y16.947
X-27.309 Y16.982
X-27.176 Y17.051
X-27.06 Y17.146
X-26.961 Y17.259
X-26.88 Y17.385
X-26.816 Y17.521
X-26.77 Y17.663
X-26.745 Y17.811
X-26.74 Y17.961
X-26.741 Y17.966
X-26.789 Y18.105
X-26.889 Y18.215
X-27.023 Y18.277
X-27.066 Y18.279
X-27.109 Y18.27
X-27.147 Y18.25
X-27.178 Y18.22
X-27.2 Y18.182
X-27.419 Y17.658
X-27.451 Y17.581
X-27.625 Y17.166
G3 X-27.455 Y16.947 I0.146 J-0.061
G1 X-27.1 Y17.013
X-26.969 Y17.043
X-26.919 Y17.062
X-26.837 Y17.104
X-26.778 Y17.143
X-26.719 Y17.193
X-26.706 Y17.208
X-26.617 Y17.325
X-26.574 Y17.408
X-26.556 Y17.456
X-26.538 Y17.522
X-26.528 Y17.588
Y17.719
X-26.538 Y17.785
X-26.556 Y17.851
X-26.574 Y17.9
X-26.617 Y17.983
X-26.706 Y18.099
X-26.719 Y18.114
X-26.778 Y18.164
X-26.837 Y18.204
X-26.919 Y18.246
X-26.969 Y18.264
X-27.1 Y18.295
X-28.416 Y18.537
X-28.547 Y18.568
X-28.81 Y18.647
X-28.942 Y18.691
X-29.336 Y18.87
X-29.395 Y18.903
X-29.731 Y19.1
X-29.862 Y19.188
X-29.994 Y19.278
X-30.122 Y19.356
X-30.26 Y19.414
X-30.405 Y19.453
X-30.553 Y19.474
X-30.703 Y19.479
X-30.853 Y19.469
X-31.001 Y19.443
X-31.145 Y19.404
X-31.286 Y19.353
X-31.422 Y19.289
X-31.552 Y19.213
X-31.675 Y19.127
X-31.79 Y19.032
X-31.898 Y18.927
X-31.922 Y18.899
X-31.972 Y18.826
X-32.003 Y18.743
X-32.014 Y18.656
X-32.005 Y18.609
X-31.983 Y18.567
X-31.949 Y18.533
X-31.907 Y18.511
X-31.86 Y18.503
X-31.813 Y18.508
X-31.332 Y18.641
X-30.46 Y18.882
X-30.045 Y18.997
G3 X-29.994 Y19.278 I-0.042 J0.153
G1 X-30.023 Y19.298
X-30.125 Y19.372
X-30.199 Y19.429
X-30.461 Y19.643
X-30.581 Y19.732
X-30.717 Y19.796
X-30.862 Y19.834
X-31.011 Y19.849
X-31.161 Y19.846
X-31.31 Y19.826
X-31.456 Y19.79
X-31.597 Y19.742
X-31.736 Y19.68
X-31.82 Y19.635
X-31.923 Y19.553
X-31.99 Y19.439
X-32.014 Y19.309
X-32.006 Y19.265
X-31.986 Y19.225
X-31.956 Y19.192
X-31.917 Y19.169
X-31.874 Y19.157
X-31.83 Y19.158
X-31.32 Y19.241
X-30.961 Y19.299
X-30.54 Y19.367
G3 X-30.461 Y19.643 I-0.025 J0.157
G1 X-30.521 Y19.692
X-30.651 Y19.806
X-30.814 Y19.955
X-30.844 Y19.985
X-30.956 Y20.085
X-31.09 Y20.153
X-31.235 Y20.193
X-31.384 Y20.209
X-31.534 Y20.206
X-31.682 Y20.183
X-31.744 Y20.166
X-31.884 Y20.091
X-31.98 Y19.964
X-32.014 Y19.809
X-32.006 Y19.768
X-31.989 Y19.729
X-31.961 Y19.697
X-31.926 Y19.673
X-31.886 Y19.659
X-31.844 Y19.656
X-31.375 Y19.689
X-30.949 Y19.718
G3 X-30.844 Y19.985 I-0.011 J0.158
G1 X-31.046 Y20.186
X-31.177 Y20.326
X-31.285 Y20.431
X-31.416 Y20.504
X-31.56 Y20.544
X-31.621 Y20.548
X-31.769 Y20.526
X-31.897 Y20.447
X-31.983 Y20.325
X-32.014 Y20.178
X-32.006 Y20.136
X-31.989 Y20.098
X-31.961 Y20.065
X-31.926 Y20.041
X-31.886 Y20.028
X-31.844 Y20.025
X-31.718 Y20.034
X-31.286 Y20.064
G3 X-31.177 Y20.326 I-0.011 J0.158
G1 X-31.199 Y20.35
X-31.317 Y20.481
X-31.44 Y20.622
X-31.471 Y20.659
X-31.522 Y20.714
X-31.652 Y20.756
X-31.787 Y20.742
X-31.905 Y20.674
X-31.985 Y20.563
X-32.014 Y20.43
X-32.007 Y20.38
X-31.992 Y20.333
X-31.968 Y20.289
X-31.936 Y20.25
G3 X-31.471 Y20.659 I0.22 J0.219
G1 X-31.572 Y20.78
X-31.624 Y20.846
X-31.648 Y20.876
X-31.679 Y20.914
X-31.71 Y20.949
X-31.821 Y20.947
X-31.921 Y20.897
X-31.989 Y20.81
X-32.014 Y20.701
X-32.004 Y20.659
X-31.981 Y20.622
X-31.946 Y20.596
G3 X-31.679 Y20.914 I0.096 J0.191
G1 X-31.72 Y20.965
X-31.731 Y20.977
X-31.742 Y20.986
X-31.761 Y20.998
X-31.78 Y21.007
X-31.794 Y21.012
X-31.808 Y21.015
X-31.835 Y21.018
X-31.85
X-31.865 Y21.016
X-31.88 Y21.012
X-31.896 Y21.007
X-31.913 Y20.999
X-31.949 Y20.976
X-31.966 Y20.961
X-31.976 Y20.951
X-31.985 Y20.94
X-31.997 Y20.919
X-32.006 Y20.897
X-32.011 Y20.876
X-32.014 Y20.744
Y16.858
X-32.006 Y16.708
X-31.969 Y16.563
X-31.911 Y16.425
X-31.836 Y16.295
X-31.747 Y16.174
X-31.647 Y16.063
X-31.535 Y15.962
X-31.416 Y15.872
X-31.289 Y15.792
X-31.155 Y15.723
X-31.015 Y15.664
X-30.865 Y15.614
X-30.78 Y15.593
X-30.666 Y15.584
X-30.556 Y15.609
X-30.458 Y15.667
X-30.428 Y15.702
X-30.41 Y15.743
X-30.404 Y15.788
X-30.411 Y15.834
X-30.431 Y15.875
X-30.462 Y15.908
X-30.855 Y16.233
X-31.421 Y16.7
X-31.754 Y16.975
G3 X-32.014 Y16.858 I-0.101 J-0.122
G1 Y16.201
X-32.006 Y16.051
X-31.961 Y15.908
X-31.893 Y15.774
X-31.807 Y15.651
X-31.706 Y15.54
X-31.595 Y15.439
X-31.475 Y15.349
X-31.347 Y15.271
X-31.278 Y15.238
X-31.132 Y15.202
X-30.984 Y15.227
X-30.858 Y15.309
X-30.833 Y15.343
X-30.818 Y15.383
X-30.815 Y15.425
X-30.822 Y15.467
X-30.84 Y15.505
X-30.868 Y15.537
X-31.266 Y15.888
X-31.43 Y16.032
X-31.75 Y16.314
G3 X-32.014 Y16.201 I-0.105 J-0.119
G1 Y15.642
X-32.006 Y15.492
X-31.963 Y15.348
X-31.894 Y15.215
X-31.805 Y15.095
X-31.697 Y14.99
X-31.645 Y14.953
X-31.525 Y14.896
X-31.393 Y14.886
X-31.265 Y14.922
X-31.159 Y15.001
X-31.132 Y15.042
X-31.12 Y15.09
X-31.123 Y15.138
X-31.14 Y15.184
X-31.171 Y15.222
X-31.436 Y15.466
X-31.747 Y15.753
G3 X-32.014 Y15.642 I-0.108 J-0.117
G1 Y15.116
X-32.006 Y14.966
X-31.952 Y14.826
X-31.934 Y14.802
X-31.81 Y14.695
X-31.652 Y14.653
X-31.491 Y14.683
X-31.358 Y14.779
X-31.335 Y14.817
X-31.324 Y14.861
X-31.325 Y14.905
X-31.338 Y14.948
X-31.363 Y14.986
X-31.398 Y15.014
X-31.771 Y15.245
G3 X-32.014 Y15.116 I-0.083 J-0.135
G1 Y14.754
X-32.006 Y14.604
X-31.908 Y14.509
X-31.778 Y14.469
X-31.643 Y14.492
X-31.533 Y14.574
X-31.509 Y14.61
X-31.491 Y14.649
G3 X-31.997 Y14.839 I-0.253 J0.095
X-32.014 Y14.754 I0.253 J-0.095
G1 Y14.563
X-32.013 Y14.523
X-32.012 Y14.496
Y14.46
X-32.007 Y14.423
X-31.998 Y14.395
X-31.985 Y14.367
X-31.952 Y14.338
X-31.913 Y14.32
X-31.87 Y14.313
X-31.826 Y14.319
G3 X-31.908 Y14.597 I-0.041 J0.139
X-32.012 Y14.46 I0.041 J-0.139
G1 X-32.011 Y14.432
X-32.006 Y14.41
X-31.997 Y14.389
X-31.985 Y14.367
X-31.976 Y14.357
X-31.966 Y14.346
X-31.949 Y14.331
X-31.913 Y14.308
X-31.896 Y14.3
X-31.88 Y14.295
X-31.865 Y14.292
X-31.85 Y14.29
X-31.835 Y14.289
X-31.808 Y14.292
X-31.794 Y14.296
X-31.78 Y14.3
X-31.761 Y14.309
X-31.742 Y14.322
X-31.731 Y14.331
X-31.72 Y14.342
X-31.572 Y14.527
X-31.432 Y14.695
X-31.309 Y14.835
X-31.199 Y14.958
X-31.046 Y15.122
X-30.814 Y15.352
X-30.651 Y15.502
X-30.52 Y15.616
X-30.199 Y15.878
X-30.125 Y15.935
X-30.023 Y16.01
X-29.803 Y16.16
X-29.78 Y16.175
X-29.744 Y16.21
X-29.721 Y16.254
X-29.713 Y16.303
Y16.304
G3 X-30.029 Y16.327 I-0.159 J0.
G1 X-30.031 Y16.311 Z4.614
Y16.304 Z4.615
X-30.016 Y16.264 Z4.628
X-30.004 Y16.229 Z4.653
X-29.994 Y16.202 Z4.687
X-29.981 Y16.189 Z4.727
X-29.976 Y16.184 Z4.772
G0 Z10.363
X-28.505 Y29.647
Z7.863
G1 Z4.613 F51.
X-28.468 F356.
X-28.476 Y29.684
X-28.51 Y29.7
X-28.545 Y29.688
X-28.565 Y29.657
X-28.563 Y29.619
X-28.543 Y29.587
X-28.513 Y29.565
X-28.476 Y29.556
X-28.439 Y29.562
X-28.408 Y29.582
X-28.384 Y29.611
X-28.369 Y29.646
X-28.364 Y29.72
X-28.395 Y29.788
X-28.454 Y29.835
X-28.527 Y29.853
X-28.602 Y29.843
X-28.667 Y29.806
X-28.717 Y29.75
X-28.746 Y29.681
X-28.753 Y29.606
X-28.739 Y29.532
X-28.706 Y29.465
X-28.606 Y29.353
X-28.464 Y29.306
X-28.315 Y29.328
X-28.189 Y29.409
X-28.101 Y29.53
X-28.061 Y29.675
X-28.074 Y29.824
X-28.134 Y29.961
X-28.234 Y30.073
X-28.364 Y30.149
X-28.51 Y30.183
X-28.659 Y30.174
X-28.801 Y30.124
X-28.924 Y30.038
X-29.02 Y29.923
X-29.084 Y29.787
X-29.111 Y29.64
X-29.103 Y29.49
X-29.064 Y29.345
X-28.99 Y29.214
X-28.892 Y29.101
X-28.77 Y29.014
X-28.632 Y28.954
X-28.485 Y28.926
X-28.335 Y28.929
X-28.189 Y28.963
X-28.051 Y29.024
X-27.93 Y29.111
X-27.825 Y29.219
X-27.745 Y29.346
X-27.687 Y29.484
X-27.658 Y29.631
X-27.653 Y29.781
X-27.677 Y29.929
X-27.724 Y30.072
X-27.796 Y30.203
X-27.888 Y30.322
X-27.999 Y30.422
X-28.125 Y30.503
X-28.263 Y30.563
X-28.409 Y30.599
X-28.558 Y30.612
X-28.708 Y30.601
X-28.854 Y30.568
X-28.993 Y30.512
X-29.122 Y30.435
X-29.238 Y30.341
X-29.339 Y30.229
X-29.422 Y30.104
X-29.486 Y29.969
X-29.53 Y29.825
X-29.554 Y29.677
X-29.557 Y29.527
X-29.539 Y29.378
X-29.501 Y29.233
X-29.444 Y29.095
X-29.369 Y28.965
X-29.276 Y28.847
X-29.17 Y28.741
X-29.05 Y28.651
X-28.919 Y28.578
X-28.78 Y28.522
X-28.634 Y28.485
X-28.485 Y28.466
X-28.335
X-28.187 Y28.486
X-28.041 Y28.523
X-27.902 Y28.579
X-27.77 Y28.65
X-27.648 Y28.737
X-27.538 Y28.839
X-27.44 Y28.953
X-27.356 Y29.077
X-27.288 Y29.211
X-27.235 Y29.351
X-27.199 Y29.497
X-27.181 Y29.646
X-27.179 Y29.796
X-27.194 Y29.945
X-27.226 Y30.091
X-27.274 Y30.234
X-27.338 Y30.369
X-27.416 Y30.497
X-27.508 Y30.616
X-27.612 Y30.724
X-27.727 Y30.82
X-27.852 Y30.903
X-27.985 Y30.972
X-28.125 Y31.026
X-28.27 Y31.066
X-28.418 Y31.089
X-28.568 Y31.097
X-28.718 Y31.09
X-28.866 Y31.067
X-29.011 Y31.029
X-29.151 Y30.977
X-29.286 Y30.91
X-29.412 Y30.829
X-29.531 Y30.737
X-29.639 Y30.633
X-29.736 Y30.519
X-29.822 Y30.396
X-29.895 Y30.265
X-29.954 Y30.127
X-30.001 Y29.984
X-30.033 Y29.838
X-30.051 Y29.689
X-30.055 Y29.539
X-30.044 Y29.389
X-30.02 Y29.242
X-29.981 Y29.097
X-29.93 Y28.956
X-29.865 Y28.82
X-29.787 Y28.692
X-29.699 Y28.571
X-29.6 Y28.458
X-29.49 Y28.356
X-29.372 Y28.264
X-29.246 Y28.183
X-29.112 Y28.114
X-28.974 Y28.057
X-28.83 Y28.012
X-28.683 Y27.981
X-28.535 Y27.964
X-28.385 Y27.959
X-28.235 Y27.968
X-28.086 Y27.99
X-27.941 Y28.024
X-27.798 Y28.072
X-27.661 Y28.131
X-27.529 Y28.203
X-27.403 Y28.285
X-27.285 Y28.377
X-27.176 Y28.48
X-27.075 Y28.591
X-26.984 Y28.711
X-26.904 Y28.838
X-26.835 Y28.971
X-26.777 Y29.109
X-26.731 Y29.252
X-26.696 Y29.398
X-26.674 Y29.546
X-26.664 Y29.696
X-26.667 Y29.846
X-26.682 Y29.996
X-26.709 Y30.144
X-26.747 Y30.289
X-26.797 Y30.43
X-26.861 Y30.571
X-26.933 Y30.702
X-27.016 Y30.827
X-27.11 Y30.947
X-27.216 Y31.061
X-27.327 Y31.163
X-27.445 Y31.256
X-27.574 Y31.341
X-27.712 Y31.417
X-27.852 Y31.48
X-27.995 Y31.531
X-28.147 Y31.571
X-28.303 Y31.6
X-28.459 Y31.616
X-28.613 Y31.619
X-28.77 Y31.61
X-28.929 Y31.588
X-29.086 Y31.552
X-29.237 Y31.506
X-29.382 Y31.447
X-29.526 Y31.376
X-29.666 Y31.292
X-29.799 Y31.196
X-29.921 Y31.093
X-30.035 Y30.98
X-30.141 Y30.856
X-30.239 Y30.721
X-30.326 Y30.577
X-30.4 Y30.431
X-30.462 Y30.28
X-30.512 Y30.121
X-30.55 Y29.957
X-30.574 Y29.79
X-30.585 Y29.62
X-30.583 Y29.45
X-30.567 Y29.284
X-30.537 Y29.119
X-30.494 Y28.953
X-30.437 Y28.79
X-30.367 Y28.632
X-30.284 Y28.48
X-30.19 Y28.335
X-30.085 Y28.2
X-29.97 Y28.073
X-29.844 Y27.955
X-29.706 Y27.846
X-29.56 Y27.747
X-29.406 Y27.661
X-29.245 Y27.587
X-29.078 Y27.526
X-28.908 Y27.479
X-28.736 Y27.446
X-28.56 Y27.426
X-28.381 Y27.421
X-28.201 Y27.43
X-28.022 Y27.454
X-27.845 Y27.492
X-27.67 Y27.545
X-27.499 Y27.611
X-27.335 Y27.691
X-27.177 Y27.785
X-27.026 Y27.891
X-26.885 Y28.009
X-26.754 Y28.137
X-26.632 Y28.277
X-26.522 Y28.426
X-26.424 Y28.584
X-26.338 Y28.75
X-26.266 Y28.924
X-26.207 Y29.104
X-26.164 Y29.288
X-26.134 Y29.475
X-26.12 Y29.666
X-26.122 Y29.857
X-26.138 Y30.047
X-26.171 Y30.237
X-26.218 Y30.424
X-26.28 Y30.606
X-26.357 Y30.784
X-26.448 Y30.956
X-26.554 Y31.12
X-26.671 Y31.275
X-26.802 Y31.421
X-26.945 Y31.557
X-27.098 Y31.681
X-27.26 Y31.792
X-27.432 Y31.89
X-27.612 Y31.975
X-27.799 Y32.045
X-27.991 Y32.099
X-28.187 Y32.139
X-28.386 Y32.162
X-28.588 Y32.17
X-28.79 Y32.161
X-28.99 Y32.136
X-29.188 Y32.095
X-29.384 Y32.038
X-29.575 Y31.965
X-29.76 Y31.877
X-29.937 Y31.774
X-30.106 Y31.658
X-30.266 Y31.527
X-30.416 Y31.382
X-30.554 Y31.226
X-30.679 Y31.06
X-30.79 Y30.883
X-30.888 Y30.698
X-30.971 Y30.504
X-31.038 Y30.303
X-31.089 Y30.097
X-31.123 Y29.887
X-31.14 Y29.676
X-31.141 Y29.462
X-31.124 Y29.249
X-31.089 Y29.037
X-31.038 Y28.827
X-30.97 Y28.622
X-30.886 Y28.423
X-30.786 Y28.231
X-30.671 Y28.048
X-30.541 Y27.873
X-30.396 Y27.709
X-30.239 Y27.557
X-30.069 Y27.417
X-29.888 Y27.291
X-29.697 Y27.18
X-29.498 Y27.085
X-29.292 Y27.005
X-29.079 Y26.943
X-28.861 Y26.897
X-28.64 Y26.869
X-28.416 Y26.859
X-28.191 Y26.867
X-27.967 Y26.893
X-27.745 Y26.937
X-27.526 Y26.998
X-27.313 Y27.078
X-27.106 Y27.174
X-26.908 Y27.287
X-26.719 Y27.416
X-26.54 Y27.559
X-26.373 Y27.717
X-26.219 Y27.889
X-26.079 Y28.072
X-25.953 Y28.267
X-25.844 Y28.472
X-25.75 Y28.686
X-25.675 Y28.907
X-25.616 Y29.134
X-25.577 Y29.366
X-25.555 Y29.601
X-25.553 Y29.837
X-25.57 Y30.074
X-25.606 Y30.308
X-25.66 Y30.54
X-25.734 Y30.767
X-25.825 Y30.988
X-25.934 Y31.202
X-26.06 Y31.406
X-26.203 Y31.6
X-26.361 Y31.783
X-26.533 Y31.953
X-26.719 Y32.108
X-26.918 Y32.249
X-27.127 Y32.373
X-27.347 Y32.481
X-27.574 Y32.57
X-27.809 Y32.641
X-28.05 Y32.694
X-28.294 Y32.727
X-28.54 Y32.74
X-28.788 Y32.733
X-29.034 Y32.707
X-29.279 Y32.661
X-29.519 Y32.595
X-29.754 Y32.51
X-29.982 Y32.406
X-30.201 Y32.283
X-30.411 Y32.143
X-30.609 Y31.986
X-30.794 Y31.814
X-30.965 Y31.627
X-31.121 Y31.426
X-31.261 Y31.213
X-31.384 Y30.988
X-31.489 Y30.753
X-31.574 Y30.511
X-31.64 Y30.262
X-31.686 Y30.008
X-31.711 Y29.75
X-31.716 Y29.491
X-31.699 Y29.231
X-31.662 Y28.973
X-31.604 Y28.718
X-31.526 Y28.468
X-31.428 Y28.225
X-31.31 Y27.99
X-31.174 Y27.765
X-31.02 Y27.551
X-30.848 Y27.35
X-30.66 Y27.162
X-30.458 Y26.99
X-30.242 Y26.834
X-30.014 Y26.696
X-29.775 Y26.577
X-29.527 Y26.477
X-29.271 Y26.397
X-29.008 Y26.337
X-28.742 Y26.299
X-28.472 Y26.282
X-28.201 Y26.287
X-27.93 Y26.314
X-27.662 Y26.363
X-27.398 Y26.433
X-27.14 Y26.524
X-26.89 Y26.636
X-26.649 Y26.768
X-26.419 Y26.919
X-26.201 Y27.088
X-25.997 Y27.274
X-25.809 Y27.477
X-25.637 Y27.695
X-25.482 Y27.927
X-25.346 Y28.17
X-25.231 Y28.425
X-25.135 Y28.688
X-25.061 Y28.959
X-25.009 Y29.236
X-24.995 Y29.366
X-24.994 Y29.397
X-24.997 Y29.556
X-24.999 Y29.687
X-24.996 Y29.763
X-25.001 Y30.039
X-25.026 Y30.297
X-25.074 Y30.559
X-25.143 Y30.822
X-25.235 Y31.082
X-25.348 Y31.336
X-25.483 Y31.583
X-25.638 Y31.82
X-25.813 Y32.045
X-26.007 Y32.256
X-26.217 Y32.453
X-26.444 Y32.632
X-26.685 Y32.793
X-26.939 Y32.934
X-27.203 Y33.055
X-27.415 Y33.132
X-27.456 Y33.144
X-27.498 Y33.151
X-27.541 Y33.154
G3 X-27.663 Y32.901 I0.006 J-0.159
G1 X-27.401 Y32.546
X-25.519 Y30.
X-25.282 Y29.679
G3 X-24.996 Y29.763 I0.128 J0.094
G1 X-24.986 Y30.082
X-24.954 Y30.476
X-24.939 Y30.608
X-24.906 Y30.871
X-24.888 Y31.002
X-24.871 Y31.151
X-24.883 Y31.301
X-24.91 Y31.448
X-24.951 Y31.596
X-25.015 Y31.77
X-25.095 Y31.944
X-25.206 Y32.143
X-25.348 Y32.354
X-25.51 Y32.557
X-25.703 Y32.763
X-25.926 Y32.966
X-26.069 Y33.076
X-26.138 Y33.119
X-26.214 Y33.145
X-26.295 Y33.154
G3 X-26.423 Y32.91 I0.006 J-0.159
G1 X-26.181 Y32.529
X-25.396 Y31.293
X-25.178 Y30.948
G3 X-24.888 Y31.002 I0.134 J0.085
G1 X-24.865 Y31.144
X-24.82 Y31.397
X-24.749 Y31.732
X-24.725 Y31.88
X-24.732 Y32.03
X-24.757 Y32.178
X-24.8 Y32.322
X-24.854 Y32.462
X-24.932 Y32.621
X-25.031 Y32.788
X-25.157 Y32.967
X-25.202 Y33.021
X-25.282 Y33.092
X-25.38 Y33.138
X-25.486 Y33.154
G3 X-25.624 Y32.927 I0.006 J-0.159
G1 X-25.423 Y32.501
X-25.215 Y32.06
X-25.047 Y31.703
G3 X-24.749 Y31.732 I0.144 J0.068
G1 X-24.733 Y31.807
X-24.639 Y32.186
X-24.602 Y32.315
X-24.563 Y32.46
X-24.557 Y32.61
X-24.575 Y32.759
X-24.612 Y32.904
X-24.618 Y32.921
X-24.698 Y33.043
X-24.819 Y33.125
X-24.962 Y33.154
G3 X-25.108 Y32.946 I0.006 J-0.159
G1 X-25.024 Y32.691
X-24.902 Y32.319
G3 X-24.602 Y32.315 I0.151 J0.049
G1 X-24.558 Y32.449
X-24.47 Y32.624
X-24.438 Y32.672
X-24.363 Y32.802
X-24.37 Y32.932
X-24.431 Y33.047
X-24.535 Y33.126
X-24.663 Y33.154
G3 X-24.805 Y32.938 I0.006 J-0.159
G1 X-24.716 Y32.707
G3 X-24.438 Y32.672 I0.148 J0.057
G1 X-24.412 Y32.712
X-24.339 Y32.809
X-24.308 Y32.843
X-24.277 Y32.876
X-24.265 Y32.893
X-24.252 Y32.919
X-24.244 Y32.942
X-24.246 Y32.981
X-24.262 Y33.016
X-24.29 Y33.044
X-24.326 Y33.058
X-24.364 Y33.059
X-24.401 Y33.045
X-24.43 Y33.019
X-24.447 Y32.984
X-24.45 Y32.945
X-24.438 Y32.908
X-24.414 Y32.878
X-24.38 Y32.859
X-24.342 Y32.853
X-24.313 Y32.859
X-24.286 Y32.872
X-24.265 Y32.893
X-24.256 Y32.909
X-24.249 Y32.926
X-24.244 Y32.942
X-24.241 Y32.959
X-24.24 Y32.975
Y32.991
X-24.242 Y33.008
X-24.247 Y33.024
X-24.253 Y33.041
X-24.261 Y33.057
X-24.272 Y33.074
X-24.302 Y33.106
X-24.32 Y33.122
X-24.339 Y33.134
X-24.355 Y33.142
X-24.371 Y33.148
X-24.388 Y33.151
X-24.404 Y33.153
X-29.205 Y33.154
X-29.356 Y33.146
X-29.547 Y33.121
X-29.739 Y33.08
X-29.952 Y33.016
X-30.177 Y32.928
X-30.409 Y32.816
X-30.64 Y32.68
X-30.865 Y32.522
X-31.08 Y32.343
X-31.285 Y32.143
X-31.477 Y31.923
X-31.654 Y31.685
X-31.812 Y31.431
X-31.95 Y31.163
X-31.985 Y31.079
X-32.001 Y31.033
X-32.01 Y30.985
X-32.014 Y30.936
G3 X-31.758 Y30.816 I0.159 J0.006
G1 X-31.413 Y31.084
X-29.426 Y32.626
X-29.113 Y32.87
G3 X-29.205 Y33.154 I-0.097 J0.125
G1 X-30.388
X-30.538 Y33.146
X-30.686 Y33.12
X-30.829 Y33.076
X-30.968 Y33.02
X-31.13 Y32.939
X-31.291 Y32.842
X-31.47 Y32.713
X-31.662 Y32.549
X-31.846 Y32.364
X-31.925 Y32.271
X-31.974 Y32.198
X-32.003 Y32.117
X-32.014 Y32.031
G3 X-31.768 Y31.904 I0.159 J0.006
G1 X-31.392 Y32.15
X-30.628 Y32.651
X-30.307 Y32.862
X-30.277 Y32.888
X-30.254 Y32.92
X-30.24 Y32.956
X-30.235 Y32.995
X-30.242 Y33.043
X-30.264 Y33.087
X-30.298 Y33.122
X-30.34 Y33.145
X-30.388 Y33.154
X-31.25
X-31.399 Y33.146
X-31.546 Y33.115
X-31.687 Y33.064
X-31.823 Y32.999
X-31.835 Y32.992
X-31.93 Y32.909
X-31.992 Y32.799
X-32.014 Y32.675
G3 X-31.781 Y32.54 I0.159 J0.006
G1 X-31.508 Y32.683
X-31.181 Y32.854
G3 X-31.25 Y33.154 I-0.074 J0.141
G1 X-31.835
X-31.864 Y33.152
X-31.878 Y33.148
X-31.893 Y33.144
X-31.907 Y33.138
X-31.922 Y33.13
X-31.936 Y33.119
X-31.951 Y33.106
X-31.966 Y33.091
X-31.979 Y33.077
X-31.99 Y33.062
X-31.998 Y33.048
X-32.004 Y33.033
X-32.008 Y33.019
X-32.011 Y33.004
X-32.014 Y32.975
Y28.635
X-32.006 Y28.485
X-31.983 Y28.327
X-31.942 Y28.15
X-31.883 Y27.967
X-31.799 Y27.762
X-31.689 Y27.545
X-31.558 Y27.33
X-31.402 Y27.116
X-31.219 Y26.903
X-31.011 Y26.697
X-30.782 Y26.504
X-30.535 Y26.327
X-30.271 Y26.169
X-30.061 Y26.065
X-29.992 Y26.039
X-29.92 Y26.028
X-29.846 Y26.03
G3 X-29.75 Y26.287 I-0.027 J0.156
G1 X-30.037 Y26.64
X-31.479 Y28.419
X-31.732 Y28.73
G3 X-32.014 Y28.635 I-0.123 J-0.1
G1 Y27.583
X-32.006 Y27.433
X-31.982 Y27.285
X-31.94 Y27.141
X-31.884 Y27.002
X-31.805 Y26.847
X-31.712 Y26.694
X-31.584 Y26.519
X-31.425 Y26.333
X-31.245 Y26.155
X-31.027 Y25.971
X-30.971 Y25.931
X-30.877 Y25.883
X-30.773 Y25.863
X-30.667 Y25.873
G3 X-30.578 Y26.122 I-0.038 J0.154
G1 X-30.86 Y26.502
X-31.493 Y27.356
X-31.727 Y27.672
G3 X-32.014 Y27.583 I-0.128 J-0.095
G1 Y26.722
X-32.006 Y26.572
X-31.974 Y26.425
X-31.922 Y26.285
X-31.855 Y26.15
X-31.774 Y26.016
X-31.685 Y25.895
X-31.629 Y25.831
X-31.516 Y25.743
X-31.379 Y25.705
X-31.237 Y25.722
X-31.195 Y25.745
X-31.161 Y25.779
X-31.14 Y25.822
X-31.132 Y25.869
X-31.138 Y25.916
X-31.159 Y25.959
X-31.435 Y26.373
X-31.509 Y26.483
X-31.723 Y26.804
G3 X-32.014 Y26.722 I-0.132 J-0.088
G1 Y26.005
X-32.006 Y25.855
X-32. Y25.834
X-31.921 Y25.695
X-31.791 Y25.603
X-31.634 Y25.573
X-31.479 Y25.613
G3 X-31.454 Y25.874 I-0.076 J0.139
G1 X-31.754 Y26.122
G3 X-32.014 Y26.005 I-0.101 J-0.122
G1 Y25.669
Y25.637
Y25.61
X-32.011 Y25.563
X-31.947 Y25.485
X-31.856 Y25.441
X-31.754
X-31.663 Y25.483
X-31.631 Y25.517
X-31.61 Y25.559
X-31.602 Y25.605
X-31.606 Y25.651
G3 X-32.014 Y25.61 I-0.201 J-0.048
G1 X-32.013 Y25.544
X-32.011 Y25.528
X-32.007 Y25.512
X-32.002 Y25.495
X-31.994 Y25.479
X-31.982 Y25.46
X-31.966 Y25.442
X-31.933 Y25.412
X-31.917 Y25.401
X-31.901 Y25.393
X-31.884 Y25.387
X-31.868 Y25.383
X-31.851 Y25.38
X-31.835
X-31.818 Y25.381
X-31.802 Y25.384
X-31.786 Y25.389
X-31.769 Y25.396
X-31.753 Y25.405
X-31.736 Y25.417
X-31.703 Y25.448
X-31.668 Y25.479
X-31.572 Y25.553
X-31.484 Y25.61
X-31.309 Y25.699
X-31.175 Y25.742
X-31.046 Y25.779
X-30.667 Y25.873
X-30.257 Y25.96
X-29.994 Y26.007
X-29.862 Y26.028
X-29.731 Y26.046
X-29.468 Y26.08
X-29.336 Y26.094
X-28.942 Y26.126
X-28.547 Y26.139
X-28.351 Y26.136
X-28.152 Y26.133
X-28.021 Y26.127
X-27.758 Y26.109
X-27.626 Y26.097
X-27.495 Y26.08
X-27.345 Y26.068
X-27.195
X-27.046 Y26.084
X-26.899 Y26.114
X-26.722 Y26.164
X-26.544 Y26.23
X-26.346 Y26.323
X-26.132 Y26.445
X-25.914 Y26.593
X-25.704 Y26.762
X-25.495 Y26.96
X-25.294 Y27.184
X-25.106 Y27.43
X-24.935 Y27.696
X-24.879 Y27.802
X-24.847 Y27.882
X-24.835 Y27.968
X-24.843 Y28.054
G3 X-25.09 Y28.144 I-0.154 J-0.039
G1 X-25.476 Y27.866
X-27.227 Y26.606
X-27.562 Y26.365
G3 X-27.495 Y26.08 I0.093 J-0.129
G1 X-27.232 Y26.045
X-27.1 Y26.022
X-26.969 Y25.995
X-26.837 Y25.967
X-26.706 Y25.932
X-26.56 Y25.899
X-26.41 Y25.897
X-26.261 Y25.915
X-26.115 Y25.949
X-25.964 Y26.
X-25.814 Y26.064
X-25.636 Y26.158
X-25.455 Y26.273
X-25.264 Y26.417
X-25.059 Y26.599
X-24.851 Y26.816
X-24.693 Y27.011
X-24.682 Y27.027
X-24.631 Y27.135
X-24.617 Y27.253
X-24.641 Y27.37
X-24.665 Y27.409
X-24.7 Y27.44
X-24.741 Y27.46
X-24.787 Y27.466
X-24.833 Y27.46
X-24.874 Y27.441
X-25.299 Y27.162
X-26.387 Y26.45
X-26.745 Y26.216
X-26.775 Y26.191
X-26.797 Y26.159
X-26.812 Y26.122
X-26.817 Y26.083
X-26.809 Y26.034
X-26.786 Y25.989
X-26.75 Y25.954
X-26.706 Y25.932
X-26.443 Y25.858
X-26.311 Y25.813
X-26.151 Y25.751
X-26.008 Y25.704
X-25.859 Y25.688
X-25.709 Y25.697
X-25.562 Y25.725
X-25.418 Y25.768
X-25.267 Y25.829
X-25.118 Y25.904
X-24.942 Y26.01
X-24.761 Y26.141
X-24.622 Y26.259
X-24.511 Y26.37
X-24.451 Y26.441
X-24.377 Y26.577
X-24.366 Y26.731
X-24.418 Y26.876
X-24.45 Y26.911
X-24.491 Y26.935
X-24.538 Y26.946
X-24.585 Y26.942
X-24.63 Y26.925
X-25.102 Y26.651
X-25.792 Y26.252
X-26.168 Y26.034
G3 X-26.151 Y25.751 I0.08 J-0.137
G1 X-26.048 Y25.711
X-25.917 Y25.655
X-25.826 Y25.61
X-25.785 Y25.589
X-25.713 Y25.544
X-25.582 Y25.472
X-25.435 Y25.439
X-25.285 Y25.433
X-25.136 Y25.448
X-24.99 Y25.481
X-24.847 Y25.528
X-24.71 Y25.587
X-24.574 Y25.659
X-24.448 Y25.739
X-24.329 Y25.832
X-24.22 Y25.935
X-24.161 Y26.005
X-24.087 Y26.146
X-24.079 Y26.305
X-24.139 Y26.453
X-24.171 Y26.485
X-24.209 Y26.507
X-24.252 Y26.517
X-24.296 Y26.515
X-24.338 Y26.501
X-24.842 Y26.247
X-25.29 Y26.022
X-25.696 Y25.818
G3 X-25.713 Y25.544 I0.071 J-0.142
G1 X-25.607 Y25.479
X-25.522 Y25.424
X-25.318 Y25.283
X-25.191 Y25.204
X-25.048 Y25.158
X-24.899 Y25.14
X-24.749 Y25.146
X-24.601 Y25.17
X-24.457 Y25.211
X-24.318 Y25.268
X-24.185 Y25.338
X-24.061 Y25.422
X-23.948 Y25.52
X-23.888 Y25.586
X-23.808 Y25.729
X-23.797 Y25.893
X-23.858 Y26.045
X-23.888 Y26.075
X-23.924 Y26.097
X-23.965 Y26.108
X-24.008 Y26.107
X-24.049 Y26.096
X-24.573 Y25.867
X-24.872 Y25.737
X-25.287 Y25.556
G3 X-25.318 Y25.283 I0.063 J-0.146
G1 X-24.865 Y24.97
X-24.737 Y24.891
X-24.593 Y24.851
X-24.443 Y24.838
X-24.294 Y24.849
X-24.147 Y24.881
X-24.005 Y24.93
X-23.871 Y24.997
X-23.747 Y25.081
X-23.634 Y25.179
X-23.609 Y25.209
X-23.537 Y25.35
X-23.529 Y25.508
X-23.589 Y25.654
X-23.619 Y25.685
X-23.655 Y25.707
X-23.697 Y25.718
X-23.739 Y25.717
X-23.78 Y25.706
X-24.304 Y25.476
X-24.418 Y25.426
X-24.834 Y25.243
G3 X-24.865 Y24.97 I0.064 J-0.145
G1 X-24.457 Y24.69
X-24.421 Y24.667
X-24.396 Y24.652
X-24.323 Y24.612
X-24.292 Y24.598
X-24.267 Y24.592
X-24.241 Y24.589
X-24.24
G3 X-24.166 Y24.888 I0. J0.159
G1 X-24.233 Y24.924
G3 X-24.396 Y24.652 I-0.074 J-0.14
G1 X-24.339 Y24.616
X-24.271 Y24.59
X-24.236 Y24.576
X-24.207 Y24.565
X-24.135 Y24.553
X-24.111 Y24.555
X-24.09 Y24.566
X-24.075 Y24.585
X-24.069 Y24.609
X-24.072 Y24.65
X-24.086 Y24.689
X-24.11 Y24.722
X-24.489 Y25.141
X-24.587 Y25.249
G3 X-24.83 Y25.044 I-0.118 J-0.107
X-24.207 Y24.565 I1.246 J0.975
G1 X-24.176 Y24.558
X-24.107 Y24.55
X-24.076 Y24.546
X-24.01
X-23.944 Y24.553
X-23.915 Y24.558
X-23.864 Y24.572
X-23.813 Y24.589
X-23.747 Y24.619
X-23.681 Y24.659
X-23.641 Y24.69
X-23.59 Y24.736
X-23.55 Y24.781
X-23.518 Y24.821
X-23.479 Y24.887
X-23.449 Y24.953
X-23.432 Y25.004
X-23.418 Y25.055
X-23.413 Y25.084
X-23.406 Y25.15
Y25.216
X-23.418 Y25.316
X-23.425 Y25.347
X-23.476 Y25.479
X-23.55 Y25.597
X-23.83 Y26.005
X-24.284 Y26.662
X-24.339 Y26.748
X-24.449 Y26.925
X-24.47 Y26.966
X-24.515 Y27.057
X-24.571 Y27.188
X-24.673 Y27.451
X-24.718 Y27.583
X-24.792 Y27.846
X-24.827 Y27.977
X-24.865 Y28.153
X-24.882 Y28.24
X-24.905 Y28.372
X-24.957 Y28.767
X-24.968 Y28.898
X-24.986 Y29.161
X-24.993 Y29.293
X-24.994 Y29.397
X-25.004 Y29.444
X-25.027 Y29.485
X-25.062 Y29.518
X-25.105 Y29.54
X-25.152 Y29.547
X-25.153
G3 X-25.257 Y29.268 I0. J-0.159
G1 X-25.222 Y29.254 Z4.618
X-25.189 Y29.241 Z4.632
X-25.16 Y29.23 Z4.654
X-25.153 Z4.66
X-25.129 Y29.233 Z4.693
X-25.113 Y29.235 Z4.731
X-25.108 Y29.236 Z4.772
G0 Z10.363
X-16.514 Y3.749
Z7.863
G1 Z4.613 F51.
X-16.481 Y3.768 F356.
X-16.506 Y3.796
X-16.544 Y3.793
X-16.569 Y3.765
X-16.571 Y3.728
X-16.55 Y3.697
X-16.517 Y3.679
X-16.479 Y3.675
X-16.443 Y3.685
X-16.414 Y3.709
X-16.397 Y3.742
X-16.39 Y3.779
X-16.395 Y3.816
X-16.428 Y3.884
X-16.489 Y3.927
X-16.563 Y3.938
X-16.635 Y3.917
X-16.695 Y3.871
X-16.733 Y3.807
X-16.748 Y3.734
X-16.739 Y3.659
X-16.708 Y3.591
X-16.66 Y3.534
X-16.597 Y3.492
X-16.455 Y3.445
X-16.308 Y3.475
X-16.19 Y3.567
X-16.121 Y3.7
X-16.105 Y3.849
X-16.142 Y3.995
X-16.228 Y4.118
X-16.348 Y4.207
X-16.491 Y4.254
X-16.641 Y4.256
X-16.784 Y4.213
X-16.91 Y4.13
X-17.007 Y4.016
X-17.071 Y3.88
X-17.097 Y3.733
X-17.085 Y3.583
X-17.036 Y3.442
X-16.954 Y3.316
X-16.848 Y3.21
X-16.719 Y3.133
X-16.577 Y3.084
X-16.428 Y3.069
X-16.279 Y3.086
X-16.137 Y3.134
X-16.008 Y3.211
X-15.899 Y3.313
X-15.81 Y3.434
X-15.748 Y3.571
X-15.711 Y3.716
X-15.704 Y3.866
X-15.723 Y4.015
X-15.771 Y4.157
X-15.841 Y4.29
X-15.935 Y4.407
X-16.047 Y4.507
X-16.175 Y4.585
X-16.314 Y4.642
X-16.46 Y4.674
X-16.61 Y4.681
X-16.759 Y4.665
X-16.903 Y4.623
X-17.04 Y4.561
X-17.164 Y4.476
X-17.274 Y4.375
X-17.367 Y4.257
X-17.441 Y4.126
X-17.495 Y3.986
X-17.526 Y3.84
X-17.537 Y3.69
X-17.525 Y3.541
X-17.491 Y3.394
X-17.439 Y3.254
X-17.366 Y3.123
X-17.277 Y3.002
X-17.172 Y2.895
X-17.053 Y2.803
X-16.924 Y2.728
X-16.784 Y2.672
X-16.64 Y2.633
X-16.491 Y2.615
X-16.341 Y2.617
X-16.192 Y2.637
X-16.048 Y2.677
X-15.909 Y2.735
X-15.779 Y2.81
X-15.66 Y2.901
X-15.552 Y3.005
X-15.459 Y3.123
X-15.38 Y3.251
X-15.318 Y3.387
X-15.272 Y3.53
X-15.244 Y3.677
X-15.233 Y3.827
X-15.241 Y3.977
X-15.265 Y4.125
X-15.306 Y4.269
X-15.364 Y4.407
X-15.437 Y4.538
X-15.524 Y4.66
X-15.625 Y4.771
X-15.737 Y4.871
X-15.86 Y4.957
X-15.992 Y5.029
X-16.13 Y5.086
X-16.274 Y5.128
X-16.422 Y5.154
X-16.572 Y5.164
X-16.722 Y5.157
X-16.87 Y5.135
X-17.015 Y5.097
X-17.156 Y5.044
X-17.289 Y4.977
X-17.416 Y4.896
X-17.533 Y4.802
X-17.64 Y4.697
X-17.736 Y4.582
X-17.819 Y4.457
X-17.889 Y4.324
X-17.946 Y4.185
X-17.988 Y4.041
X-18.015 Y3.894
X-18.028 Y3.744
X-18.026 Y3.594
X-18.01 Y3.445
X-17.979 Y3.298
X-17.934 Y3.155
X-17.875 Y3.017
X-17.804 Y2.885
X-17.721 Y2.76
X-17.626 Y2.644
X-17.52 Y2.538
X-17.405 Y2.441
X-17.282 Y2.356
X-17.151 Y2.283
X-17.014 Y2.222
X-16.872 Y2.174
X-16.827 Y2.164
X-16.799 Y2.158
X-16.771 Y2.155
X-16.742 Y2.154
X-16.316
X-16.167 Y2.161
X-16.018 Y2.185
X-15.874 Y2.224
X-15.733 Y2.276
X-15.598 Y2.342
X-15.47 Y2.42
X-15.35 Y2.51
X-15.238 Y2.61
X-15.135 Y2.719
X-15.043 Y2.838
X-14.962 Y2.964
X-14.892 Y3.096
X-14.833 Y3.234
X-14.787 Y3.377
X-14.753 Y3.523
X-14.732 Y3.671
X-14.724 Y3.803
X-14.729 Y3.887
X-14.753 Y3.968
X-14.795 Y4.042
X-14.829 Y4.074
X-14.871 Y4.095
X-14.917 Y4.103
X-14.963 Y4.097
X-15.005 Y4.078
X-15.041 Y4.047
X-15.368 Y3.663
X-16.153 Y2.742
X-16.432 Y2.415
G3 X-16.316 Y2.154 I0.121 J-0.103
G1 X-15.455
X-15.305 Y2.161
X-15.161 Y2.203
X-15.025 Y2.266
X-14.899 Y2.347
X-14.782 Y2.442
X-14.676 Y2.548
X-14.581 Y2.664
X-14.496 Y2.787
X-14.421 Y2.918
X-14.356 Y3.058
X-14.315 Y3.166
X-14.291 Y3.296
X-14.315 Y3.426
X-14.382 Y3.54
X-14.417 Y3.568
X-14.458 Y3.585
X-14.502 Y3.59
X-14.546 Y3.583
X-14.586 Y3.564
X-14.619 Y3.534
X-14.955 Y3.14
X-15.292 Y2.743
X-15.57 Y2.415
G3 X-15.455 Y2.154 I0.121 J-0.103
G1 X-14.87
X-14.72 Y2.161
X-14.575 Y2.201
X-14.44 Y2.266
X-14.316 Y2.35
X-14.203 Y2.449
X-14.102 Y2.56
X-14.015 Y2.682
X-13.982 Y2.741
X-13.936 Y2.893
X-13.958 Y3.05
X-14.043 Y3.183
X-14.084 Y3.211
X-14.132 Y3.225
X-14.181 Y3.223
X-14.228 Y3.206
X-14.267 Y3.176
X-14.636 Y2.786
X-14.69 Y2.728
X-14.98 Y2.421
G3 X-14.87 Y2.154 I0.115 J-0.109
G1 X-14.304
X-14.154 Y2.161
X-14.01 Y2.204
X-13.878 Y2.275
X-13.763 Y2.371
X-13.73 Y2.41
X-13.662 Y2.534
X-13.645 Y2.674
X-13.682 Y2.811
X-13.767 Y2.923
X-13.809 Y2.948
X-13.857 Y2.96
X-13.906 Y2.956
X-13.951 Y2.937
X-13.989 Y2.906
X-14.136 Y2.738
X-14.418 Y2.417
G3 X-14.304 Y2.154 I0.119 J-0.105
G1 X-13.818
X-13.668 Y2.161
X-13.552 Y2.244
X-13.478 Y2.365
X-13.457 Y2.506
X-13.493 Y2.643
X-13.579 Y2.756
G3 X-13.826 Y2.694 I-0.1 J-0.123
G1 X-13.959 Y2.373
G3 X-13.818 Y2.154 I0.147 J-0.061
G1 X-13.515
X-13.44 Y2.157
X-13.342 Y2.243
X-13.297 Y2.365
X-13.315 Y2.494
X-13.391 Y2.599
X-13.437 Y2.625
X-13.487 Y2.639
X-13.539 Y2.638
G3 X-13.515 Y2.154 I0.033 J-0.241
G1 X-13.423
X-13.351 Y2.155
X-13.318 Y2.156
X-13.292
X-13.256 Y2.167
X-13.249 Y2.17
X-13.225 Y2.194
X-13.213 Y2.226
X-13.215 Y2.261
X-13.232 Y2.291
X-13.259 Y2.311
X-13.292 Y2.318
X-13.326 Y2.311
X-13.353 Y2.29
X-13.37 Y2.26
X-13.372 Y2.226
X-13.36 Y2.194
X-13.342 Y2.174
X-13.318 Y2.161
X-13.292 Y2.156
X-13.27 Y2.161
X-13.249 Y2.17
X-13.227 Y2.183
X-13.217 Y2.191
X-13.206 Y2.201
X-13.191 Y2.219
X-13.168 Y2.254
X-13.16 Y2.272
X-13.155 Y2.287
X-13.152 Y2.302
X-13.15 Y2.317
X-13.149 Y2.332
X-13.152 Y2.36
X-13.155 Y2.373
X-13.16 Y2.387
X-13.169 Y2.406
X-13.182 Y2.426
X-13.191 Y2.437
X-13.202 Y2.448
X-13.387 Y2.596
X-13.555 Y2.735
X-13.695 Y2.859
X-13.818 Y2.968
X-13.981 Y3.122
X-14.212 Y3.354
X-14.361 Y3.516
X-14.476 Y3.648
X-14.738 Y3.968
X-14.795 Y4.042
X-14.87 Y4.145
X-15.001 Y4.337
X-15.067 Y4.437
X-15.264 Y4.772
X-15.297 Y4.831
X-15.33 Y4.904
X-15.399 Y5.037
X-15.483 Y5.161
X-15.584 Y5.272
X-15.698 Y5.369
X-15.823 Y5.452
X-15.957 Y5.521
X-16.096 Y5.576
X-16.24 Y5.619
X-16.387 Y5.647
X-16.536 Y5.662
X-16.686 Y5.665
X-16.836 Y5.655
X-16.984 Y5.632
X-17.133 Y5.597
X-17.279 Y5.549
X-17.313 Y5.535
X-17.403 Y5.482
X-17.474 Y5.406
X-17.522 Y5.312
X-17.528 Y5.27
X-17.523 Y5.227
X-17.507 Y5.186
X-17.48 Y5.152
X-17.445 Y5.127
X-17.404 Y5.112
X-16.892 Y4.997
X-15.939 Y4.784
X-15.511 Y4.688
G3 X-15.33 Y4.904 I0.035 J0.155
G1 X-15.476 Y5.226
X-15.521 Y5.357
X-15.56 Y5.489
X-15.61 Y5.63
X-15.697 Y5.752
X-15.805 Y5.857
X-15.927 Y5.945
X-16.058 Y6.016
X-16.197 Y6.073
X-16.341 Y6.116
X-16.488 Y6.145
X-16.638 Y6.161
X-16.798 Y6.165
X-16.948 Y6.157
X-17.096 Y6.136
X-17.102 Y6.135
X-17.231 Y6.076
X-17.328 Y5.974
X-17.38 Y5.842
Y5.795
X-17.366 Y5.751
X-17.34 Y5.712
X-17.304 Y5.682
X-17.261 Y5.664
X-16.726 Y5.533
X-16.196 Y5.403
X-15.752 Y5.294
G3 X-15.56 Y5.489 I0.038 J0.154
G1 X-15.6 Y5.62
X-15.631 Y5.752
X-15.659 Y5.904
X-15.693 Y6.05
X-15.763 Y6.183
X-15.858 Y6.299
X-15.972 Y6.396
X-16.099 Y6.477
X-16.234 Y6.542
X-16.375 Y6.593
X-16.52 Y6.63
X-16.668 Y6.654
X-16.818 Y6.662
X-16.968 Y6.654
X-16.99 Y6.65
X-17.127 Y6.594
X-17.231 Y6.49
X-17.286 Y6.353
Y6.309
X-17.275 Y6.266
X-17.252 Y6.229
X-17.219 Y6.199
X-17.18 Y6.179
X-16.645 Y5.997
X-16.303 Y5.88
X-15.867 Y5.731
G3 X-15.659 Y5.904 I0.051 J0.15
G1 X-15.752 Y6.409
X-15.786 Y6.555
X-15.859 Y6.686
X-15.957 Y6.8
X-16.072 Y6.897
X-16.199 Y6.977
X-16.334 Y7.042
X-16.476 Y7.091
X-16.622 Y7.124
X-16.771 Y7.136
X-16.849 Y7.133
X-17.009 Y7.089
X-17.133 Y6.981
X-17.198 Y6.83
X-17.199 Y6.786
X-17.188 Y6.745
X-17.166 Y6.708
X-17.135 Y6.678
X-17.097 Y6.658
X-16.563 Y6.46
X-16.392 Y6.396
X-15.964 Y6.237
G3 X-15.752 Y6.409 I0.055 J0.149
G1 X-15.843 Y6.909
X-15.878 Y7.055
X-15.952 Y7.185
X-16.051 Y7.298
X-16.167 Y7.393
X-16.295 Y7.47
X-16.433 Y7.529
X-16.579 Y7.566
X-16.641 Y7.573
X-16.736 Y7.572
X-16.827 Y7.547
X-16.909 Y7.5
G3 X-16.891 Y7.242 I0.1 J-0.123
G1 X-16.479 Y6.991
X-16.447 Y6.971
X-16.083 Y6.75
G3 X-15.843 Y6.909 I0.083 J0.136
G1 X-15.872 Y7.067
X-15.903 Y7.198
X-15.922 Y7.248
X-15.963 Y7.33
X-16.003 Y7.389
X-16.053 Y7.448
X-16.068 Y7.461
X-16.185 Y7.55
X-16.267 Y7.593
X-16.316 Y7.611
X-16.382 Y7.629
X-16.448 Y7.639
X-16.579
X-16.645 Y7.629
X-16.711 Y7.611
X-16.76 Y7.593
X-16.842 Y7.55
X-16.959 Y7.461
X-16.974 Y7.448
X-17.024 Y7.389
X-17.064 Y7.33
X-17.105 Y7.248
X-17.124 Y7.198
X-17.155 Y7.067
X-17.397 Y5.752
X-17.428 Y5.62
X-17.506 Y5.357
X-17.551 Y5.226
X-17.73 Y4.831
X-17.763 Y4.772
X-17.96 Y4.437
X-18.048 Y4.305
X-18.158 Y4.145
X-18.232 Y4.042
X-18.317 Y3.919
X-18.38 Y3.782
X-18.42 Y3.638
X-18.44 Y3.489
X-18.442 Y3.339
X-18.427 Y3.19
X-18.398 Y3.043
X-18.356 Y2.899
X-18.301 Y2.759
X-18.234 Y2.625
X-18.155 Y2.493
X-18.062 Y2.365
X-17.994 Y2.284
X-17.914 Y2.214
X-17.817 Y2.169
X-17.711 Y2.154
X-17.666 Y2.162
X-17.624 Y2.184
X-17.591 Y2.216
X-17.568 Y2.257
X-17.559 Y2.303
X-17.563 Y2.35
X-17.681 Y2.84
X-17.854 Y3.557
X-17.955 Y3.979
G3 X-18.232 Y4.042 I-0.154 J-0.037
G1 X-18.289 Y3.968
X-18.552 Y3.646
X-18.615 Y3.575
X-18.707 Y3.457
X-18.765 Y3.319
X-18.798 Y3.172
X-18.809 Y3.023
X-18.801 Y2.873
X-18.777 Y2.725
X-18.738 Y2.58
X-18.686 Y2.439
X-18.651 Y2.365
X-18.569 Y2.253
X-18.453 Y2.18
X-18.317 Y2.154
X-18.273 Y2.161
X-18.233 Y2.181
X-18.2 Y2.211
X-18.177 Y2.249
X-18.165 Y2.292
Y2.336
X-18.243 Y2.848
X-18.277 Y3.065
X-18.342 Y3.49
G3 X-18.615 Y3.575 I-0.157 J-0.024
G1 X-18.666 Y3.516
X-18.815 Y3.354
X-18.947 Y3.221
X-19.047 Y3.109
X-19.114 Y2.975
X-19.152 Y2.83
X-19.168 Y2.681
X-19.161 Y2.531
X-19.147 Y2.455
X-19.102 Y2.336
X-19.019 Y2.239
X-18.909 Y2.176
X-18.783 Y2.154
X-18.741 Y2.161
X-18.703 Y2.179
X-18.671 Y2.206
X-18.647 Y2.24
X-18.633 Y2.28
X-18.63 Y2.322
X-18.653 Y2.688
X-18.68 Y3.114
G3 X-18.947 Y3.221 I-0.158 J-0.01
G1 X-19.046 Y3.122
X-19.21 Y2.968
X-19.277 Y2.908
X-19.383 Y2.802
X-19.456 Y2.671
X-19.492 Y2.525
Y2.52
X-19.463 Y2.379
X-19.382 Y2.261
X-19.263 Y2.182
X-19.122 Y2.154
X-19.079 Y2.161
X-19.04 Y2.18
X-19.008 Y2.208
X-18.984 Y2.244
X-18.971 Y2.285
X-18.969 Y2.328
X-18.973 Y2.363
X-19.017 Y2.802
G3 X-19.277 Y2.908 I-0.158 J-0.016
G1 X-19.341 Y2.85
X-19.482 Y2.727
X-19.579 Y2.646
X-19.635 Y2.595
X-19.672 Y2.479
X-19.659 Y2.357
X-19.598 Y2.251
X-19.499 Y2.179
X-19.379 Y2.154
X-19.32 Y2.163
X-19.265 Y2.186
X-19.217 Y2.222
G3 X-19.579 Y2.646 I-0.192 J0.203
G1 X-19.64 Y2.596
X-19.736 Y2.519
X-19.774 Y2.489
X-19.805 Y2.464
X-19.835 Y2.436
X-19.847 Y2.422
X-19.858 Y2.406
X-19.853 Y2.393
X-19.83 Y2.354
X-19.798 Y2.323
X-19.759 Y2.302
X-19.715 Y2.294
X-19.67 Y2.297
X-19.137 Y2.419
X-19.02 Y2.446
G3 X-19.077 Y2.758 I-0.035 J0.155
X-19.805 Y2.464 I0.21 J-1.569
G1 X-19.825 Y2.448
X-19.836 Y2.437
X-19.846 Y2.426
X-19.858 Y2.406
X-19.867 Y2.387
X-19.872 Y2.373
X-19.875 Y2.36
X-19.873 Y2.311
X-19.86 Y2.263
X-19.837 Y2.219
X-19.822 Y2.217
X-19.703 Y2.205
X-19.582 Y2.207
X-19.55 Y2.215
X-19.521 Y2.233
X-19.499 Y2.258
X-19.487 Y2.289
X-19.484 Y2.323
G3 X-19.875 Y2.36 I-0.199 J-0.017
G1 X-19.878 Y2.332
Y2.317
X-19.876 Y2.302
X-19.872 Y2.287
X-19.867 Y2.272
X-19.859 Y2.254
X-19.836 Y2.219
X-19.821 Y2.201
X-19.811 Y2.191
X-19.8 Y2.183
X-19.778 Y2.17
X-19.757 Y2.161
X-19.736 Y2.156
X-19.604 Y2.154
X-16.742
G3 X-16.747 Y2.471 I-0.006 J0.159
G1 X-16.748
X-16.792 Y2.465
X-16.832 Y2.447
X-16.866 Y2.418
X-16.881 Y2.381 Z4.619
X-16.895 Y2.347 Z4.634
X-16.906 Y2.317 Z4.658
X-16.907 Y2.312 Z4.663
X-16.903 Y2.289 Z4.696
X-16.901 Y2.275 Z4.732
Y2.27 Z4.772
G0 Z10.363
X-16.513 Y31.558
Z7.863
G1 Z4.613 F51.
X-16.481 Y31.539 F356.
X-16.469 Y31.575
X-16.49 Y31.606
X-16.526 Y31.614
X-16.56 Y31.598
X-16.577 Y31.564
X-16.576 Y31.527
X-16.562 Y31.492
X-16.535 Y31.466
X-16.5 Y31.452
X-16.463 Y31.453
X-16.427 Y31.465
X-16.397 Y31.488
X-16.354 Y31.549
X-16.346 Y31.623
X-16.373 Y31.694
X-16.426 Y31.746
X-16.495 Y31.776
X-16.57 Y31.778
X-16.641 Y31.756
X-16.702 Y31.711
X-16.747 Y31.651
X-16.773 Y31.581
X-16.779 Y31.506
X-16.751 Y31.359
X-16.653 Y31.245
X-16.514 Y31.187
X-16.364 Y31.192
X-16.226 Y31.25
X-16.118 Y31.354
X-16.052 Y31.489
X-16.033 Y31.637
X-16.062 Y31.785
X-16.133 Y31.917
X-16.241 Y32.021
X-16.374 Y32.09
X-16.521 Y32.12
X-16.671 Y32.109
X-16.813 Y32.06
X-16.937 Y31.976
X-17.037 Y31.864
X-17.106 Y31.731
X-17.147 Y31.587
X-17.152 Y31.437
X-17.125 Y31.289
X-17.065 Y31.152
X-16.978 Y31.03
X-16.866 Y30.93
X-16.736 Y30.855
X-16.594 Y30.809
X-16.445 Y30.791
X-16.295 Y30.803
X-16.15 Y30.842
X-16.016 Y30.909
X-15.896 Y30.998
X-15.795 Y31.109
X-15.714 Y31.235
X-15.657 Y31.375
X-15.625 Y31.521
X-15.618 Y31.671
X-15.637 Y31.82
X-15.68 Y31.963
X-15.747 Y32.098
X-15.834 Y32.22
X-15.941 Y32.325
X-16.062 Y32.414
X-16.196 Y32.481
X-16.339 Y32.527
X-16.487 Y32.551
X-16.637 Y32.552
X-16.785 Y32.531
X-16.928 Y32.486
X-17.064 Y32.423
X-17.189 Y32.339
X-17.3 Y32.239
X-17.397 Y32.124
X-17.476 Y31.997
X-17.538 Y31.86
X-17.58 Y31.716
X-17.602 Y31.568
X-17.605 Y31.418
X-17.586 Y31.269
X-17.549 Y31.124
X-17.492 Y30.985
X-17.417 Y30.855
X-17.327 Y30.735
X-17.222 Y30.628
X-17.104 Y30.536
X-16.975 Y30.459
X-16.837 Y30.399
X-16.693 Y30.356
X-16.545 Y30.332
X-16.395 Y30.326
X-16.246 Y30.338
X-16.099 Y30.368
X-15.957 Y30.415
X-15.821 Y30.479
X-15.694 Y30.558
X-15.576 Y30.652
X-15.471 Y30.758
X-15.378 Y30.876
X-15.299 Y31.004
X-15.235 Y31.14
X-15.188 Y31.282
X-15.156 Y31.428
X-15.14 Y31.578
X-15.142 Y31.728
X-15.159 Y31.877
X-15.193 Y32.023
X-15.243 Y32.164
X-15.307 Y32.3
X-15.386 Y32.427
X-15.478 Y32.546
X-15.581 Y32.654
X-15.696 Y32.751
X-15.821 Y32.835
X-15.953 Y32.906
X-16.092 Y32.962
X-16.236 Y33.004
X-16.383 Y33.031
X-16.533 Y33.043
X-16.683 Y33.039
X-16.832 Y33.021
X-16.978 Y32.987
X-17.12 Y32.939
X-17.257 Y32.878
X-17.387 Y32.803
X-17.509 Y32.716
X-17.622 Y32.617
X-17.725 Y32.508
X-17.817 Y32.39
X-17.897 Y32.263
X-17.966 Y32.13
X-18.02 Y31.99
X-18.062 Y31.846
X-18.09 Y31.698
X-18.104 Y31.549
Y31.399
X-18.09 Y31.25
X-18.063 Y31.102
X-18.04 Y31.023
X-18.028 Y30.988
X-18.012 Y30.953
X-17.993 Y30.921
X-17.96 Y30.871
X-17.806 Y30.608
X-17.723 Y30.482
X-17.631 Y30.364
X-17.527 Y30.256
X-17.413 Y30.159
X-17.29 Y30.072
X-17.16 Y29.999
X-17.023 Y29.937
X-16.881 Y29.889
X-16.735 Y29.853
X-16.587 Y29.83
X-16.437 Y29.821
X-16.287 Y29.825
X-16.138 Y29.841
X-15.991 Y29.871
X-15.847 Y29.913
X-15.707 Y29.967
X-15.57 Y30.035
X-15.51 Y30.08
X-15.46 Y30.135
X-15.423 Y30.2
X-15.411 Y30.245
X-15.414 Y30.291
X-15.429 Y30.335
X-15.457 Y30.372
X-15.494 Y30.4
X-15.538 Y30.416
X-16.034 Y30.516
X-17.217 Y30.755
X-17.635 Y30.839
G3 X-17.806 Y30.608 I-0.031 J-0.156
G1 X-17.763 Y30.535
X-17.73 Y30.476
X-17.551 Y30.082
X-17.526 Y30.009
X-17.471 Y29.87
X-17.385 Y29.747
X-17.278 Y29.642
X-17.158 Y29.553
X-17.027 Y29.479
X-16.889 Y29.42
X-16.746 Y29.376
X-16.599 Y29.344
X-16.45 Y29.326
X-16.296 Y29.319
X-16.135 Y29.326
X-15.971 Y29.345
X-15.898 Y29.36
X-15.769 Y29.414
X-15.668 Y29.511
X-15.611 Y29.639
X-15.609 Y29.687
X-15.622 Y29.734
X-15.648 Y29.774
X-15.685 Y29.806
X-15.73 Y29.824
X-16.257 Y29.95
X-16.898 Y30.104
X-17.337 Y30.209
G3 X-17.526 Y30.009 I-0.037 J-0.154
G1 X-17.506 Y29.95
X-17.428 Y29.687
X-17.397 Y29.556
X-17.362 Y29.41
X-17.287 Y29.28
X-17.187 Y29.168
X-17.07 Y29.074
X-16.942 Y28.995
X-16.806 Y28.933
X-16.664 Y28.884
X-16.518 Y28.849
X-16.37 Y28.827
X-16.22 Y28.818
X-16.07 Y28.825
X-16.015 Y28.833
X-15.874 Y28.887
X-15.766 Y28.993
X-15.709 Y29.132
Y29.177
X-15.721 Y29.22
X-15.745 Y29.258
X-15.778 Y29.288
X-15.819 Y29.307
X-16.354 Y29.472
X-16.748 Y29.594
X-17.193 Y29.731
G3 X-17.397 Y29.556 I-0.047 J-0.152
G1 X-17.31 Y29.089
X-17.276 Y28.943
X-17.207 Y28.81
X-17.111 Y28.694
X-16.998 Y28.595
X-16.873 Y28.513
X-16.738 Y28.446
X-16.598 Y28.395
X-16.452 Y28.358
X-16.303 Y28.34
X-16.153 Y28.338
X-16.115 Y28.343
X-15.969 Y28.394
X-15.857 Y28.501
X-15.798 Y28.643
Y28.687
X-15.809 Y28.728
X-15.831 Y28.765
X-15.862 Y28.795
X-15.9 Y28.815
X-16.434 Y29.014
X-16.67 Y29.102
X-17.098 Y29.261
G3 X-17.31 Y29.089 I-0.055 J-0.149
G1 X-17.22 Y28.595
X-17.185 Y28.449
X-17.117 Y28.316
X-17.021 Y28.2
X-16.908 Y28.101
X-16.782 Y28.02
X-16.647 Y27.956
X-16.504 Y27.91
X-16.356 Y27.885
X-16.206 Y27.88
X-16.202 Y27.881
X-16.062 Y27.929
X-15.953 Y28.029
X-15.891 Y28.163
X-15.888 Y28.206
X-15.897 Y28.249
X-15.918 Y28.287
X-15.948 Y28.318
X-15.985 Y28.34
X-16.509 Y28.559
X-16.586 Y28.592
X-17.002 Y28.765
G3 X-17.22 Y28.595 I-0.061 J-0.146
G1 X-17.155 Y28.24
X-17.124 Y28.109
X-17.105 Y28.059
X-17.064 Y27.977
X-17.024 Y27.918
X-16.974 Y27.859
X-16.959 Y27.846
X-16.842 Y27.757
X-16.76 Y27.714
X-16.711 Y27.696
X-16.645 Y27.679
X-16.579 Y27.668
X-16.448
X-16.382 Y27.679
X-16.316 Y27.696
X-16.267 Y27.714
X-16.185 Y27.757
X-16.068 Y27.846
X-16.053 Y27.859
X-16.003 Y27.918
X-15.963 Y27.977
X-15.922 Y28.059
X-15.903 Y28.109
X-15.872 Y28.24
X-15.631 Y29.556
X-15.6 Y29.687
X-15.521 Y29.95
X-15.476 Y30.082
X-15.297 Y30.476
X-15.264 Y30.535
X-15.067 Y30.871
X-14.979 Y31.002
X-14.889 Y31.134
X-14.811 Y31.262
X-14.753 Y31.4
X-14.714 Y31.545
X-14.693 Y31.693
X-14.688 Y31.843
X-14.699 Y31.993
X-14.724 Y32.141
X-14.763 Y32.286
X-14.815 Y32.426
X-14.879 Y32.562
X-14.954 Y32.692
X-15.04 Y32.815
X-15.136 Y32.93
X-15.24 Y33.038
X-15.269 Y33.062
X-15.342 Y33.112
X-15.424 Y33.143
X-15.512 Y33.154
X-15.559 Y33.145
X-15.601 Y33.123
X-15.635 Y33.089
X-15.657 Y33.047
X-15.665 Y33.
X-15.66 Y32.953
X-15.526 Y32.472
X-15.285 Y31.6
X-15.17 Y31.186
G3 X-14.889 Y31.134 I0.153 J0.042
G1 X-14.87 Y31.163
X-14.795 Y31.265
X-14.738 Y31.34
X-14.525 Y31.601
X-14.435 Y31.721
X-14.372 Y31.857
X-14.334 Y32.002
X-14.318 Y32.151
X-14.321 Y32.301
X-14.342 Y32.45
X-14.377 Y32.596
X-14.426 Y32.738
X-14.487 Y32.876
X-14.533 Y32.96
X-14.615 Y33.063
X-14.728 Y33.13
X-14.858 Y33.154
X-14.902 Y33.146
X-14.942 Y33.126
X-14.975 Y33.096
X-14.999 Y33.058
X-15.01 Y33.014
X-15.009 Y32.97
X-14.927 Y32.46
X-14.869 Y32.101
X-14.8 Y31.68
G3 X-14.525 Y31.601 I0.157 J0.025
G1 X-14.475 Y31.661
X-14.361 Y31.791
X-14.212 Y31.954
X-14.182 Y31.984
X-14.082 Y32.096
X-14.015 Y32.23
X-13.975 Y32.375
X-13.958 Y32.524
X-13.962 Y32.674
X-13.984 Y32.822
X-14.002 Y32.884
X-14.077 Y33.024
X-14.203 Y33.12
X-14.358 Y33.154
X-14.4 Y33.147
X-14.438 Y33.129
X-14.471 Y33.101
X-14.495 Y33.066
X-14.508 Y33.026
X-14.511 Y32.984
X-14.479 Y32.515
X-14.449 Y32.089
G3 X-14.182 Y31.984 I0.158 J0.011
G1 X-13.981 Y32.186
X-13.841 Y32.317
X-13.737 Y32.425
X-13.663 Y32.556
X-13.624 Y32.701
X-13.62 Y32.761
X-13.641 Y32.909
X-13.72 Y33.037
X-13.843 Y33.123
X-13.99 Y33.154
X-14.031 Y33.147
X-14.07 Y33.129
X-14.102 Y33.101
X-14.126 Y33.066
X-14.14 Y33.026
X-14.142 Y32.984
X-14.134 Y32.858
X-14.104 Y32.426
G3 X-13.841 Y32.317 I0.158 J0.011
G1 X-13.818 Y32.339
X-13.686 Y32.457
X-13.545 Y32.58
X-13.508 Y32.611
X-13.453 Y32.662
X-13.411 Y32.792
X-13.426 Y32.927
X-13.494 Y33.045
X-13.604 Y33.125
X-13.738 Y33.154
X-13.787 Y33.147
X-13.835 Y33.132
X-13.879 Y33.108
X-13.917 Y33.076
G3 X-13.508 Y32.611 I0.219 J-0.22
G1 X-13.387 Y32.712
X-13.322 Y32.765
X-13.292 Y32.789
X-13.253 Y32.819
X-13.218 Y32.85
X-13.22 Y32.961
X-13.27 Y33.061
X-13.358 Y33.129
X-13.466 Y33.154
X-13.509 Y33.145
X-13.545 Y33.121
X-13.571 Y33.086
G3 X-13.253 Y32.819 I0.191 J-0.096
G1 X-13.202 Y32.86
X-13.191 Y32.871
X-13.182 Y32.882
X-13.169 Y32.901
X-13.16 Y32.92
X-13.155 Y32.934
X-13.152 Y32.948
X-13.149 Y32.975
X-13.15 Y32.99
X-13.152 Y33.005
X-13.155 Y33.021
X-13.16 Y33.036
X-13.168 Y33.053
X-13.191 Y33.089
X-13.206 Y33.106
X-13.217 Y33.116
X-13.227 Y33.125
X-13.249 Y33.137
X-13.27 Y33.146
X-13.292 Y33.151
X-13.423 Y33.154
X-17.309
X-17.459 Y33.146
X-17.604 Y33.109
X-17.743 Y33.051
X-17.873 Y32.976
X-17.994 Y32.887
X-18.105 Y32.787
X-18.206 Y32.676
X-18.296 Y32.556
X-18.376 Y32.429
X-18.445 Y32.296
X-18.504 Y32.155
X-18.553 Y32.005
X-18.574 Y31.92
X-18.584 Y31.807
X-18.558 Y31.696
X-18.501 Y31.598
X-18.466 Y31.569
X-18.424 Y31.55
X-18.379 Y31.544
X-18.334 Y31.551
X-18.293 Y31.571
X-18.259 Y31.602
X-17.934 Y31.996
X-17.467 Y32.561
X-17.192 Y32.894
G3 X-17.309 Y33.154 I-0.122 J0.101
G1 X-17.967
X-18.117 Y33.146
X-18.26 Y33.101
X-18.393 Y33.033
X-18.516 Y32.947
X-18.628 Y32.847
X-18.728 Y32.735
X-18.818 Y32.615
X-18.896 Y32.487
X-18.929 Y32.419
X-18.965 Y32.273
X-18.941 Y32.124
X-18.859 Y31.998
X-18.824 Y31.973
X-18.785 Y31.959
X-18.742 Y31.955
X-18.701 Y31.962
X-18.663 Y31.981
X-18.631 Y32.008
X-18.28 Y32.407
X-18.136 Y32.57
X-17.853 Y32.89
G3 X-17.967 Y33.154 I-0.119 J0.105
G1 X-18.525
X-18.675 Y33.146
X-18.819 Y33.103
X-18.952 Y33.034
X-19.073 Y32.945
X-19.177 Y32.837
X-19.214 Y32.785
X-19.271 Y32.665
X-19.282 Y32.533
X-19.245 Y32.405
X-19.166 Y32.299
X-19.125 Y32.273
X-19.078 Y32.26
X-19.029 Y32.263
X-18.983 Y32.28
X-18.945 Y32.311
X-18.701 Y32.576
X-18.414 Y32.888
G3 X-18.525 Y33.154 I-0.117 J0.108
G1 X-19.051
X-19.201 Y33.146
X-19.341 Y33.092
X-19.366 Y33.074
X-19.472 Y32.95
X-19.514 Y32.792
X-19.485 Y32.631
X-19.389 Y32.499
X-19.35 Y32.475
X-19.307 Y32.464
X-19.262 Y32.465
X-19.219 Y32.478
X-19.182 Y32.504
X-19.153 Y32.538
X-18.922 Y32.912
G3 X-19.051 Y33.154 I-0.135 J0.084
G1 X-19.413
X-19.563 Y33.146
X-19.658 Y33.048
X-19.699 Y32.918
X-19.675 Y32.783
X-19.594 Y32.674
X-19.557 Y32.65
X-19.518 Y32.631
G3 X-19.328 Y33.137 I0.095 J0.253
X-19.413 Y33.154 I-0.095 J-0.253
G1 X-19.604
X-19.644 Y33.153
X-19.672 Y33.152
X-19.707
X-19.744 Y33.147
X-19.773 Y33.138
X-19.8 Y33.125
X-19.829 Y33.092
X-19.848 Y33.053
X-19.854 Y33.01
X-19.848 Y32.966
G3 X-19.57 Y33.048 I0.139 J0.041
X-19.707 Y33.152 I-0.139 J-0.041
G1 X-19.736 Y33.151
X-19.757 Y33.146
X-19.778 Y33.137
X-19.8 Y33.125
X-19.811 Y33.116
X-19.821 Y33.106
X-19.836 Y33.089
X-19.859 Y33.053
X-19.867 Y33.036
X-19.872 Y33.021
X-19.876 Y33.005
X-19.878 Y32.99
Y32.975
X-19.875 Y32.948
X-19.872 Y32.934
X-19.867 Y32.92
X-19.858 Y32.901
X-19.846 Y32.882
X-19.836 Y32.871
X-19.825 Y32.86
X-19.64 Y32.712
X-19.473 Y32.572
X-19.332 Y32.449
X-19.21 Y32.339
X-19.046 Y32.186
X-18.815 Y31.954
X-18.666 Y31.791
X-18.551 Y31.66
X-18.289 Y31.34
X-18.232 Y31.265
X-18.158 Y31.163
X-18.008 Y30.943
X-17.993 Y30.921
X-17.958 Y30.885
X-17.914 Y30.862
X-17.865 Y30.854
X-17.864
G3 X-17.841 Y31.17 I0. J0.159
G1 X-17.857 Y31.172 Z4.614
X-17.864 Z4.615
X-17.904 Y31.157 Z4.628
X-17.939 Y31.144 Z4.653
X-17.966 Y31.134 Z4.687
X-17.979 Y31.122 Z4.727
X-17.984 Y31.117 Z4.772
G0 Z10.363
X-16.514 Y17.653
Z7.863
G1 Z4.613 F51.
X-16.537 Y17.624 F356.
X-16.503 Y17.607
X-16.47 Y17.623
X-16.456 Y17.659
X-16.468 Y17.694
X-16.499 Y17.715
X-16.537 Y17.72
X-16.573 Y17.71
X-16.603 Y17.688
X-16.621 Y17.655
X-16.625 Y17.618
X-16.618 Y17.581
X-16.6 Y17.548
X-16.545 Y17.497
X-16.472 Y17.479
X-16.399 Y17.496
X-16.339 Y17.541
X-16.301 Y17.606
X-16.288 Y17.68
X-16.301 Y17.754
X-16.337 Y17.82
X-16.39 Y17.872
X-16.457 Y17.907
X-16.53 Y17.924
X-16.68 Y17.915
X-16.805 Y17.834
X-16.881 Y17.705
X-16.897 Y17.555
X-16.858 Y17.411
X-16.77 Y17.289
X-16.645 Y17.206
X-16.5 Y17.167
X-16.351 Y17.175
X-16.21 Y17.228
X-16.092 Y17.321
X-16.006 Y17.444
X-15.957 Y17.585
X-15.947 Y17.735
X-15.976 Y17.882
X-16.042 Y18.017
X-16.14 Y18.131
X-16.262 Y18.217
X-16.4 Y18.278
X-16.548 Y18.302
X-16.698 Y18.296
X-16.842 Y18.255
X-16.975 Y18.185
X-17.089 Y18.088
X-17.181 Y17.969
X-17.245 Y17.834
X-17.284 Y17.689
X-17.292 Y17.539
X-17.273 Y17.391
X-17.224 Y17.249
X-17.152 Y17.117
X-17.056 Y17.002
X-16.942 Y16.905
X-16.812 Y16.83
X-16.671 Y16.778
X-16.523 Y16.751
X-16.374 Y16.75
X-16.225 Y16.773
X-16.083 Y16.821
X-15.95 Y16.891
X-15.832 Y16.982
X-15.727 Y17.09
X-15.643 Y17.214
X-15.577 Y17.349
X-15.534 Y17.493
X-15.513 Y17.641
X-15.514 Y17.791
X-15.538 Y17.939
X-15.583 Y18.082
X-15.649 Y18.217
X-15.733 Y18.341
X-15.833 Y18.453
X-15.949 Y18.548
X-16.076 Y18.628
X-16.213 Y18.689
X-16.357 Y18.731
X-16.505 Y18.754
X-16.655 Y18.755
X-16.804 Y18.738
X-16.95 Y18.701
X-17.089 Y18.644
X-17.22 Y18.571
X-17.339 Y18.481
X-17.447 Y18.377
X-17.541 Y18.259
X-17.618 Y18.131
X-17.68 Y17.994
X-17.725 Y17.851
X-17.751 Y17.703
X-17.759 Y17.554
X-17.749 Y17.404
X-17.722 Y17.257
X-17.677 Y17.113
X-17.616 Y16.977
X-17.539 Y16.848
X-17.448 Y16.728
X-17.343 Y16.621
X-17.228 Y16.525
X-17.102 Y16.444
X-16.967 Y16.377
X-16.826 Y16.326
X-16.681 Y16.29
X-16.532 Y16.272
X-16.382 Y16.269
X-16.232 Y16.282
X-16.085 Y16.313
X-15.942 Y16.358
X-15.805 Y16.419
X-15.676 Y16.494
X-15.554 Y16.582
X-15.443 Y16.683
X-15.343 Y16.794
X-15.255 Y16.916
X-15.18 Y17.046
X-15.119 Y17.183
X-15.072 Y17.325
X-15.04 Y17.472
X-15.024 Y17.621
X-15.022 Y17.771
X-15.035 Y17.92
X-15.063 Y18.068
X-15.106 Y18.211
X-15.162 Y18.35
X-15.232 Y18.483
X-15.315 Y18.608
X-15.409 Y18.725
X-15.514 Y18.832
X-15.628 Y18.929
X-15.751 Y19.015
X-15.882 Y19.088
X-16.019 Y19.149
X-16.162 Y19.197
X-16.308 Y19.231
X-16.456 Y19.251
X-16.606 Y19.258
X-16.756 Y19.25
X-16.904 Y19.229
X-17.05 Y19.195
X-17.193 Y19.147
X-17.33 Y19.086
X-17.461 Y19.013
X-17.585 Y18.929
X-17.701 Y18.834
X-17.808 Y18.729
X-17.906 Y18.615
X-17.993 Y18.493
X-18.068 Y18.364
X-18.132 Y18.228
X-18.185 Y18.087
X-18.224 Y17.943
X-18.251 Y17.795
X-18.264 Y17.661
X-18.265 Y17.637
Y17.588
X-18.256 Y17.456
X-18.234 Y17.325
X-18.205 Y17.193
X-18.163 Y17.062
X-18.113 Y16.93
X-18.026 Y16.771
X-17.963 Y16.667
X-17.86 Y16.536
X-17.763 Y16.422
X-17.745 Y16.404
X-17.631 Y16.308
X-17.5 Y16.204
X-17.396 Y16.141
X-17.237 Y16.055
X-17.105 Y16.005
X-16.974 Y15.962
X-16.842 Y15.934
X-16.711 Y15.912
X-16.579 Y15.902
X-16.448
X-16.316 Y15.912
X-16.185 Y15.934
X-16.053 Y15.962
X-15.922 Y16.005
X-15.79 Y16.055
X-15.631 Y16.141
X-15.527 Y16.204
X-15.396 Y16.308
X-15.282 Y16.404
X-15.264 Y16.422
X-15.167 Y16.536
X-15.064 Y16.667
X-15.001 Y16.771
X-14.914 Y16.93
X-14.865 Y17.062
X-14.822 Y17.193
X-14.794 Y17.325
X-14.771 Y17.456
X-14.762 Y17.588
Y17.719
X-14.771 Y17.851
X-14.794 Y17.983
X-14.822 Y18.114
X-14.865 Y18.246
X-14.914 Y18.377
X-15.001 Y18.536
X-15.064 Y18.64
X-15.167 Y18.772
X-15.264 Y18.885
X-15.282 Y18.903
X-15.396 Y19.
X-15.527 Y19.103
X-15.631 Y19.166
X-15.79 Y19.253
X-15.922 Y19.303
X-16.053 Y19.345
X-16.185 Y19.374
X-16.316 Y19.396
X-16.448 Y19.405
X-16.579
X-16.711 Y19.396
X-16.842 Y19.374
X-16.974 Y19.345
X-17.105 Y19.303
X-17.237 Y19.253
X-17.396 Y19.166
X-17.5 Y19.103
X-17.631 Y19.
X-17.745 Y18.903
X-17.763 Y18.885
X-17.86 Y18.772
X-17.963 Y18.64
X-18.026 Y18.536
X-18.113 Y18.377
X-18.163 Y18.246
X-18.205 Y18.114
X-18.234 Y17.983
X-18.256 Y17.851
X-18.265 Y17.719
Y17.637
G3 X-17.948 Y17.642 I0.159 J0.006
G1 Y17.643
X-17.954 Y17.686
X-17.972 Y17.727
X-18. Y17.761
X-18.037 Y17.776 Z4.619
X-18.072 Y17.789 Z4.634
X-18.101 Y17.801 Z4.658
X-18.106 Z4.663
X-18.129 Y17.798 Z4.696
X-18.144 Y17.796 Z4.732
X-18.149 Z4.772
G0 Z10.363
X-4.521 Y5.662
Z7.863
G1 Z4.613 F51.
Y5.699 F356.
X-4.558 Y5.692
X-4.575 Y5.658
X-4.564 Y5.623
X-4.532 Y5.602
X-4.495 Y5.604
X-4.463 Y5.623
X-4.44 Y5.653
X-4.43 Y5.689
X-4.436 Y5.726
X-4.455 Y5.758
X-4.483 Y5.783
X-4.518 Y5.798
X-4.592 Y5.805
X-4.661 Y5.774
X-4.708 Y5.716
X-4.728 Y5.644
X-4.719 Y5.569
X-4.684 Y5.503
X-4.629 Y5.452
X-4.56 Y5.422
X-4.486 Y5.413
X-4.412 Y5.426
X-4.344 Y5.457
X-4.23 Y5.555
X-4.18 Y5.697
X-4.199 Y5.845
X-4.278 Y5.973
X-4.397 Y6.064
X-4.541 Y6.107
X-4.69 Y6.097
X-4.829 Y6.039
X-4.942 Y5.941
X-5.021 Y5.813
X-5.058 Y5.668
X-5.052 Y5.518
X-5.004 Y5.376
X-4.921 Y5.251
X-4.808 Y5.153
X-4.673 Y5.086
X-4.526 Y5.055
X-4.376 Y5.061
X-4.231 Y5.098
X-4.099 Y5.168
X-3.984 Y5.265
X-3.894 Y5.385
X-3.832 Y5.521
X-3.801 Y5.668
X-3.8 Y5.818
X-3.831 Y5.965
X-3.889 Y6.103
X-3.975 Y6.227
X-4.08 Y6.333
X-4.205 Y6.416
X-4.343 Y6.476
X-4.489 Y6.509
X-4.639 Y6.516
X-4.788 Y6.496
X-4.931 Y6.451
X-5.064 Y6.382
X-5.184 Y6.292
X-5.287 Y6.183
X-5.37 Y6.058
X-5.433 Y5.922
X-5.471 Y5.777
X-5.488 Y5.628
X-5.479 Y5.478
X-5.449 Y5.331
X-5.396 Y5.191
X-5.322 Y5.061
X-5.23 Y4.942
X-5.12 Y4.84
X-4.997 Y4.754
X-4.863 Y4.687
X-4.72 Y4.641
X-4.573 Y4.613
X-4.423 Y4.608
X-4.273 Y4.623
X-4.128 Y4.658
X-3.988 Y4.712
X-3.857 Y4.785
X-3.737 Y4.875
X-3.629 Y4.98
X-3.537 Y5.098
X-3.461 Y5.227
X-3.402 Y5.365
X-3.362 Y5.51
X-3.341 Y5.658
X-3.338 Y5.808
X-3.355 Y5.957
X-3.389 Y6.103
X-3.442 Y6.244
X-3.511 Y6.377
X-3.595 Y6.501
X-3.695 Y6.613
X-3.807 Y6.713
X-3.929 Y6.8
X-4.062 Y6.87
X-4.201 Y6.926
X-4.346 Y6.964
X-4.494 Y6.986
X-4.644 Y6.991
X-4.794 Y6.978
X-4.941 Y6.949
X-5.084 Y6.904
X-5.221 Y6.843
X-5.35 Y6.767
X-5.471 Y6.678
X-5.581 Y6.576
X-5.679 Y6.463
X-5.765 Y6.339
X-5.836 Y6.208
X-5.893 Y6.069
X-5.936 Y5.925
X-5.962 Y5.777
X-5.973 Y5.628
X-5.969 Y5.478
X-5.949 Y5.329
X-5.913 Y5.183
X-5.864 Y5.042
X-5.8 Y4.906
X-5.722 Y4.778
X-5.632 Y4.658
X-5.53 Y4.548
X-5.418 Y4.449
X-5.296 Y4.36
X-5.167 Y4.285
X-5.03 Y4.222
X-4.889 Y4.173
X-4.743 Y4.138
X-4.594 Y4.117
X-4.444 Y4.111
X-4.295 Y4.118
X-4.146 Y4.14
X-4. Y4.175
X-3.859 Y4.224
X-3.722 Y4.286
X-3.592 Y4.361
X-3.469 Y4.447
X-3.355 Y4.544
X-3.25 Y4.652
X-3.156 Y4.768
X-3.072 Y4.893
X-3.001 Y5.025
X-2.941 Y5.162
X-2.894 Y5.305
X-2.86 Y5.451
X-2.839 Y5.599
X-2.832 Y5.749
X-2.837 Y5.899
X-2.856 Y6.048
X-2.888 Y6.194
X-2.933 Y6.338
X-2.99 Y6.476
X-3.058 Y6.61
X-3.138 Y6.737
X-3.228 Y6.857
X-3.329 Y6.968
X-3.438 Y7.071
X-3.556 Y7.164
X-3.681 Y7.246
X-3.813 Y7.318
X-3.95 Y7.379
X-4.091 Y7.428
X-4.237 Y7.465
X-4.385 Y7.49
X-4.534 Y7.503
X-4.684 Y7.504
X-4.835 Y7.492
X-4.983 Y7.468
X-5.129 Y7.432
X-5.271 Y7.385
X-5.413 Y7.324
X-5.546 Y7.254
X-5.672 Y7.174
X-5.794 Y7.082
X-5.91 Y6.979
X-6.015 Y6.87
X-6.109 Y6.753
X-6.197 Y6.626
X-6.276 Y6.489
X-6.341 Y6.351
X-6.395 Y6.209
X-6.439 Y6.058
X-6.471 Y5.902
X-6.489 Y5.747
X-6.496 Y5.593
X-6.489 Y5.436
X-6.47 Y5.276
X-6.438 Y5.119
X-6.394 Y4.967
X-6.339 Y4.82
X-6.27 Y4.675
X-6.189 Y4.534
X-6.096 Y4.399
X-5.995 Y4.274
X-5.885 Y4.159
X-5.762 Y4.05
X-5.63 Y3.949
X-5.488 Y3.859
X-5.343 Y3.783
X-5.193 Y3.718
X-5.036 Y3.665
X-4.872 Y3.624
X-4.705 Y3.596
X-4.535 Y3.582
X-4.366 Y3.581
X-4.2 Y3.594
X-4.034 Y3.62
X-3.867 Y3.66
X-3.703 Y3.714
X-3.544 Y3.781
X-3.39 Y3.86
X-3.243 Y3.952
X-3.106 Y4.054
X-2.977 Y4.166
X-2.856 Y4.29
X-2.744 Y4.425
X-2.643 Y4.57
X-2.554 Y4.722
X-2.477 Y4.882
X-2.412 Y5.047
X-2.362 Y5.217
X-2.325 Y5.388
X-2.303 Y5.563
X-2.294 Y5.743
X-2.3 Y5.922
X-2.32 Y6.101
X-2.354 Y6.279
X-2.404 Y6.455
X-2.467 Y6.627
X-2.544 Y6.793
X-2.634 Y6.953
X-2.737 Y7.106
X-2.852 Y7.25
X-2.978 Y7.383
X-3.115 Y7.508
X-3.262 Y7.621
X-3.418 Y7.722
X-3.583 Y7.811
X-3.755 Y7.887
X-3.933 Y7.949
X-4.116 Y7.996
X-4.303 Y8.029
X-4.494 Y8.046
X-4.684 Y8.049
X-4.875 Y8.036
X-5.066 Y8.008
X-5.254 Y7.964
X-5.437 Y7.905
X-5.616 Y7.832
X-5.79 Y7.744
X-5.956 Y7.642
X-6.113 Y7.527
X-6.262 Y7.4
X-6.4 Y7.26
X-6.527 Y7.109
X-6.642 Y6.949
X-6.743 Y6.779
X-6.831 Y6.6
X-6.905 Y6.415
X-6.963 Y6.224
X-7.007 Y6.029
X-7.034 Y5.83
X-7.046 Y5.629
X-7.041 Y5.427
X-7.02 Y5.226
X-6.983 Y5.027
X-6.93 Y4.831
X-6.86 Y4.638
X-6.776 Y4.451
X-6.677 Y4.272
X-6.563 Y4.101
X-6.436 Y3.938
X-6.294 Y3.785
X-6.141 Y3.644
X-5.977 Y3.516
X-5.803 Y3.401
X-5.619 Y3.3
X-5.427 Y3.214
X-5.227 Y3.143
X-5.022 Y3.088
X-4.813 Y3.049
X-4.602 Y3.028
X-4.389 Y3.023
X-4.175 Y3.036
X-3.962 Y3.066
X-3.752 Y3.113
X-3.545 Y3.177
X-3.344 Y3.257
X-3.151 Y3.354
X-2.965 Y3.465
X-2.788 Y3.592
X-2.622 Y3.733
X-2.466 Y3.888
X-2.323 Y4.055
X-2.194 Y4.233
X-2.079 Y4.422
X-1.979 Y4.619
X-1.896 Y4.824
X-1.829 Y5.035
X-1.779 Y5.252
X-1.747 Y5.473
X-1.732 Y5.696
X-1.736 Y5.921
X-1.757 Y6.146
X-1.797 Y6.369
X-1.854 Y6.588
X-1.929 Y6.803
X-2.022 Y7.012
X-2.131 Y7.212
X-2.256 Y7.404
X-2.396 Y7.585
X-2.551 Y7.755
X-2.719 Y7.913
X-2.9 Y8.057
X-3.092 Y8.186
X-3.295 Y8.3
X-3.507 Y8.397
X-3.726 Y8.477
X-3.952 Y8.54
X-4.183 Y8.584
X-4.418 Y8.61
X-4.654 Y8.617
X-4.891 Y8.605
X-5.126 Y8.574
X-5.359 Y8.524
X-5.587 Y8.455
X-5.81 Y8.368
X-6.026 Y8.263
X-6.232 Y8.141
X-6.429 Y8.002
X-6.615 Y7.848
X-6.788 Y7.679
X-6.947 Y7.496
X-7.092 Y7.3
X-7.22 Y7.093
X-7.332 Y6.876
X-7.426 Y6.65
X-7.502 Y6.417
X-7.559 Y6.177
X-7.597 Y5.934
X-7.615 Y5.687
X-7.613 Y5.44
X-7.592 Y5.193
X-7.55 Y4.948
X-7.489 Y4.706
X-7.408 Y4.469
X-7.309 Y4.24
X-7.191 Y4.018
X-7.055 Y3.806
X-6.902 Y3.604
X-6.733 Y3.416
X-6.55 Y3.241
X-6.352 Y3.081
X-6.141 Y2.937
X-5.919 Y2.81
X-5.687 Y2.701
X-5.446 Y2.61
X-5.198 Y2.54
X-4.945 Y2.489
X-4.688 Y2.459
X-4.429 Y2.449
X-4.169 Y2.46
X-3.91 Y2.492
X-3.654 Y2.545
X-3.403 Y2.618
X-3.158 Y2.712
X-2.921 Y2.825
X-2.693 Y2.956
X-2.476 Y3.107
X-2.271 Y3.274
X-2.08 Y3.458
X-1.904 Y3.657
X-1.744 Y3.87
X-1.601 Y4.095
X-1.477 Y4.332
X-1.372 Y4.578
X-1.287 Y4.832
X-1.223 Y5.093
X-1.179 Y5.36
X-1.157 Y5.629
Y5.9
X-1.178 Y6.171
X-1.222 Y6.44
X-1.286 Y6.705
X-1.372 Y6.965
X-1.479 Y7.218
X-1.606 Y7.461
X-1.753 Y7.694
X-1.918 Y7.915
X-2.1 Y8.123
X-2.299 Y8.315
X-2.514 Y8.491
X-2.742 Y8.65
X-2.983 Y8.791
X-3.235 Y8.912
X-3.497 Y9.012
X-3.766 Y9.092
X-4.042 Y9.149
X-4.242 Y9.174
X-4.262 Y9.175
X-4.281
X-4.48 Y9.169
X-4.612 Y9.17
X-4.98 Y9.158
X-5.229 Y9.13
X-5.486 Y9.08
X-5.745 Y9.007
X-6.003 Y8.912
X-6.255 Y8.795
X-6.501 Y8.657
X-6.736 Y8.498
X-6.959 Y8.32
X-7.167 Y8.123
X-7.361 Y7.909
X-7.537 Y7.68
X-7.694 Y7.437
X-7.832 Y7.182
X-7.949 Y6.915
X-8.045 Y6.639
X-8.054 Y6.602
X-8.063 Y6.56
X-8.066 Y6.518
X-8.065 Y6.476
X-8.059 Y6.409
X-8.041 Y6.146
X-8.035 Y6.015
X-8.03 Y5.752
X-8.029 Y5.62
X-8.041 Y5.226
X-8.047 Y5.153
X-8.051 Y5.003
X-8.04 Y4.831
X-8.012 Y4.632
X-7.963 Y4.417
X-7.896 Y4.202
X-7.803 Y3.974
X-7.686 Y3.739
X-7.544 Y3.505
X-7.379 Y3.277
X-7.193 Y3.058
X-6.987 Y2.851
X-6.762 Y2.66
X-6.52 Y2.485
X-6.264 Y2.33
X-5.994 Y2.195
X-5.958 Y2.181
X-5.913 Y2.166
X-5.866 Y2.157
X-5.819 Y2.154
G3 X-5.696 Y2.406 I-0.006 J0.159
G1 X-5.957 Y2.762
X-7.522 Y4.903
X-7.761 Y5.229
G3 X-8.047 Y5.153 I-0.128 J-0.094
G1 X-8.073 Y4.831
X-8.088 Y4.7
X-8.121 Y4.437
X-8.139 Y4.305
X-8.161 Y4.174
X-8.179 Y4.025
X-8.174 Y3.875
X-8.152 Y3.727
X-8.114 Y3.581
X-8.064 Y3.435
X-7.987 Y3.259
X-7.892 Y3.083
X-7.767 Y2.89
X-7.608 Y2.683
X-7.419 Y2.474
X-7.209 Y2.277
X-7.157 Y2.235
X-7.086 Y2.191
X-7.008 Y2.163
X-6.925 Y2.154
G3 X-6.794 Y2.393 I-0.006 J0.159
G1 X-7.026 Y2.787
X-7.664 Y3.873
X-7.869 Y4.221
G3 X-8.161 Y4.174 I-0.137 J-0.08
G1 X-8.207 Y3.911
X-8.294 Y3.5
X-8.303 Y3.465
X-8.331 Y3.318
X-8.33 Y3.168
X-8.308 Y3.02
X-8.269 Y2.875
X-8.216 Y2.734
X-8.146 Y2.587
X-8.048 Y2.416
X-7.978 Y2.314
X-7.896 Y2.228
X-7.79 Y2.173
X-7.673 Y2.154
G3 X-7.532 Y2.374 I-0.006 J0.159
G1 X-7.719 Y2.814
X-7.85 Y3.121
X-8.004 Y3.484
G3 X-8.303 Y3.465 I-0.146 J-0.062
G1 X-8.388 Y3.122
X-8.426 Y2.99
X-8.469 Y2.859
X-8.515 Y2.716
X-8.517 Y2.566
X-8.495 Y2.417
X-8.493 Y2.414
X-8.417 Y2.278
X-8.292 Y2.186
X-8.14 Y2.154
G3 X-7.998 Y2.37 I-0.006 J0.159
G1 X-8.026 Y2.444
X-8.182 Y2.84
G3 X-8.469 Y2.859 I-0.148 J-0.058
G1 X-8.557 Y2.683
X-8.615 Y2.596
X-8.637 Y2.566
X-8.665 Y2.529
X-8.689 Y2.499
X-8.711 Y2.469
X-8.704 Y2.352
X-8.648 Y2.249
X-8.555 Y2.179
X-8.44 Y2.154
X-8.393 Y2.163
X-8.351 Y2.185
X-8.317 Y2.219
X-8.295 Y2.262
G3 X-8.689 Y2.499 I-0.223 J0.075
G1 X-8.72 Y2.464
X-8.75 Y2.431
X-8.762 Y2.415
X-8.772 Y2.398
X-8.778 Y2.382
X-8.783 Y2.365
X-8.786 Y2.349
X-8.787 Y2.332
Y2.316
X-8.785 Y2.3
X-8.781 Y2.283
X-8.775 Y2.267
X-8.766 Y2.25
X-8.756 Y2.234
X-8.725 Y2.201
X-8.707 Y2.185
X-8.689 Y2.173
X-8.672 Y2.165
X-8.656 Y2.16
X-8.639 Y2.156
X-8.623 Y2.154
X-3.56
X-3.374 Y2.163
X-3.225 Y2.183
X-3.049 Y2.22
X-2.872 Y2.274
X-2.673 Y2.351
X-2.459 Y2.455
X-2.241 Y2.584
X-2.028 Y2.734
X-1.816 Y2.91
X-1.609 Y3.113
X-1.414 Y3.337
X-1.234 Y3.581
X-1.072 Y3.842
X-1.055 Y3.875
X-1.032 Y3.929
X-1.018 Y3.986
X-1.014 Y4.044
G3 X-1.265 Y4.167 I-0.159 J-0.006
G1 X-1.623 Y3.908
X-3.33 Y2.671
X-3.647 Y2.441
G3 X-3.56 Y2.154 I0.093 J-0.129
G1 X-2.435
X-2.285 Y2.161
X-2.138 Y2.189
X-1.995 Y2.233
X-1.856 Y2.291
X-1.708 Y2.368
X-1.541 Y2.472
X-1.375 Y2.595
X-1.19 Y2.757
X-1.119 Y2.83
X-1.062 Y2.906
X-1.026 Y2.994
X-1.014 Y3.089
G3 X-1.255 Y3.218 I-0.159 J-0.006
G1 X-1.643 Y2.981
X-2.189 Y2.646
X-2.513 Y2.448
G3 X-2.435 Y2.154 I0.083 J-0.135
G1 X-1.587
X-1.547
X-1.519
X-1.37 Y2.161
X-1.272 Y2.192
X-1.137 Y2.269
X-1.046 Y2.394
X-1.014 Y2.545
G3 X-1.26 Y2.672 I-0.159 J-0.006
G1 X-1.281 Y2.658
X-1.602 Y2.445
G3 X-1.519 Y2.154 I0.088 J-0.132
G1 X-1.192
X-1.163 Y2.156
X-1.149 Y2.159
X-1.134 Y2.164
X-1.12 Y2.17
X-1.105 Y2.178
X-1.091 Y2.188
X-1.076 Y2.201
X-1.061 Y2.216
X-1.048 Y2.231
X-1.038 Y2.245
X-1.03 Y2.26
X-1.023 Y2.274
X-1.019 Y2.289
X-1.016 Y2.303
X-1.014 Y2.332
Y7.067
X-1.021 Y7.217
X-1.05 Y7.364
X-1.091 Y7.512
X-1.156 Y7.686
X-1.241 Y7.87
X-1.349 Y8.061
X-1.488 Y8.267
X-1.657 Y8.478
X-1.852 Y8.685
X-2.067 Y8.879
X-2.305 Y9.062
X-2.565 Y9.23
X-2.666 Y9.285
X-2.742 Y9.315
X-2.823 Y9.328
X-2.905 Y9.323
G3 X-2.996 Y9.068 I0.033 J-0.155
G1 X-2.705 Y8.71
X-1.548 Y7.283
X-1.296 Y6.972
G3 X-1.014 Y7.067 I0.123 J0.1
G1 Y7.988
X-1.021 Y8.137
X-1.048 Y8.285
X-1.093 Y8.428
X-1.151 Y8.566
X-1.229 Y8.712
X-1.326 Y8.862
X-1.458 Y9.034
X-1.607 Y9.2
X-1.794 Y9.378
X-1.838 Y9.413
X-1.936 Y9.47
X-2.047 Y9.494
X-2.16 Y9.484
G3 X-2.246 Y9.24 I0.044 J-0.153
G1 X-1.968 Y8.845
X-1.527 Y8.22
X-1.302 Y7.902
G3 X-1.014 Y7.988 I0.13 J0.092
G1 Y8.777
X-1.021 Y8.926
X-1.048 Y9.074
X-1.097 Y9.216
X-1.161 Y9.351
X-1.236 Y9.473
X-1.328 Y9.574
X-1.451 Y9.635
X-1.587 Y9.647
X-1.718 Y9.609
X-1.753 Y9.583
X-1.78 Y9.548
X-1.796 Y9.507
X-1.8 Y9.463
X-1.792 Y9.42
X-1.773 Y9.38
X-1.522 Y9.013
X-1.303 Y8.693
G3 X-1.014 Y8.777 I0.131 J0.089
G1 Y9.434
X-1.021 Y9.584
X-1.098 Y9.7
X-1.217 Y9.771
X-1.355 Y9.784
X-1.485 Y9.735
G3 X-1.489 Y9.479 I0.092 J-0.13
G1 X-1.268 Y9.313
G3 X-1.014 Y9.434 I0.095 J0.127
G1 Y9.733
Y9.763
X-1.016 Y9.779
X-1.024 Y9.805
X-1.033 Y9.829
X-1.056 Y9.853
X-1.086 Y9.868
X-1.119 Y9.873
X-1.151 Y9.867
X-1.184 Y9.848
X-1.208 Y9.819
X-1.219 Y9.783
X-1.216 Y9.745
X-1.2 Y9.711
X-1.173 Y9.685
X-1.138 Y9.671
X-1.1 Y9.67
X-1.065 Y9.683
X-1.037 Y9.708
X-1.02 Y9.742
X-1.016 Y9.779
X-1.02 Y9.796
X-1.025 Y9.812
X-1.033 Y9.829
X-1.045 Y9.847
X-1.061 Y9.865
X-1.094 Y9.896
X-1.11 Y9.907
X-1.127 Y9.915
X-1.143 Y9.921
X-1.159 Y9.925
X-1.176 Y9.927
X-1.192 Y9.928
X-1.209 Y9.926
X-1.225 Y9.923
X-1.242 Y9.919
X-1.258 Y9.912
X-1.275 Y9.903
X-1.291 Y9.891
X-1.324 Y9.86
X-1.359 Y9.829
X-1.455 Y9.755
X-1.543 Y9.697
X-1.718 Y9.609
X-1.852 Y9.566
X-1.981 Y9.529
X-2.36 Y9.434
X-2.771 Y9.347
X-3.034 Y9.301
X-3.165 Y9.279
X-3.297 Y9.261
X-3.56 Y9.228
X-3.691 Y9.213
X-4.086 Y9.181
X-4.281 Y9.175
G3 X-4.363 Y8.884 I0.005 J-0.159
G1 X-4.042 Y8.673
X-4.033 Y8.667
G3 X-3.812 Y8.715 I0.087 J0.133
X-3.862 Y8.935 I-0.134 J0.085
X-4.612 Y9.17 I-0.833 J-1.346
G1 X-4.875 Y9.175
X-5.006 Y9.181
X-5.269 Y9.199
X-5.401 Y9.211
X-5.795 Y9.263
X-5.835 Y9.27
X-5.984 Y9.288
X-6.134 Y9.282
X-6.282 Y9.26
X-6.435 Y9.222
X-6.589 Y9.171
X-6.769 Y9.093
X-6.961 Y8.992
X-7.156 Y8.869
X-7.364 Y8.711
X-7.577 Y8.523
X-7.784 Y8.306
X-7.98 Y8.066
X-8.16 Y7.805
X-8.198 Y7.739
X-8.235 Y7.649
X-8.247 Y7.553
X-8.234 Y7.457
G3 X-7.989 Y7.376 I0.152 J0.047
G1 X-7.598 Y7.66
X-6.113 Y8.739
X-5.774 Y8.986
G3 X-5.835 Y9.27 I-0.093 J0.128
G1 X-5.927 Y9.285
X-6.058 Y9.312
X-6.19 Y9.34
X-6.321 Y9.376
X-6.496 Y9.424
X-6.642 Y9.458
X-6.792 Y9.463
X-6.941 Y9.447
X-7.087 Y9.413
X-7.229 Y9.366
X-7.388 Y9.297
X-7.548 Y9.212
X-7.729 Y9.097
X-7.926 Y8.947
X-8.115 Y8.778
X-8.305 Y8.578
X-8.392 Y8.47
X-8.455 Y8.357
X-8.475 Y8.23
X-8.45 Y8.104
X-8.426 Y8.065
X-8.392 Y8.034
X-8.351 Y8.015
X-8.306 Y8.007
X-8.261 Y8.013
X-8.219 Y8.032
X-7.787 Y8.304
X-6.819 Y8.913
X-6.459 Y9.139
G3 X-6.496 Y9.424 I-0.085 J0.134
G1 X-6.584 Y9.449
X-6.716 Y9.495
X-6.979 Y9.596
X-7.019 Y9.613
X-7.159 Y9.665
X-7.308 Y9.683
X-7.458 Y9.677
X-7.606 Y9.65
X-7.75 Y9.608
X-7.897 Y9.55
X-8.043 Y9.478
X-8.213 Y9.378
X-8.369 Y9.267
X-8.488 Y9.167
X-8.595 Y9.061
X-8.654 Y8.992
X-8.727 Y8.856
X-8.739 Y8.702
X-8.687 Y8.557
X-8.655 Y8.522
X-8.614 Y8.498
X-8.568 Y8.487
X-8.521 Y8.49
X-8.477 Y8.507
X-7.999 Y8.775
X-7.39 Y9.117
X-7.009 Y9.331
G3 X-7.019 Y9.613 I-0.078 J0.138
G1 X-7.11 Y9.652
X-7.202 Y9.697
X-7.242 Y9.719
X-7.42 Y9.829
X-7.55 Y9.904
X-7.695 Y9.942
X-7.844 Y9.952
X-7.994 Y9.941
X-8.141 Y9.911
X-8.284 Y9.867
X-8.423 Y9.809
X-8.556 Y9.74
X-8.682 Y9.659
X-8.8 Y9.566
X-8.907 Y9.462
X-8.951 Y9.407
X-9.02 Y9.267
X-9.025 Y9.111
X-8.965 Y8.967
X-8.935 Y8.936
X-8.897 Y8.914
X-8.855 Y8.904
X-8.811 Y8.905
X-8.769 Y8.918
X-8.259 Y9.163
X-7.852 Y9.359
X-7.442 Y9.555
G3 X-7.42 Y9.829 I-0.069 J0.143
G1 X-7.505 Y9.884
X-7.835 Y10.111
X-7.962 Y10.19
X-8.106 Y10.234
X-8.255 Y10.25
X-8.405 Y10.243
X-8.552 Y10.217
X-8.696 Y10.174
X-8.834 Y10.115
X-8.965 Y10.042
X-9.086 Y9.954
X-9.196 Y9.852
X-9.227 Y9.814
X-9.298 Y9.674
X-9.304 Y9.516
X-9.244 Y9.371
X-9.214 Y9.34
X-9.177 Y9.319
X-9.136 Y9.308
X-9.094
X-9.053 Y9.32
X-8.529 Y9.549
X-8.281 Y9.657
X-7.866 Y9.838
G3 X-7.835 Y10.111 I-0.064 J0.145
G1 X-8.273 Y10.413
X-8.4 Y10.492
X-8.544 Y10.534
X-8.693 Y10.548
X-8.843 Y10.537
X-8.99 Y10.505
X-9.131 Y10.455
X-9.264 Y10.386
X-9.387 Y10.299
X-9.496 Y10.197
X-9.502 Y10.189
X-9.56 Y10.078
X-9.577 Y9.954
X-9.552 Y9.831
X-9.527 Y9.79
X-9.49 Y9.759
X-9.445 Y9.74
X-9.397 Y9.735
X-9.35 Y9.745
X-8.842 Y9.937
X-8.728 Y9.98
X-8.311 Y10.137
G3 X-8.273 Y10.413 I-0.056 J0.149
G1 X-8.571 Y10.618
X-8.689 Y10.691
X-8.82 Y10.742
X-8.851 Y10.749
X-8.952 Y10.762
X-9.017 Y10.761
X-9.083 Y10.754
X-9.112 Y10.749
X-9.164 Y10.736
X-9.215 Y10.718
X-9.28 Y10.688
X-9.346 Y10.649
X-9.386 Y10.618
X-9.432 Y10.577
X-9.478 Y10.526
X-9.509 Y10.486
X-9.548 Y10.421
X-9.578 Y10.355
X-9.596 Y10.304
X-9.609 Y10.253
X-9.614 Y10.223
X-9.621 Y10.157
X-9.622 Y10.092
X-9.609 Y9.991
X-9.602 Y9.96
X-9.551 Y9.829
X-9.478 Y9.711
X-9.197 Y9.303
X-8.744 Y8.645
X-8.673 Y8.534
X-8.578 Y8.382
X-8.557 Y8.342
X-8.512 Y8.251
X-8.456 Y8.119
X-8.354 Y7.856
X-8.309 Y7.725
X-8.225 Y7.422
X-8.2 Y7.33
X-8.163 Y7.154
X-8.145 Y7.067
X-8.123 Y6.935
X-8.07 Y6.541
X-8.065 Y6.476
G3 X-7.75 Y6.515 I0.158 J0.02
X-7.812 Y6.623 I-0.158 J-0.02
G1 X-7.846 Y6.634 Z4.618
X-7.878 Y6.645 Z4.63
X-7.907 Y6.654 Z4.65
X-7.937 Y6.649 Z4.685
X-7.956 Y6.645 Z4.726
X-7.963 Y6.644 Z4.772
G0 Z10.363
X-4.521 Y29.646
Z7.863
G1 Z4.613 F51.
X-4.559 F356.
X-4.552 Y29.61
X-4.518 Y29.593
X-4.482 Y29.604
X-4.462 Y29.635
X-4.464 Y29.672
X-4.483 Y29.705
X-4.512 Y29.728
X-4.549 Y29.737
X-4.586 Y29.732
X-4.618 Y29.712
X-4.642 Y29.684
X-4.657 Y29.65
X-4.664 Y29.575
X-4.634 Y29.506
X-4.576 Y29.459
X-4.504 Y29.439
X-4.429 Y29.448
X-4.363 Y29.484
X-4.312 Y29.539
X-4.282 Y29.607
X-4.273 Y29.682
X-4.285 Y29.756
X-4.317 Y29.824
X-4.415 Y29.937
X-4.556 Y29.987
X-4.705 Y29.969
X-4.833 Y29.89
X-4.924 Y29.77
X-4.966 Y29.627
X-4.956 Y29.477
X-4.898 Y29.339
X-4.801 Y29.225
X-4.673 Y29.146
X-4.527 Y29.109
X-4.378 Y29.116
X-4.235 Y29.163
X-4.111 Y29.247
X-4.012 Y29.36
X-3.946 Y29.494
X-3.915 Y29.641
X-3.921 Y29.791
X-3.957 Y29.937
X-4.028 Y30.069
X-4.124 Y30.184
X-4.245 Y30.273
X-4.381 Y30.336
X-4.528 Y30.367
X-4.678
X-4.825 Y30.336
X-4.963 Y30.278
X-5.086 Y30.193
X-5.193 Y30.087
X-5.276 Y29.962
X-5.336 Y29.825
X-5.368 Y29.678
X-5.376 Y29.528
X-5.355 Y29.38
X-5.311 Y29.236
X-5.242 Y29.103
X-5.152 Y28.983
X-5.043 Y28.88
X-4.918 Y28.797
X-4.782 Y28.734
X-4.637 Y28.696
X-4.488 Y28.679
X-4.338 Y28.688
X-4.191 Y28.718
X-4.051 Y28.772
X-3.92 Y28.846
X-3.802 Y28.938
X-3.7 Y29.047
X-3.613 Y29.17
X-3.547 Y29.305
X-3.5 Y29.447
X-3.473 Y29.595
X-3.468 Y29.745
X-3.482 Y29.894
X-3.517 Y30.04
X-3.572 Y30.179
X-3.645 Y30.311
X-3.735 Y30.431
X-3.839 Y30.538
X-3.958 Y30.63
X-4.087 Y30.706
X-4.225 Y30.765
X-4.37 Y30.805
X-4.518 Y30.827
X-4.668 Y30.829
X-4.817 Y30.813
X-4.963 Y30.778
X-5.104 Y30.726
X-5.237 Y30.656
X-5.361 Y30.572
X-5.473 Y30.473
X-5.573 Y30.361
X-5.659 Y30.238
X-5.73 Y30.106
X-5.785 Y29.966
X-5.824 Y29.821
X-5.845 Y29.673
X-5.85 Y29.523
X-5.838 Y29.374
X-5.809 Y29.227
X-5.764 Y29.083
X-5.703 Y28.946
X-5.627 Y28.817
X-5.538 Y28.696
X-5.436 Y28.586
X-5.322 Y28.488
X-5.199 Y28.403
X-5.067 Y28.331
X-4.929 Y28.274
X-4.785 Y28.232
X-4.637 Y28.205
X-4.487 Y28.194
X-4.337 Y28.198
X-4.189 Y28.218
X-4.043 Y28.254
X-3.902 Y28.304
X-3.766 Y28.368
X-3.638 Y28.446
X-3.518 Y28.535
X-3.407 Y28.637
X-3.308 Y28.75
X-3.22 Y28.871
X-3.144 Y29.001
X-3.082 Y29.137
X-3.033 Y29.279
X-2.998 Y29.425
X-2.977 Y29.573
X-2.97 Y29.723
X-2.977 Y29.873
X-2.999 Y30.021
X-3.035 Y30.167
X-3.084 Y30.309
X-3.146 Y30.445
X-3.221 Y30.575
X-3.307 Y30.698
X-3.404 Y30.812
X-3.511 Y30.917
X-3.628 Y31.012
X-3.752 Y31.095
X-3.884 Y31.167
X-4.022 Y31.226
X-4.164 Y31.274
X-4.31 Y31.307
X-4.459 Y31.328
X-4.609 Y31.336
X-4.759 Y31.33
X-4.907 Y31.311
X-5.054 Y31.279
X-5.197 Y31.235
X-5.336 Y31.178
X-5.469 Y31.109
X-5.597 Y31.029
X-5.716 Y30.939
X-5.828 Y30.839
X-5.93 Y30.729
X-6.023 Y30.612
X-6.106 Y30.486
X-6.178 Y30.355
X-6.239 Y30.218
X-6.288 Y30.076
X-6.325 Y29.931
X-6.35 Y29.782
X-6.363 Y29.633
X-6.364 Y29.483
X-6.352 Y29.332
X-6.328 Y29.184
X-6.292 Y29.038
X-6.244 Y28.896
X-6.184 Y28.755
X-6.114 Y28.622
X-6.034 Y28.495
X-5.942 Y28.373
X-5.838 Y28.257
X-5.729 Y28.153
X-5.613 Y28.058
X-5.485 Y27.97
X-5.349 Y27.891
X-5.211 Y27.826
X-5.068 Y27.772
X-4.918 Y27.729
X-4.762 Y27.697
X-4.606 Y27.678
X-4.452 Y27.672
X-4.295 Y27.678
X-4.136 Y27.697
X-3.979 Y27.729
X-3.827 Y27.773
X-3.68 Y27.828
X-3.535 Y27.897
X-3.393 Y27.978
X-3.258 Y28.071
X-3.134 Y28.172
X-3.018 Y28.283
X-2.91 Y28.405
X-2.809 Y28.538
X-2.719 Y28.68
X-2.642 Y28.824
X-2.578 Y28.974
X-2.525 Y29.132
X-2.484 Y29.295
X-2.456 Y29.462
X-2.441 Y29.632
Y29.802
X-2.453 Y29.968
X-2.479 Y30.134
X-2.519 Y30.3
X-2.573 Y30.464
X-2.64 Y30.624
X-2.72 Y30.778
X-2.811 Y30.924
X-2.913 Y31.062
X-3.026 Y31.19
X-3.15 Y31.311
X-3.285 Y31.423
X-3.43 Y31.524
X-3.582 Y31.614
X-3.741 Y31.691
X-3.907 Y31.755
X-4.076 Y31.806
X-4.248 Y31.842
X-4.423 Y31.865
X-4.602 Y31.873
X-4.782 Y31.868
X-4.961 Y31.848
X-5.139 Y31.813
X-5.315 Y31.764
X-5.487 Y31.701
X-5.653 Y31.624
X-5.813 Y31.534
X-5.966 Y31.43
X-6.109 Y31.316
X-6.243 Y31.19
X-6.367 Y31.052
X-6.481 Y30.905
X-6.582 Y30.749
X-6.67 Y30.585
X-6.746 Y30.412
X-6.808 Y30.234
X-6.856 Y30.051
X-6.888 Y29.864
X-6.906 Y29.674
X-6.909 Y29.483
X-6.896 Y29.292
X-6.867 Y29.102
X-6.824 Y28.914
X-6.765 Y28.73
X-6.692 Y28.551
X-6.604 Y28.377
X-6.502 Y28.211
X-6.387 Y28.054
X-6.26 Y27.906
X-6.119 Y27.767
X-5.969 Y27.64
X-5.808 Y27.526
X-5.639 Y27.424
X-5.46 Y27.336
X-5.275 Y27.262
X-5.084 Y27.204
X-4.889 Y27.161
X-4.69 Y27.133
X-4.489 Y27.122
X-4.287 Y27.127
X-4.086 Y27.147
X-3.887 Y27.184
X-3.69 Y27.238
X-3.497 Y27.307
X-3.311 Y27.391
X-3.132 Y27.49
X-2.961 Y27.604
X-2.798 Y27.732
X-2.645 Y27.873
X-2.504 Y28.026
X-2.376 Y28.19
X-2.261 Y28.365
X-2.16 Y28.548
X-2.073 Y28.741
X-2.002 Y28.94
X-1.947 Y29.145
X-1.909 Y29.354
X-1.887 Y29.565
X-1.883 Y29.778
X-1.896 Y29.992
X-1.926 Y30.205
X-1.973 Y30.416
X-2.037 Y30.622
X-2.117 Y30.823
X-2.213 Y31.016
X-2.325 Y31.202
X-2.452 Y31.379
X-2.593 Y31.546
X-2.747 Y31.701
X-2.914 Y31.844
X-3.093 Y31.974
X-3.282 Y32.089
X-3.479 Y32.188
X-3.683 Y32.271
X-3.895 Y32.338
X-4.112 Y32.388
X-4.333 Y32.42
X-4.556 Y32.435
X-4.781 Y32.432
X-5.006 Y32.41
X-5.228 Y32.37
X-5.448 Y32.313
X-5.663 Y32.238
X-5.871 Y32.146
X-6.072 Y32.037
X-6.264 Y31.912
X-6.445 Y31.771
X-6.615 Y31.617
X-6.773 Y31.449
X-6.916 Y31.268
X-7.046 Y31.075
X-7.159 Y30.873
X-7.257 Y30.661
X-7.337 Y30.441
X-7.4 Y30.215
X-7.444 Y29.984
X-7.47 Y29.75
X-7.477 Y29.513
X-7.465 Y29.277
X-7.433 Y29.041
X-7.383 Y28.809
X-7.315 Y28.58
X-7.228 Y28.357
X-7.123 Y28.142
X-7.001 Y27.935
X-6.862 Y27.738
X-6.707 Y27.552
X-6.538 Y27.379
X-6.355 Y27.22
X-6.16 Y27.076
X-5.953 Y26.947
X-5.735 Y26.835
X-5.51 Y26.741
X-5.276 Y26.665
X-5.037 Y26.608
X-4.793 Y26.571
X-4.547 Y26.553
X-4.3 Y26.554
X-4.053 Y26.576
X-3.807 Y26.617
X-3.565 Y26.679
X-3.329 Y26.759
X-3.099 Y26.859
X-2.878 Y26.976
X-2.665 Y27.112
X-2.464 Y27.265
X-2.275 Y27.434
X-2.101 Y27.618
X-1.941 Y27.815
X-1.797 Y28.026
X-1.67 Y28.248
X-1.56 Y28.481
X-1.47 Y28.722
X-1.399 Y28.969
X-1.349 Y29.222
X-1.318 Y29.479
X-1.309 Y29.739
X-1.32 Y29.999
X-1.352 Y30.258
X-1.405 Y30.514
X-1.478 Y30.765
X-1.571 Y31.01
X-1.684 Y31.247
X-1.816 Y31.474
X-1.966 Y31.691
X-2.134 Y31.896
X-2.318 Y32.087
X-2.517 Y32.264
X-2.73 Y32.424
X-2.955 Y32.566
X-3.192 Y32.69
X-3.438 Y32.795
X-3.692 Y32.88
X-3.953 Y32.945
X-4.219 Y32.988
X-4.489 Y33.01
X-4.76 Y33.011
X-5.031 Y32.989
X-5.3 Y32.946
X-5.565 Y32.881
X-5.825 Y32.795
X-6.077 Y32.688
X-6.321 Y32.561
X-6.554 Y32.415
X-6.775 Y32.25
X-6.982 Y32.067
X-7.175 Y31.868
X-7.351 Y31.654
X-7.51 Y31.425
X-7.651 Y31.184
X-7.771 Y30.932
X-7.872 Y30.67
X-7.951 Y30.401
X-8.009 Y30.125
X-8.034 Y29.924
X-8.035 Y29.904
Y29.885
X-8.029 Y29.687
X-8.03 Y29.556
X-8.018 Y29.188
X-7.99 Y28.939
X-7.94 Y28.682
X-7.867 Y28.422
X-7.772 Y28.165
X-7.655 Y27.912
X-7.517 Y27.667
X-7.358 Y27.432
X-7.179 Y27.209
X-6.983 Y27.
X-6.769 Y26.807
X-6.54 Y26.631
X-6.297 Y26.473
X-6.041 Y26.335
X-5.775 Y26.218
X-5.499 Y26.123
X-5.461 Y26.113
X-5.42 Y26.105
X-5.378 Y26.101
X-5.336 Y26.103
X-5.269 Y26.109
X-5.006 Y26.127
X-4.875 Y26.133
X-4.612 Y26.137
X-4.48 Y26.139
X-4.086 Y26.126
X-4.013 Y26.12
X-3.863 Y26.116
X-3.691 Y26.127
X-3.492 Y26.156
X-3.277 Y26.204
X-3.062 Y26.272
X-2.834 Y26.364
X-2.599 Y26.481
X-2.365 Y26.623
X-2.136 Y26.788
X-1.917 Y26.974
X-1.711 Y27.181
X-1.519 Y27.406
X-1.345 Y27.647
X-1.19 Y27.904
X-1.055 Y28.173
X-1.041 Y28.209
X-1.026 Y28.254
X-1.017 Y28.301
X-1.014 Y28.348
G3 X-1.266 Y28.471 I-0.159 J-0.006
G1 X-1.622 Y28.21
X-3.763 Y26.645
X-4.089 Y26.406
G3 X-4.013 Y26.12 I0.094 J-0.128
G1 X-3.691 Y26.094
X-3.56 Y26.08
X-3.297 Y26.046
X-3.165 Y26.028
X-3.034 Y26.007
X-2.885 Y25.988
X-2.735 Y25.993
X-2.586 Y26.015
X-2.441 Y26.053
X-2.295 Y26.103
X-2.119 Y26.181
X-1.943 Y26.275
X-1.75 Y26.401
X-1.543 Y26.56
X-1.334 Y26.748
X-1.137 Y26.958
X-1.095 Y27.011
X-1.05 Y27.081
X-1.023 Y27.159
X-1.014 Y27.242
G3 X-1.253 Y27.373 I-0.159 J-0.006
G1 X-1.647 Y27.142
X-2.733 Y26.503
X-3.081 Y26.299
G3 X-3.034 Y26.007 I0.08 J-0.137
G1 X-2.771 Y25.96
X-2.36 Y25.873
X-2.325 Y25.865
X-2.178 Y25.836
X-2.028 Y25.837
X-1.88 Y25.859
X-1.735 Y25.898
X-1.594 Y25.951
X-1.446 Y26.021
X-1.276 Y26.119
X-1.174 Y26.189
X-1.088 Y26.272
X-1.033 Y26.377
X-1.014 Y26.494
G3 X-1.234 Y26.635 I-0.159 J-0.006
G1 X-1.674 Y26.448
X-1.981 Y26.318
X-2.344 Y26.163
G3 X-2.325 Y25.865 I0.062 J-0.146
G1 X-1.981 Y25.779
X-1.85 Y25.741
X-1.718 Y25.699
X-1.576 Y25.653
X-1.426 Y25.651
X-1.277 Y25.673
X-1.274 Y25.674
X-1.138 Y25.75
X-1.046 Y25.875
X-1.014 Y26.027
G3 X-1.23 Y26.17 I-0.159 J-0.006
G1 X-1.304 Y26.141
X-1.7 Y25.986
G3 X-1.718 Y25.699 I0.058 J-0.148
G1 X-1.543 Y25.61
X-1.455 Y25.553
X-1.426 Y25.53
X-1.389 Y25.502
X-1.359 Y25.479
X-1.329 Y25.456
X-1.212 Y25.464
X-1.109 Y25.519
X-1.039 Y25.613
X-1.014 Y25.727
X-1.022 Y25.774
X-1.045 Y25.817
X-1.079 Y25.85
X-1.122 Y25.872
G3 X-1.359 Y25.479 I-0.075 J-0.223
G1 X-1.324 Y25.448
X-1.291 Y25.417
X-1.275 Y25.405
X-1.258 Y25.396
X-1.242 Y25.389
X-1.225 Y25.384
X-1.209 Y25.381
X-1.192 Y25.38
X-1.176
X-1.159 Y25.383
X-1.143 Y25.387
X-1.127 Y25.393
X-1.11 Y25.401
X-1.094 Y25.412
X-1.061 Y25.442
X-1.045 Y25.46
X-1.033 Y25.479
X-1.025 Y25.495
X-1.02 Y25.512
X-1.016 Y25.528
X-1.014 Y25.544
Y30.608
X-1.023 Y30.794
X-1.042 Y30.943
X-1.08 Y31.119
X-1.134 Y31.296
X-1.211 Y31.494
X-1.315 Y31.708
X-1.444 Y31.927
X-1.594 Y32.139
X-1.77 Y32.352
X-1.972 Y32.558
X-2.197 Y32.754
X-2.441 Y32.934
X-2.702 Y33.096
X-2.735 Y33.113
X-2.789 Y33.135
X-2.846 Y33.149
X-2.904 Y33.154
G3 X-3.027 Y32.902 I0.006 J-0.159
G1 X-2.768 Y32.544
X-1.531 Y30.837
X-1.301 Y30.52
G3 X-1.014 Y30.608 I0.129 J0.093
G1 Y31.732
X-1.021 Y31.882
X-1.049 Y32.029
X-1.093 Y32.173
X-1.151 Y32.311
X-1.228 Y32.46
X-1.331 Y32.626
X-1.455 Y32.792
X-1.617 Y32.978
X-1.69 Y33.049
X-1.766 Y33.106
X-1.854 Y33.142
X-1.948 Y33.154
G3 X-2.078 Y32.912 I0.006 J-0.159
G1 X-1.841 Y32.525
X-1.506 Y31.978
X-1.308 Y31.655
G3 X-1.014 Y31.732 I0.135 J0.083
G1 Y32.58
Y32.62
Y32.648
X-1.021 Y32.798
X-1.052 Y32.895
X-1.129 Y33.03
X-1.254 Y33.121
X-1.405 Y33.154
G3 X-1.532 Y32.907 I0.006 J-0.159
G1 X-1.518 Y32.886
X-1.304 Y32.566
G3 X-1.014 Y32.648 I0.132 J0.088
G1 Y32.975
X-1.016 Y33.004
X-1.019 Y33.019
X-1.023 Y33.033
X-1.03 Y33.048
X-1.038 Y33.062
X-1.048 Y33.077
X-1.061 Y33.091
X-1.076 Y33.106
X-1.091 Y33.119
X-1.105 Y33.13
X-1.12 Y33.138
X-1.134 Y33.144
X-1.149 Y33.148
X-1.163 Y33.152
X-1.192 Y33.154
X-5.927
X-6.077 Y33.146
X-6.224 Y33.118
X-6.372 Y33.076
X-6.546 Y33.012
X-6.73 Y32.926
X-6.921 Y32.818
X-7.127 Y32.679
X-7.338 Y32.51
X-7.544 Y32.316
X-7.739 Y32.1
X-7.922 Y31.862
X-8.09 Y31.602
X-8.144 Y31.501
X-8.175 Y31.425
X-8.188 Y31.344
X-8.183 Y31.262
G3 X-7.928 Y31.171 I0.155 J0.033
G1 X-7.57 Y31.462
X-6.143 Y32.619
X-5.832 Y32.872
G3 X-5.927 Y33.154 I-0.1 J0.123
G1 X-6.847
X-6.997 Y33.146
X-7.145 Y33.12
X-7.288 Y33.075
X-7.426 Y33.016
X-7.571 Y32.938
X-7.722 Y32.841
X-7.894 Y32.71
X-8.06 Y32.561
X-8.238 Y32.373
X-8.273 Y32.329
X-8.33 Y32.231
X-8.354 Y32.12
X-8.344 Y32.007
G3 X-8.1 Y31.921 I0.153 J0.044
G1 X-7.705 Y32.2
X-7.08 Y32.641
X-6.761 Y32.865
G3 X-6.847 Y33.154 I-0.092 J0.13
G1 X-7.636
X-7.786 Y33.146
X-7.934 Y33.119
X-8.076 Y33.07
X-8.211 Y33.006
X-8.333 Y32.931
X-8.434 Y32.839
X-8.495 Y32.717
X-8.507 Y32.581
X-8.469 Y32.449
X-8.443 Y32.414
X-8.408 Y32.387
X-8.367 Y32.371
X-8.323 Y32.367
X-8.28 Y32.375
X-8.24 Y32.395
X-7.872 Y32.646
X-7.553 Y32.864
G3 X-7.636 Y33.154 I-0.089 J0.131
G1 X-8.294
X-8.444 Y33.146
X-8.56 Y33.07
X-8.631 Y32.951
X-8.644 Y32.812
X-8.595 Y32.682
G3 X-8.339 Y32.679 I0.13 J0.092
G1 X-8.173 Y32.9
G3 X-8.294 Y33.154 I-0.127 J0.095
G1 X-8.593
X-8.623 Y33.153
X-8.639 Y33.151
X-8.665 Y33.144
X-8.689 Y33.134
X-8.712 Y33.111
X-8.728 Y33.081
X-8.733 Y33.049
X-8.727 Y33.016
X-8.708 Y32.983
X-8.679 Y32.96
X-8.643 Y32.948
X-8.605 Y32.951
X-8.571 Y32.967
X-8.545 Y32.994
X-8.531 Y33.029
X-8.53 Y33.067
X-8.543 Y33.102
X-8.568 Y33.13
X-8.602 Y33.148
X-8.639 Y33.151
X-8.656 Y33.148
X-8.672 Y33.142
X-8.689 Y33.134
X-8.707 Y33.122
X-8.725 Y33.106
X-8.756 Y33.074
X-8.766 Y33.057
X-8.775 Y33.041
X-8.781 Y33.024
X-8.785 Y33.008
X-8.787 Y32.991
Y32.975
X-8.786 Y32.959
X-8.783 Y32.942
X-8.779 Y32.926
X-8.772 Y32.909
X-8.762 Y32.893
X-8.75 Y32.876
X-8.72 Y32.843
X-8.689 Y32.809
X-8.615 Y32.712
X-8.557 Y32.624
X-8.469 Y32.449
X-8.426 Y32.315
X-8.388 Y32.186
X-8.294 Y31.807
X-8.207 Y31.397
X-8.161 Y31.134
X-8.139 Y31.002
X-8.121 Y30.871
X-8.088 Y30.608
X-8.073 Y30.476
X-8.041 Y30.082
X-8.035 Y29.885
G3 X-7.743 Y29.803 I0.159 J0.005
G1 X-7.534 Y30.125
X-7.527 Y30.135
G3 X-7.575 Y30.355 I-0.133 J0.087
X-7.795 Y30.305 I-0.085 J-0.134
X-8.03 Y29.556 I1.346 J-0.833
G1 X-8.035 Y29.293
X-8.041 Y29.161
X-8.059 Y28.898
X-8.07 Y28.767
X-8.123 Y28.372
X-8.129 Y28.332
X-8.148 Y28.183
X-8.142 Y28.033
X-8.12 Y27.885
X-8.082 Y27.733
X-8.03 Y27.579
X-7.953 Y27.398
X-7.852 Y27.206
X-7.728 Y27.011
X-7.571 Y26.803
X-7.382 Y26.591
X-7.166 Y26.383
X-6.925 Y26.187
X-6.664 Y26.007
X-6.599 Y25.97
X-6.509 Y25.933
X-6.413 Y25.92
X-6.317 Y25.933
G3 X-6.235 Y26.178 I-0.047 J0.152
G1 X-6.52 Y26.569
X-7.599 Y28.054
X-7.846 Y28.393
G3 X-8.129 Y28.332 I-0.128 J-0.093
G1 X-8.145 Y28.24
X-8.172 Y28.109
X-8.2 Y27.977
X-8.236 Y27.846
X-8.284 Y27.672
X-8.317 Y27.525
X-8.323 Y27.376
X-8.307 Y27.226
X-8.273 Y27.08
X-8.226 Y26.938
X-8.157 Y26.779
X-8.072 Y26.619
X-7.956 Y26.439
X-7.806 Y26.241
X-7.637 Y26.052
X-7.438 Y25.862
X-7.33 Y25.775
X-7.217 Y25.713
X-7.09 Y25.693
X-6.964 Y25.717
X-6.925 Y25.741
X-6.894 Y25.775
X-6.874 Y25.816
X-6.867 Y25.861
X-6.873 Y25.906
X-6.892 Y25.948
X-7.163 Y26.38
X-7.773 Y27.349
X-7.999 Y27.708
G3 X-8.284 Y27.672 I-0.134 J-0.085
G1 X-8.309 Y27.583
X-8.354 Y27.451
X-8.456 Y27.188
X-8.473 Y27.149
X-8.525 Y27.008
X-8.543 Y26.859
X-8.536 Y26.709
X-8.51 Y26.562
X-8.468 Y26.418
X-8.41 Y26.27
X-8.338 Y26.124
X-8.237 Y25.955
X-8.126 Y25.799
X-8.026 Y25.679
X-7.921 Y25.572
X-7.851 Y25.513
X-7.716 Y25.44
X-7.562 Y25.429
X-7.417 Y25.481
X-7.382 Y25.512
X-7.358 Y25.553
X-7.347 Y25.599
X-7.35 Y25.646
X-7.366 Y25.69
X-7.635 Y26.169
X-7.977 Y26.777
X-8.191 Y27.159
G3 X-8.473 Y27.149 I-0.138 J-0.078
G1 X-8.512 Y27.057
X-8.557 Y26.966
X-8.578 Y26.925
X-8.689 Y26.748
X-8.764 Y26.618
X-8.802 Y26.473
X-8.812 Y26.323
X-8.801 Y26.173
X-8.771 Y26.026
X-8.726 Y25.883
X-8.669 Y25.745
X-8.6 Y25.612
X-8.519 Y25.485
X-8.426 Y25.368
X-8.321 Y25.26
X-8.267 Y25.217
X-8.127 Y25.148
X-7.971 Y25.142
X-7.827 Y25.202
X-7.796 Y25.233
X-7.774 Y25.27
X-7.763 Y25.313
X-7.765 Y25.357
X-7.778 Y25.398
X-8.023 Y25.909
X-8.219 Y26.316
X-8.415 Y26.725
G3 X-8.689 Y26.748 I-0.143 J-0.069
G1 X-8.744 Y26.662
X-8.971 Y26.332
X-9.05 Y26.205
X-9.094 Y26.062
X-9.11 Y25.912
X-9.103 Y25.763
X-9.077 Y25.615
X-9.034 Y25.471
X-8.975 Y25.333
X-8.902 Y25.202
X-8.814 Y25.081
X-8.712 Y24.971
X-8.674 Y24.941
X-8.533 Y24.87
X-8.376 Y24.864
X-8.23 Y24.923
X-8.2 Y24.953
X-8.179 Y24.99
X-8.168 Y25.031
Y25.074
X-8.18 Y25.114
X-8.409 Y25.639
X-8.517 Y25.886
X-8.698 Y26.301
G3 X-8.971 Y26.332 I-0.145 J-0.064
G1 X-9.273 Y25.895
X-9.352 Y25.767
X-9.394 Y25.623
X-9.408 Y25.474
X-9.397 Y25.324
X-9.365 Y25.178
X-9.314 Y25.036
X-9.246 Y24.903
X-9.159 Y24.781
X-9.056 Y24.671
X-9.049 Y24.665
X-8.937 Y24.608
X-8.814 Y24.59
X-8.691 Y24.615
X-8.65 Y24.641
X-8.619 Y24.677
X-8.6 Y24.722
X-8.595 Y24.77
X-8.605 Y24.817
X-8.797 Y25.325
X-8.84 Y25.439
X-8.997 Y25.856
G3 X-9.273 Y25.895 I-0.149 J-0.056
G1 X-9.478 Y25.597
X-9.551 Y25.479
X-9.602 Y25.347
X-9.609 Y25.316
X-9.622 Y25.216
X-9.621 Y25.15
X-9.614 Y25.084
X-9.609 Y25.055
X-9.596 Y25.004
X-9.578 Y24.953
X-9.548 Y24.887
X-9.509 Y24.821
X-9.478 Y24.781
X-9.437 Y24.736
X-9.386 Y24.69
X-9.346 Y24.659
X-9.28 Y24.619
X-9.215 Y24.589
X-9.164 Y24.572
X-9.112 Y24.558
X-9.083 Y24.553
X-9.017 Y24.546
X-8.952
X-8.851 Y24.558
X-8.82 Y24.565
X-8.689 Y24.616
X-8.571 Y24.69
X-8.163 Y24.97
X-7.505 Y25.424
X-7.394 Y25.495
X-7.242 Y25.589
X-7.202 Y25.61
X-7.11 Y25.655
X-6.979 Y25.711
X-6.716 Y25.813
X-6.584 Y25.858
