(SLIDEPIECE_BOTTOM2)
(T1  D=1.587 CR=0. - ZMIN=0. - FLAT END MILL)
G0 G90 G94 G17
G21
G53 G0 Z0.

(2D CONTOUR3)
M5
M9
T1
S16500 M3
G4 P4.
G55
M8
G0 X-13.337 Y-10.029
Z16.56
Z6.56
G1 Z2.56 F51.
Z0.719
X-13.329 Z0.67
X-13.307 Z0.625
X-13.271 Z0.59
X-13.227 Z0.568
X-13.178 Z0.56
X-13.019 F356.
X-12.97 Y-10.021
X-12.926 Y-9.999
X-12.891 Y-9.964
X-12.868 Y-9.919
X-12.861 Y-9.87
G3 X-17.343 I-2.241 J0.
X-12.861 I2.241 J0.
G1 X-12.868 Y-9.821
X-12.891 Y-9.777
X-12.926 Y-9.742
X-12.97 Y-9.719
X-13.019 Y-9.712
X-13.178
X-13.227 Z0.568
X-13.271 Z0.59
X-13.307 Z0.625
X-13.329 Z0.67
X-13.337 Z0.719
G0 Z16.56
Y-10.029
Z6.56
G1 Z2.56 F51.
Z0.159
X-13.329 Z0.11
X-13.307 Z0.065
X-13.271 Z0.03
X-13.227 Z0.008
X-13.178 Z0.
X-13.019 F356.
X-12.97 Y-10.021
X-12.926 Y-9.999
X-12.891 Y-9.964
X-12.868 Y-9.919
X-12.861 Y-9.87
G3 X-17.343 I-2.241 J0.
X-12.861 I2.241 J0.
G1 X-12.868 Y-9.821
X-12.891 Y-9.777
X-12.926 Y-9.742
X-12.97 Y-9.719
X-13.019 Y-9.712
X-13.178
X-13.227 Z0.008
X-13.271 Z0.03
X-13.307 Z0.065
X-13.329 Z0.11
X-13.337 Z0.159
G0 Z16.56

(2D POCKET1)
G55
G0 X-16.894 Y-12.037
Z16.56
Z6.56
G1 Z4.06 F356.
Z1.219 F51.
Y-12.058 Z1.139
X-16.889 Y-12.087 Z1.11
X-16.88 Y-12.114 Z1.081
X-16.859 Y-12.148 Z1.071
X-16.831 Y-12.175 Z1.06
G3 X-13.373 Y-7.565 I1.729 J2.305 F356.
X-16.831 Y-12.175 I-1.729 J-2.305
G2 X-16.5 Y-13.004 I-0.514 J-0.685
G3 X-16.006 Y-13.748 I0.642 J-0.109
X-14.198 Y-5.993 I0.904 J3.877
X-16.006 Y-13.748 I-0.904 J-3.877
G2 X-15.359 Y-14.394 I-0.197 J-0.843
G3 X-14.617 Y-14.928 I0.676 J0.157
X-15.587 Y-4.812 I-0.485 J5.058
X-14.617 Y-14.928 I0.485 J-5.058
G1 X-14.578 Y-14.92 Z1.071
X-14.543 Y-14.902 Z1.081
X-14.52 Y-14.883 Z1.11
X-14.502 Y-14.861 Z1.139
X-14.491 Y-14.843 Z1.219
G0 Z16.56

(2D CONTOUR2)
G55
G0 X-10.261 Y9.1
Z16.56
Z6.56
G1 Z2.56 F51.
Z1.719
Y9.092 Z1.67
Y9.069 Z1.625
Y9.034 Z1.59
Y8.99 Z1.568
Y8.941 Z1.56
Y8.782 F356.
X-10.253 Y8.733
X-10.23 Y8.689
X-10.195 Y8.654
X-10.151 Y8.631
X-10.102 Y8.623
X1.011
G2 X3.392 Y6.242 I0. J-2.381
G1 Y-15.983
G2 X1.011 Y-18.364 I-2.381 J0.
G1 X-21.214
G2 X-23.596 Y-15.983 I0. J2.381
G1 Y6.242
G2 X-21.214 Y8.623 I2.381 J0.
G1 X-10.102
X-10.053 Y8.631
X-10.009 Y8.654
X-9.973 Y8.689
X-9.951 Y8.733
X-9.943 Y8.782
Y8.941
Y8.99 Z1.568
Y9.034 Z1.59
Y9.069 Z1.625
Y9.092 Z1.67
Y9.1 Z1.719
G0 Z16.56
X-10.261
Z6.56
G1 Z2.56 F51.
Z0.159
Y9.092 Z0.11
Y9.069 Z0.065
Y9.034 Z0.03
Y8.99 Z0.008
Y8.941 Z0.
Y8.782 F356.
X-10.253 Y8.733
X-10.23 Y8.689
X-10.195 Y8.654
X-10.151 Y8.631
X-10.102 Y8.623
X1.011
G2 X3.392 Y6.242 I0. J-2.381
G1 Y-15.983
G2 X1.011 Y-18.364 I-2.381 J0.
G1 X-21.214
G2 X-23.596 Y-15.983 I0. J2.381
G1 Y6.242
G2 X-21.214 Y8.623 I2.381 J0.
G1 X-10.102
X-10.053 Y8.631
X-10.009 Y8.654
X-9.973 Y8.689
X-9.951 Y8.733
X-9.943 Y8.782
Y8.941
Y8.99 Z0.008
Y9.034 Z0.03
Y9.069 Z0.065
Y9.092 Z0.11
Y9.1 Z0.159
G0 Z16.56

M9
G53 Z0.
M30
