(SLIDEPIECE_TOP)
(T1  D=1.587 CR=0. - ZMIN=0. - FLAT END MILL)
G0 G90 G94 G17
G21
G53 G0 Z0.

(2D CONTOUR1)
M5
M9
T1
S16500 M3
G4 P4.
G55
M8
G0 X-8.337 Y21.371
Z16.56
Z6.56
G1 Z2.56 F51.
Z0.159
X-8.329 Z0.11
X-8.307 Z0.065
X-8.271 Z0.03
X-8.227 Z0.008
X-8.178 Z0.
X-8.019 F356.
X-7.97 Y21.379
X-7.926 Y21.401
X-7.891 Y21.436
X-7.868 Y21.481
X-7.861 Y21.53
G3 X-12.343 I-2.241 J0.
X-7.861 I2.241 J0.
G1 X-7.868 Y21.579
X-7.891 Y21.623
X-7.926 Y21.658
X-7.97 Y21.681
X-8.019 Y21.688
X-8.178
X-8.227 Z0.008
X-8.271 Z0.03
X-8.307 Z0.065
X-8.329 Z0.11
X-8.337 Z0.159
G0 Z16.56

(2D CONTOUR2)
G55
G0 X-24.072 Y21.371
Z16.56
Z6.56
G1 Z2.56 F51.
Z0.159
X-24.064 Z0.11
X-24.042 Z0.065
X-24.006 Z0.03
X-23.962 Z0.008
X-23.913 Z0.
X-23.754 F356.
X-23.705 Y21.379
X-23.661 Y21.401
X-23.626 Y21.436
X-23.603 Y21.481
X-23.596 Y21.53
Y32.642
G2 X-21.214 Y35.023 I2.381 J0.
G1 X1.011
G2 X3.392 Y32.642 I0. J-2.381
G1 Y10.417
G2 X1.011 Y8.036 I-2.381 J0.
G1 X-21.214
G2 X-23.596 Y10.417 I0. J2.381
G1 Y21.53
X-23.603 Y21.579
X-23.626 Y21.623
X-23.661 Y21.658
X-23.705 Y21.681
X-23.754 Y21.688
X-23.913
X-23.962 Z0.008
X-24.006 Z0.03
X-24.042 Z0.065
X-24.064 Z0.11
X-24.072 Z0.159
G0 Z16.56

M9
G53 Z0.
M30
