(SLIDEPIECE_BOTTOM)
(T1  D=1.587 CR=0. - ZMIN=0.501 - FLAT END MILL)
G0 G90 G94 G17
G21
G53 G0 Z0.

(ADAPTIVE2)
M5
M9
T1
S16500 M3
G4 P4.
G55
M8
G0 X-25.735 Y-20.192
Z16.56
Z6.56
Z1.128
G1 Z0.969 F356.
X-25.728 Y-20.188 Z0.92
X-25.709 Y-20.176 Z0.875
X-25.679 Y-20.157 Z0.84
X-25.642 Y-20.134 Z0.818
X-25.6 Y-20.108 Z0.81
G3 X-24.365 Y-19.137 I-3.863 J6.184
G1 X-24.262 Y-19.028
X-24.199 Y-18.892
X-24.143 Y-18.734
X-24.084 Y-18.514
X-24.024 Y-18.18
X-23.967 Y-17.605
X-23.953 Y-17.026
X-23.952 Y-16.859
X-23.953 Y-16.832
X-23.956 Y-16.806
X-23.96 Y-16.779
X-23.981 Y-16.681
X-24.034 Y-16.419
X-24.06 Y-16.288
X-24.078 Y-16.156
X-24.091 Y-15.894
X-24.096 Y-15.763
Y6.022
X-24.091 Y6.153
X-24.078 Y6.416
X-24.06 Y6.547
X-24.034 Y6.678
X-23.989 Y6.986
X-23.952 Y7.564
X-23.947 Y7.853
X-23.944 Y8.142
X-23.892 Y8.277
X-23.72 Y8.51
X-23.479 Y8.67
X-22.941 Y8.883
X-22.366 Y8.946
X-22.219 Y8.95
X-22.196 Y8.951
X-22.174 Y8.954
X-22.152 Y8.958
G0 Z6.56
X-24.503 Y5.864
Z1.128
G1 Z0.969 F356.
X-24.498 Y5.87 Z0.92
X-24.483 Y5.886 Z0.875
X-24.459 Y5.913 Z0.84
X-24.43 Y5.945 Z0.818
X-24.397 Y5.982 Z0.81
G3 X-24.034 Y6.678 I-1.178 J1.057
G1 X-23.981 Y6.941
X-23.925 Y7.203
X-23.905 Y7.264
X-23.881 Y7.326
X-23.815 Y7.466
X-23.75 Y7.575
X-23.619 Y7.775
X-23.474 Y7.991
X-23.385 Y8.122
X-23.357 Y8.158
X-23.275 Y8.253
X-23.225 Y8.301
X-23.129 Y8.384
X-23.094 Y8.413
X-22.832 Y8.59
X-22.7 Y8.678
X-22.547 Y8.778
X-22.438 Y8.843
X-22.298 Y8.909
X-22.237 Y8.933
X-22.175 Y8.953
X-21.913 Y9.009
X-21.651 Y9.062
X-21.519 Y9.088
X-21.388 Y9.106
X-21.126 Y9.118
X-20.994 Y9.123
X0.791
X0.922 Y9.118
X1.184 Y9.106
X1.315 Y9.088
X1.447 Y9.062
X1.756 Y9.017
X2.334 Y8.979
X2.623 Y8.975
X2.912 Y8.972
X3.047 Y8.919
X3.28 Y8.747
X3.44 Y8.506
X3.652 Y7.967
X3.714 Y7.392
X3.718 Y7.247
X3.719 Y7.224
X3.722 Y7.202
X3.726 Y7.18
G0 Z6.56
X0.632 Y9.531
Z1.128
G1 Z0.969 F356.
X0.638 Y9.526 Z0.92
X0.655 Y9.511 Z0.875
X0.681 Y9.487 Z0.84
X0.714 Y9.458 Z0.818
X0.75 Y9.425 Z0.81
G3 X1.447 Y9.062 I1.057 J1.178
G1 X1.709 Y9.009
X1.972 Y8.953
X2.033 Y8.933
X2.094 Y8.909
X2.234 Y8.843
X2.343 Y8.778
X2.543 Y8.647
X2.759 Y8.502
X2.89 Y8.413
X2.926 Y8.384
X3.022 Y8.301
X3.071 Y8.253
X3.153 Y8.158
X3.181 Y8.122
X3.359 Y7.859
X3.446 Y7.728
X3.546 Y7.575
X3.612 Y7.466
X3.678 Y7.326
X3.702 Y7.264
X3.721 Y7.203
X3.777 Y6.941
X3.83 Y6.678
X3.856 Y6.547
X3.875 Y6.416
X3.887 Y6.153
X3.892 Y6.022
Y-15.763
X3.887 Y-15.894
X3.875 Y-16.156
X3.856 Y-16.288
X3.83 Y-16.419
X3.785 Y-16.728
X3.748 Y-17.306
X3.738 Y-17.885
X3.692 Y-18.022
X3.609 Y-18.14
X3.402 Y-18.342
X2.892 Y-18.616
X2.319 Y-18.698
X1.903 Y-18.714
X1.882 Y-18.715
X1.861 Y-18.718
X1.84 Y-18.722
G0 Z6.56
X4.299 Y-15.604
Z1.128
G1 Z0.969 F356.
X4.294 Y-15.61 Z0.92
X4.279 Y-15.627 Z0.875
X4.256 Y-15.653 Z0.84
X4.226 Y-15.686 Z0.818
X4.193 Y-15.722 Z0.81
G3 X3.83 Y-16.419 I1.178 J-1.057
G1 X3.777 Y-16.681
X3.721 Y-16.944
X3.702 Y-17.005
X3.678 Y-17.066
X3.612 Y-17.206
X3.546 Y-17.315
X3.415 Y-17.515
X3.27 Y-17.731
X3.181 Y-17.862
X3.153 Y-17.898
X3.071 Y-17.994
X3.022 Y-18.041
X2.926 Y-18.125
X2.89 Y-18.153
X2.628 Y-18.331
X2.497 Y-18.418
X2.343 Y-18.519
X2.234 Y-18.584
X2.094 Y-18.65
X2.033 Y-18.674
X1.972 Y-18.693
X1.709 Y-18.75
X1.447 Y-18.802
X1.315 Y-18.828
X1.184 Y-18.847
X0.922 Y-18.859
X0.791 Y-18.864
X-20.994
X-21.126 Y-18.859
X-21.388 Y-18.847
X-21.519 Y-18.828
X-21.651 Y-18.802
X-21.955 Y-18.758
X-22.532 Y-18.721
X-22.673 Y-18.689
X-22.792 Y-18.606
X-22.988 Y-18.393
X-23.069 Y-18.219
X-23.094 Y-18.175
X-23.125 Y-18.134
X-23.161 Y-18.097
G3 X-23.396 Y-18.136 I-0.1 J-0.123
X-23.328 Y-18.364 I0.134 J-0.084
G1 X-23.104 Y-18.469
X-21.984 Y-18.993
X-21.754 Y-19.101
G3 X-21.528 Y-18.958 I0.067 J0.144
G1 Y-18.957
X-21.534 Y-18.915
X-21.55 Y-18.876
X-21.577 Y-18.843
X-21.611 Y-18.817
X-21.651 Y-18.802
X-21.913 Y-18.75
X-22.175 Y-18.693
X-22.237 Y-18.674
X-22.298 Y-18.65
X-22.438 Y-18.584
X-22.547 Y-18.519
X-22.747 Y-18.387
X-23.035 Y-18.193
X-23.094 Y-18.153
X-23.129 Y-18.125
X-23.225 Y-18.041
X-23.275 Y-17.994
X-23.357 Y-17.898
X-23.385 Y-17.862
X-23.562 Y-17.6
X-23.65 Y-17.469
X-23.75 Y-17.315
X-23.815 Y-17.206
X-23.881 Y-17.066
X-23.905 Y-17.005
X-23.925 Y-16.944
X-23.96 Y-16.779
X-23.976 Y-16.74
X-24.001 Y-16.707
X-24.034 Y-16.681
X-24.072 Y-16.665
X-24.114 Y-16.659
G3 X-24.193 Y-16.956 I0. J-0.159
G1 X-24.156 Y-16.966 Z0.815
X-24.121 Y-16.976 Z0.829
X-24.114 Z0.833
X-24.084 Y-16.969 Z0.858
X-24.06 Y-16.963 Z0.891
X-24.046 Y-16.96 Z0.928
X-24.041 Y-16.958 Z0.969
G0 Z6.56
X-15.57 Y-9.279
Z4.06
G3 X-14.633 Y-10.461 Z3.977 I0.469 J-0.591 F356.
X-15.57 Y-9.279 Z3.895 I-0.469 J0.591
X-14.633 Y-10.461 Z3.812 I0.469 J-0.591
X-15.57 Y-9.279 Z3.729 I-0.469 J0.591
X-14.633 Y-10.461 Z3.646 I0.469 J-0.591
X-15.57 Y-9.279 Z3.564 I-0.469 J0.591
X-14.633 Y-10.461 Z3.481 I0.469 J-0.591
X-15.57 Y-9.279 Z3.398 I-0.469 J0.591
X-14.633 Y-10.461 Z3.315 I0.469 J-0.591
X-15.57 Y-9.279 Z3.233 I-0.469 J0.591
X-14.633 Y-10.461 Z3.15 I0.469 J-0.591
X-15.57 Y-9.279 Z3.067 I-0.469 J0.591
X-14.633 Y-10.461 Z2.985 I0.469 J-0.591
X-15.57 Y-9.279 Z2.902 I-0.469 J0.591
X-14.633 Y-10.461 Z2.819 I0.469 J-0.591
X-15.57 Y-9.279 Z2.736 I-0.469 J0.591
X-14.633 Y-10.461 Z2.654 I0.469 J-0.591
X-15.57 Y-9.279 Z2.571 I-0.469 J0.591
X-14.633 Y-10.461 Z2.488 I0.469 J-0.591
X-15.57 Y-9.279 Z2.405 I-0.469 J0.591
X-14.633 Y-10.461 Z2.323 I0.469 J-0.591
X-15.57 Y-9.279 Z2.24 I-0.469 J0.591
X-14.633 Y-10.461 Z2.157 I0.469 J-0.591
X-15.57 Y-9.279 Z2.075 I-0.469 J0.591
X-14.633 Y-10.461 Z1.992 I0.469 J-0.591
X-15.57 Y-9.279 Z1.909 I-0.469 J0.591
X-14.633 Y-10.461 Z1.826 I0.469 J-0.591
X-15.57 Y-9.279 Z1.744 I-0.469 J0.591
X-14.633 Y-10.461 Z1.661 I0.469 J-0.591
X-15.57 Y-9.279 Z1.578 I-0.469 J0.591
X-14.633 Y-10.461 Z1.496 I0.469 J-0.591
X-15.57 Y-9.279 Z1.413 I-0.469 J0.591
X-14.633 Y-10.461 Z1.33 I0.469 J-0.591
X-15.57 Y-9.279 Z1.247 I-0.469 J0.591
X-14.633 Y-10.461 Z1.165 I0.469 J-0.591
X-15.57 Y-9.279 Z1.082 I-0.469 J0.591
X-14.633 Y-10.461 Z0.999 I0.469 J-0.591
X-15.57 Y-9.279 Z0.916 I-0.469 J0.591
X-14.633 Y-10.461 Z0.834 I0.469 J-0.591
X-14.348 Y-9.87 Z0.81 I-0.469 J0.591
X-15.856 I-0.754 J0.
X-14.348 I0.754 J0.
G1 X-14.314 Y-9.42
X-14.315 Y-9.27
X-14.363 Y-9.128
X-14.445 Y-9.002
X-14.551 Y-8.896
X-14.674 Y-8.81
X-14.81 Y-8.747
X-14.954 Y-8.705
X-15.102 Y-8.685
X-15.252 Y-8.686
X-15.401 Y-8.708
X-15.545 Y-8.75
X-15.682 Y-8.81
X-15.811 Y-8.887
X-15.928 Y-8.981
X-16.033 Y-9.088
X-16.123 Y-9.208
X-16.198 Y-9.338
X-16.256 Y-9.476
X-16.296 Y-9.621
X-16.318 Y-9.769
X-16.322 Y-9.919
X-16.307 Y-10.069
X-16.274 Y-10.215
X-16.223 Y-10.356
X-16.155 Y-10.49
X-16.071 Y-10.614
X-15.973 Y-10.727
X-15.861 Y-10.828
X-15.738 Y-10.914
X-15.606 Y-10.984
X-15.466 Y-11.037
X-15.32 Y-11.073
X-15.171 Y-11.091
X-15.021 Y-11.09
X-14.872 Y-11.071
X-14.727 Y-11.034
X-14.587 Y-10.979
X-14.455 Y-10.908
X-14.333 Y-10.821
X-14.222 Y-10.72
X-14.125 Y-10.605
X-14.042 Y-10.48
X-13.975 Y-10.346
X-13.905 Y-10.172
X-13.847 Y-9.985
X-13.811 Y-9.826
X-13.79 Y-9.678
X-13.784 Y-9.528
X-13.793 Y-9.378
X-13.818 Y-9.23
X-13.861 Y-9.086
X-13.919 Y-8.948
X-13.994 Y-8.818
X-14.082 Y-8.697
X-14.184 Y-8.587
X-14.298 Y-8.489
X-14.422 Y-8.404
X-14.554 Y-8.333
X-14.692 Y-8.276
X-14.836 Y-8.234
X-14.984 Y-8.206
X-15.133 Y-8.193
X-15.283 Y-8.195
X-15.432 Y-8.211
X-15.579 Y-8.241
X-15.723 Y-8.285
X-15.861 Y-8.342
X-15.995 Y-8.411
X-16.121 Y-8.492
X-16.239 Y-8.585
X-16.348 Y-8.687
X-16.448 Y-8.799
X-16.538 Y-8.92
X-16.616 Y-9.047
X-16.683 Y-9.182
X-16.738 Y-9.321
X-16.78 Y-9.465
X-16.81 Y-9.612
X-16.826 Y-9.761
X-16.83 Y-9.911
X-16.82 Y-10.061
X-16.798 Y-10.209
X-16.762 Y-10.355
X-16.714 Y-10.497
X-16.654 Y-10.635
X-16.582 Y-10.766
X-16.499 Y-10.891
X-16.405 Y-11.008
X-16.302 Y-11.117
X-16.189 Y-11.216
X-16.069 Y-11.306
X-15.941 Y-11.384
X-15.807 Y-11.451
X-15.667 Y-11.506
X-15.524 Y-11.549
X-15.377 Y-11.579
X-15.228 Y-11.597
X-15.078 Y-11.601
X-14.928 Y-11.593
X-14.78 Y-11.571
X-14.634 Y-11.537
X-14.491 Y-11.49
X-14.353 Y-11.431
X-14.221 Y-11.361
X-14.095 Y-11.279
X-13.977 Y-11.187
X-13.867 Y-11.084
X-13.761 Y-10.967
X-13.661 Y-10.838
X-13.564 Y-10.688
X-13.476 Y-10.524
X-13.414 Y-10.385
X-13.403 Y-10.358
X-13.395 Y-10.329
X-13.388 Y-10.3
X-13.322 Y-9.923
X-13.317 Y-9.89
X-13.316 Y-9.857
X-13.338 Y-9.726
X-13.407 Y-9.332
X-13.421 Y-9.267
X-13.427 Y-9.25
X-13.435 Y-9.234
X-13.717 Y-8.745
X-13.728 Y-8.729
X-13.742 Y-8.713
X-13.784 Y-8.676
X-14.17 Y-8.352
X-14.203 Y-8.327
X-14.219 Y-8.318
X-14.236 Y-8.31
X-14.761 Y-8.119
X-14.777 Y-8.114
X-14.794 Y-8.111
X-14.826 Y-8.108
X-15.384
X-15.4 Y-8.109
X-15.417 Y-8.112
X-15.483 Y-8.134
X-15.978 Y-8.314
X-15.993 Y-8.321
X-16.007 Y-8.331
X-16.42 Y-8.676
X-16.457 Y-8.709
X-16.473 Y-8.725
X-16.485 Y-8.742
X-16.768 Y-9.232
X-16.776 Y-9.247
X-16.781 Y-9.262
X-16.796 Y-9.332
X-16.866 Y-9.726
X-16.888 Y-9.857
X-16.887 Y-9.89
X-16.882 Y-9.923
X-16.795 Y-10.417
X-16.786 Y-10.465
X-16.778 Y-10.489
X-16.765 Y-10.513
X-16.497 Y-10.978
X-16.479 Y-11.008
X-16.467 Y-11.023
X-16.451 Y-11.038
X-16.007 Y-11.41
X-15.985 Y-11.423
X-15.963 Y-11.432
X-15.483 Y-11.607
X-15.417 Y-11.628
X-15.384 Y-11.632
X-14.826
X-14.794 Y-11.63
X-14.777 Y-11.627
X-14.433 Y-11.502
X-14.241 Y-11.432
X-14.223 Y-11.425
X-14.205 Y-11.415
X-14.17 Y-11.389
X-13.753 Y-11.038
X-13.736 Y-11.022
X-13.723 Y-11.005
X-13.438 Y-10.513
X-13.423 Y-10.481
X-13.418 Y-10.464
X-13.388 Y-10.3
G3 X-13.703 Y-10.256 I-0.157 J0.022
X-13.67 Y-10.376 I0.157 J-0.022
G1 X-13.637 Y-10.397 Z0.816
X-13.605 Y-10.417 Z0.831
X-13.578 Y-10.434 Z0.855
X-13.56 Y-10.435 Z0.877
X-13.546 Y-10.437 Z0.901
X-13.534 Y-10.436 Z0.934
X-13.531 Z0.969
G0 Z6.56
X-15.214 Y-9.718
Z1.202
G1 Z1.044 F356.
X-15.221 Y-9.722 Z0.995
X-15.24 Y-9.733 Z0.95
X-15.271 Y-9.751 Z0.915
X-15.309 Y-9.774 Z0.893
X-15.351 Y-9.799 Z0.885
G3 X-16.608 Y-10.74 I3.715 J-6.274
G1 X-16.636 Y-10.768
X-16.646 Y-10.806
X-16.636 Y-10.843
X-16.532 Y-11.023
X-16.522 Y-11.038
X-16.508 Y-11.056
X-16.492 Y-11.073
X-16.036 Y-11.455
X-16.022 Y-11.465
X-16.007 Y-11.472
X-15.45 Y-11.675
X-15.433 Y-11.68
X-15.417 Y-11.683
X-15.351 Y-11.685
X-14.826
X-14.794 Y-11.684
X-14.777 Y-11.682
X-14.761 Y-11.678
X-14.203 Y-11.475
X-14.187 Y-11.467
X-14.17 Y-11.456
X-14.139 Y-11.432
X-13.729 Y-11.088
X-13.702 Y-11.063
X-13.681 Y-11.038
X-13.605 Y-10.907
X-13.383 Y-10.522
X-13.379 Y-10.513
X-13.367 Y-10.481
X-13.349 Y-10.382
X-13.268 Y-9.923
X-13.263 Y-9.89
X-13.262 Y-9.857
X-13.284 Y-9.726
X-13.364 Y-9.275
X-13.371 Y-9.246
X-13.376 Y-9.232
X-13.383 Y-9.218
X-13.67 Y-8.719
X-13.685 Y-8.698
X-13.703 Y-8.676
X-13.858 Y-8.545
X-14.17 Y-8.283
X-14.188 Y-8.273
X-14.204 Y-8.266
X-14.761 Y-8.063
X-14.777 Y-8.059
X-14.794 Y-8.056
X-14.826 Y-8.055
X-15.351
X-15.417 Y-8.057
X-15.433 Y-8.06
X-15.45 Y-8.065
X-15.876 Y-8.22
X-16.007 Y-8.27
X-16.031 Y-8.282
X-16.139 Y-8.371
X-16.502 Y-8.676
X-16.519 Y-8.697
X-16.532 Y-8.718
X-16.811 Y-9.201
X-16.828 Y-9.234
X-16.834 Y-9.25
X-16.839 Y-9.267
X-16.926 Y-9.762
X-16.942 Y-9.857
X-16.941 Y-9.887
X-16.937 Y-9.918
X-16.843 Y-10.448
X-16.837 Y-10.481
X-16.826 Y-10.513
X-16.751 Y-10.645
X-16.636 Y-10.843
X-16.611 Y-10.874
X-16.579 Y-10.898
X-16.542 Y-10.913
X-16.502 Y-10.918
X-16.501
G3 X-16.469 Y-10.604 I0. J0.159
G1 X-16.495 Y-10.601 Z0.887
X-16.501 Y-10.6 Z0.888
X-16.543 Y-10.616 Z0.906
X-16.579 Y-10.629 Z0.936
X-16.604 Y-10.638 Z0.976
X-16.612 Y-10.645 Z1.009
X-16.615 Y-10.648 Z1.044
G0 Z6.56
X-14.946 Y-9.657
Z1.278
G1 Z1.119 F356.
X-14.94 Y-9.662 Z1.07
X-14.924 Y-9.678 Z1.025
X-14.899 Y-9.703 Z0.99
X-14.867 Y-9.734 Z0.968
X-14.832 Y-9.768 Z0.96
G3 X-13.597 Y-10.739 I5.098 J5.212
G1 X-13.467 Y-10.814
X-13.462 Y-10.812
X-13.457 Y-10.809
X-13.453 Y-10.804
X-13.323 Y-10.579
X-13.305 Y-10.546
X-13.292 Y-10.513
X-13.268 Y-10.382
X-13.187 Y-9.923
X-13.182 Y-9.89
X-13.181 Y-9.857
X-13.203 Y-9.726
X-13.284 Y-9.267
X-13.291 Y-9.234
X-13.301 Y-9.201
X-13.452 Y-8.939
X-13.603 Y-8.676
X-13.62 Y-8.648
X-13.631 Y-8.634
X-13.645 Y-8.619
X-14.046 Y-8.282
X-14.108 Y-8.23
X-14.139 Y-8.209
X-14.17 Y-8.193
X-14.695 Y-8.002
X-14.761 Y-7.979
X-14.777 Y-7.976
X-14.794 Y-7.975
X-15.351
X-15.417 Y-7.976
X-15.45 Y-7.981
X-15.483 Y-7.992
X-16.04 Y-8.195
X-16.057 Y-8.203
X-16.073 Y-8.214
X-16.158 Y-8.282
X-16.532 Y-8.597
X-16.573 Y-8.636
X-16.589 Y-8.656
X-16.828 Y-9.07
X-16.903 Y-9.201
X-16.911 Y-9.226
X-16.917 Y-9.251
X-17.001 Y-9.726
X-17.023 Y-9.857
X-17.022 Y-9.89
X-17.017 Y-9.923
X-16.926 Y-10.439
X-16.912 Y-10.513
X-16.899 Y-10.546
X-16.843 Y-10.645
X-16.585 Y-11.091
X-16.575 Y-11.104
X-16.563 Y-11.117
X-16.502 Y-11.169
X-16.139 Y-11.474
X-16.073 Y-11.527
X-16.04 Y-11.545
X-15.876 Y-11.605
X-15.483 Y-11.748
X-15.45 Y-11.76
X-15.417 Y-11.764
X-15.351 Y-11.765
X-14.794
X-14.777 Y-11.764
X-14.761 Y-11.761
X-14.695 Y-11.739
X-14.17 Y-11.548
X-14.154 Y-11.541
X-14.137 Y-11.532
X-14.105 Y-11.507
X-13.645 Y-11.122
X-13.635 Y-11.111
X-13.626 Y-11.101
X-13.612 Y-11.08
X-13.453 Y-10.804
G3 X-13.733 Y-10.655 I-0.14 J0.075
X-13.744 Y-10.779 I0.14 J-0.075
G1 X-13.719 Y-10.81 Z0.966
X-13.696 Y-10.84 Z0.981
X-13.677 Y-10.865 Z1.005
X-13.653 Y-10.875 Z1.038
X-13.638 Y-10.881 Z1.077
X-13.633 Y-10.883 Z1.119
G0 Z6.56
X-15.405 Y-9.866
Z1.352
G1 Z1.194 F356.
X-15.407 Y-9.858 Z1.145
X-15.412 Y-9.836 Z1.1
X-15.421 Y-9.802 Z1.065
X-15.431 Y-9.759 Z1.043
X-15.443 Y-9.712 Z1.035
G3 X-15.982 Y-8.236 I-7.078 J-1.751
G1 X-16.018 Y-8.17
X-16.072 Y-8.143
X-16.132 Y-8.138
X-16.189 Y-8.156
X-16.298 Y-8.215
X-16.326 Y-8.235
X-16.594 Y-8.46
X-16.612 Y-8.479
X-16.761 Y-8.676
X-16.795 Y-8.725
X-17.042 Y-9.168
X-17.049 Y-9.185
X-17.054 Y-9.201
X-17.124 Y-9.595
X-17.135 Y-9.66
X-17.134 Y-9.726
X-17.127 Y-10.12
X-17.103 Y-10.251
X-17.038 Y-10.579
X-17.033 Y-10.595
X-17.027 Y-10.612
X-17.009 Y-10.645
X-16.763 Y-11.071
X-16.736 Y-11.104
X-16.532 Y-11.331
X-16.27 Y-11.551
X-16.25 Y-11.563
X-15.843 Y-11.77
X-15.811 Y-11.781
X-15.384 Y-11.904
X-15.368 Y-11.907
X-15.351 Y-11.909
X-14.958
X-14.892
X-14.826 Y-11.894
X-14.433 Y-11.795
X-14.416 Y-11.791
X-14.4 Y-11.784
X-14.039 Y-11.607
X-13.95 Y-11.563
X-13.908 Y-11.53
X-13.776 Y-11.42
X-13.645 Y-11.299
X-13.483 Y-11.134
X-13.469 Y-11.118
X-13.459 Y-11.102
X-13.194 Y-10.645
X-13.177 Y-10.612
X-13.17 Y-10.595
X-13.166 Y-10.579
X-13.101 Y-10.251
X-13.077 Y-10.12
X-13.069 Y-9.726
Y-9.66
X-13.126 Y-9.332
X-13.15 Y-9.201
X-13.155 Y-9.185
X-13.161 Y-9.168
X-13.383 Y-8.771
X-13.437 Y-8.676
X-13.466 Y-8.627
X-13.476 Y-8.614
X-13.488 Y-8.602
X-13.827 Y-8.282
X-13.908 Y-8.211
X-13.931 Y-8.191
X-13.943 Y-8.182
X-13.955 Y-8.175
X-14.4 Y-7.957
X-14.416 Y-7.95
X-14.433 Y-7.945
X-14.826 Y-7.846
X-14.892 Y-7.832
X-15.22 Y-7.831
X-15.351
X-15.368 Y-7.833
X-15.384 Y-7.837
X-15.811 Y-7.96
X-15.843 Y-7.971
X-16.189 Y-8.156
G3 X-16.029 Y-8.43 I0.08 J-0.137
X-15.955 Y-8.33 I-0.08 J0.137
G1 X-15.95 Y-8.293 Z1.04
X-15.962 Y-8.26 Z1.053
X-15.973 Y-8.231 Z1.075
X-15.981 Y-8.207 Z1.104
X-15.987 Y-8.191 Z1.138
X-15.993 Y-8.185 Z1.165
X-15.994 Y-8.183 Z1.194
G0 Z6.56
X-15.011 Y-10.263
Z1.428
G1 Z1.269 F356.
X-15.016 Y-10.269 Z1.22
X-15.031 Y-10.286 Z1.175
X-15.055 Y-10.312 Z1.14
X-15.085 Y-10.344 Z1.118
X-15.117 Y-10.381 Z1.11
G3 X-16.038 Y-11.654 I5.413 J-4.884
G1 X-16.073 Y-11.72
X-16.052 Y-11.869
X-15.974 Y-11.997
X-15.873 Y-12.107
X-15.753 Y-12.198
X-15.621 Y-12.268
X-15.481 Y-12.323
X-15.337 Y-12.366
X-15.189 Y-12.391
X-15.015 Y-12.406
X-14.85
X-14.7 Y-12.394
X-14.505 Y-12.362
X-14.282 Y-12.307
X-14.129 Y-12.256
X-13.959 Y-12.185
X-13.775 Y-12.088
X-13.575 Y-11.962
X-13.441 Y-11.862
X-13.308 Y-11.745
X-13.14 Y-11.571
X-12.989 Y-11.387
X-12.903 Y-11.264
X-12.816 Y-11.114
X-12.719 Y-10.909
X-12.653 Y-10.737
X-12.591 Y-10.527
X-12.54 Y-10.284
X-12.516 Y-10.09
X-12.504 Y-9.821
X-12.511 Y-9.621
X-12.528 Y-9.472
X-12.565 Y-9.29
X-12.634 Y-9.048
X-12.712 Y-8.841
X-12.778 Y-8.701
X-12.875 Y-8.53
X-13.022 Y-8.316
X-13.156 Y-8.149
X-13.268 Y-8.032
X-13.426 Y-7.89
X-13.622 Y-7.742
X-13.775 Y-7.644
X-13.99 Y-7.529
X-14.198 Y-7.439
X-14.365 Y-7.382
X-14.596 Y-7.324
X-14.801 Y-7.289
X-14.957 Y-7.276
X-15.16 Y-7.274
X-15.391 Y-7.291
X-15.561 Y-7.318
X-15.782 Y-7.37
X-16.025 Y-7.449
X-16.204 Y-7.524
X-16.423 Y-7.636
X-16.573 Y-7.73
X-16.733 Y-7.847
X-16.874 Y-7.971
X-17.029 Y-8.129
X-17.208 Y-8.344
X-17.305 Y-8.482
X-17.386 Y-8.618
X-17.477 Y-8.807
X-17.552 Y-8.998
X-17.606 Y-9.178
X-17.66 Y-9.426
X-17.686 Y-9.623
X-17.698 Y-9.862
X-17.69 Y-10.118
X-17.674 Y-10.272
X-17.641 Y-10.44
X-17.579 Y-10.664
X-17.507 Y-10.861
X-17.426 Y-11.038
X-17.321 Y-11.225
X-17.205 Y-11.397
X-16.845 Y-11.85
X-16.675 Y-12.088
X-16.541 Y-12.246
X-16.413 Y-12.375
X-16.282 Y-12.487
X-16.144 Y-12.587
X-16.004 Y-12.672
X-15.855 Y-12.747
X-15.692 Y-12.814
X-15.517 Y-12.869
X-15.337 Y-12.91
X-15.149 Y-12.938
X-14.951 Y-12.951
X-14.732 Y-12.947
X-14.517 Y-12.927
X-14.301 Y-12.888
X-14.08 Y-12.83
X-13.852 Y-12.75
X-13.637 Y-12.655
X-13.434 Y-12.545
X-13.227 Y-12.41
X-13.025 Y-12.254
X-12.847 Y-12.092
X-12.687 Y-11.921
X-12.535 Y-11.729
X-12.4 Y-11.529
X-12.279 Y-11.314
X-12.171 Y-11.079
X-12.084 Y-10.838
X-12.013 Y-10.584
X-11.962 Y-10.318
X-11.935 Y-10.07
X-11.928 Y-9.83
X-11.941 Y-9.575
X-11.975 Y-9.319
X-12.026 Y-9.079
X-12.097 Y-8.847
X-12.191 Y-8.606
X-12.305 Y-8.372
X-12.431 Y-8.159
X-12.574 Y-7.955
X-12.74 Y-7.756
X-12.917 Y-7.574
X-13.113 Y-7.404
X-13.325 Y-7.247
X-13.545 Y-7.111
X-13.775 Y-6.993
X-14.016 Y-6.892
X-14.25 Y-6.816
X-14.489 Y-6.76
X-14.739 Y-6.721
X-14.983 Y-6.703
X-15.235 Y-6.705
X-15.496 Y-6.727
X-15.755 Y-6.771
X-16.01 Y-6.836
X-16.258 Y-6.92
X-16.49 Y-7.021
X-16.708 Y-7.137
X-16.921 Y-7.273
X-17.13 Y-7.432
X-17.33 Y-7.611
X-17.497 Y-7.787
X-17.652 Y-7.978
X-17.791 Y-8.183
X-17.912 Y-8.394
X-18.022 Y-8.627
X-18.111 Y-8.867
X-18.183 Y-9.117
X-18.235 Y-9.378
X-18.267 Y-9.644
X-18.276 Y-9.888
X-18.265 Y-10.14
X-18.234 Y-10.392
X-18.183 Y-10.637
X-18.112 Y-10.88
X-18.022 Y-11.116
X-17.909 Y-11.353
X-17.663 Y-11.777
X-17.354 Y-12.223
X-17.145 Y-12.479
X-16.949 Y-12.682
X-16.755 Y-12.854
X-16.56 Y-13.001
X-16.359 Y-13.127
X-16.152 Y-13.236
X-15.937 Y-13.328
X-15.714 Y-13.402
X-15.484 Y-13.459
X-15.241 Y-13.499
X-14.991 Y-13.519
X-14.736
X-14.476 Y-13.499
X-14.209 Y-13.456
X-13.944 Y-13.391
X-13.683 Y-13.305
X-13.424 Y-13.195
X-13.17 Y-13.062
X-12.926 Y-12.909
X-12.698 Y-12.738
X-12.482 Y-12.548
X-12.282 Y-12.342
X-12.098 Y-12.118
X-11.93 Y-11.877
X-11.781 Y-11.62
X-11.65 Y-11.348
X-11.54 Y-11.062
X-11.455 Y-10.771
X-11.393 Y-10.479
X-11.356 Y-10.181
X-11.342 Y-9.88
X-11.353 Y-9.582
X-11.387 Y-9.288
X-11.445 Y-8.995
X-11.527 Y-8.705
X-11.631 Y-8.424
X-11.757 Y-8.154
X-11.906 Y-7.892
X-12.075 Y-7.644
X-12.265 Y-7.408
X-12.475 Y-7.186
X-12.702 Y-6.982
X-12.945 Y-6.797
X-13.202 Y-6.631
X-13.469 Y-6.488
X-13.743 Y-6.369
X-14.027 Y-6.271
X-14.314 Y-6.198
X-14.608 Y-6.147
X-14.908 Y-6.12
X-15.212 Y-6.117
X-15.517 Y-6.139
X-15.82 Y-6.185
X-16.117 Y-6.255
X-16.403 Y-6.348
X-16.681 Y-6.463
X-16.952 Y-6.601
X-17.213 Y-6.763
X-17.457 Y-6.941
X-17.683 Y-7.137
X-17.892 Y-7.349
X-18.081 Y-7.576
X-18.253 Y-7.819
X-18.406 Y-8.077
X-18.539 Y-8.349
X-18.651 Y-8.633
X-18.741 Y-8.928
X-18.805 Y-9.224
X-18.846 Y-9.524
X-18.862 Y-9.825
X-18.854 Y-10.125
X-18.822 Y-10.423
X-18.766 Y-10.718
X-18.686 Y-11.011
X-18.569 Y-11.331
X-18.406 Y-11.689
X-18.171 Y-12.11
X-17.928 Y-12.473
X-17.688 Y-12.777
X-17.456 Y-13.026
X-17.223 Y-13.239
X-16.982 Y-13.426
X-16.734 Y-13.589
X-16.477 Y-13.729
X-16.212 Y-13.847
X-15.938 Y-13.944
X-15.655 Y-14.019
X-15.364 Y-14.071
X-15.066 Y-14.101
X-14.76 Y-14.106
X-14.451 Y-14.087
X-14.141 Y-14.042
X-13.83 Y-13.971
X-13.522 Y-13.875
X-13.218 Y-13.752
X-12.924 Y-13.605
X-12.641 Y-13.433
X-12.372 Y-13.239
X-12.118 Y-13.023
X-11.88 Y-12.785
X-11.661 Y-12.527
X-11.461 Y-12.25
X-11.283 Y-11.955
X-11.127 Y-11.643
X-10.997 Y-11.319
X-10.893 Y-10.987
X-10.816 Y-10.648
X-10.767 Y-10.303
X-10.745 Y-9.956
X-10.752 Y-9.61
X-10.786 Y-9.265
X-10.848 Y-8.923
X-10.937 Y-8.587
X-11.053 Y-8.26
X-11.195 Y-7.942
X-11.362 Y-7.636
X-11.554 Y-7.344
X-11.769 Y-7.067
X-12.007 Y-6.807
X-12.265 Y-6.567
X-12.543 Y-6.348
X-12.835 Y-6.153
X-13.141 Y-5.983
X-13.458 Y-5.838
X-13.785 Y-5.72
X-14.12 Y-5.628
X-14.462 Y-5.564
X-14.809 Y-5.527
X-15.161 Y-5.518
X-15.513 Y-5.537
X-15.863 Y-5.584
X-16.206 Y-5.659
X-16.541 Y-5.762
X-16.868 Y-5.89
X-17.184 Y-6.046
X-17.486 Y-6.225
X-17.771 Y-6.428
X-18.038 Y-6.651
X-18.285 Y-6.894
X-18.511 Y-7.156
X-18.716 Y-7.436
X-18.899 Y-7.733
X-19.059 Y-8.045
X-19.193 Y-8.371
X-19.301 Y-8.707
X-19.381 Y-9.048
X-19.434 Y-9.395
X-19.458 Y-9.744
X-19.455 Y-10.093
X-19.423 Y-10.44
X-19.364 Y-10.785
X-19.272 Y-11.141
X-19.142 Y-11.52
X-18.958 Y-11.942
X-18.735 Y-12.358
X-18.488 Y-12.741
X-18.229 Y-13.079
X-17.963 Y-13.374
X-17.689 Y-13.634
X-17.406 Y-13.861
X-17.115 Y-14.058
X-16.814 Y-14.229
X-16.503 Y-14.374
X-16.182 Y-14.493
X-15.851 Y-14.586
X-15.512 Y-14.653
X-15.165 Y-14.693
X-14.813 Y-14.705
X-14.457 Y-14.689
X-14.099 Y-14.643
X-13.741 Y-14.568
X-13.386 Y-14.463
X-13.037 Y-14.329
X-12.699 Y-14.166
X-12.372 Y-13.975
X-12.061 Y-13.758
X-11.766 Y-13.515
X-11.49 Y-13.248
X-11.235 Y-12.958
X-11.001 Y-12.645
X-10.793 Y-12.312
X-10.61 Y-11.962
X-10.456 Y-11.598
X-10.332 Y-11.222
X-10.238 Y-10.836
X-10.176 Y-10.445
X-10.145 Y-10.051
Y-9.656
X-10.178 Y-9.261
X-10.242 Y-8.871
X-10.337 Y-8.487
X-10.463 Y-8.111
X-10.619 Y-7.747
X-10.804 Y-7.395
X-11.017 Y-7.059
X-11.257 Y-6.739
X-11.522 Y-6.44
X-11.811 Y-6.162
X-12.121 Y-5.909
X-12.45 Y-5.681
X-12.795 Y-5.482
X-13.154 Y-5.311
X-13.524 Y-5.17
X-13.905 Y-5.059
X-14.294 Y-4.979
X-14.69 Y-4.931
X-15.089 Y-4.914
X-15.489 Y-4.929
X-15.887 Y-4.976
X-16.278 Y-5.055
X-16.662 Y-5.165
X-17.037 Y-5.306
X-17.399 Y-5.476
X-17.746 Y-5.675
X-18.074 Y-5.9
X-18.382 Y-6.149
X-18.668 Y-6.422
X-18.932 Y-6.717
X-19.171 Y-7.033
X-19.386 Y-7.368
X-19.573 Y-7.72
X-19.732 Y-8.088
X-19.86 Y-8.466
X-19.958 Y-8.853
X-20.024 Y-9.247
X-20.059 Y-9.643
X-20.061 Y-10.041
X-20.032 Y-10.438
X-19.969 Y-10.84
X-19.87 Y-11.254
X-19.726 Y-11.695
X-19.537 Y-12.147
X-19.31 Y-12.589
X-19.053 Y-13.002
X-18.874 Y-13.244
X-18.858 Y-13.264
X-18.841 Y-13.283
X-18.822 Y-13.301
X-18.107 Y-13.934
X-17.976 Y-14.046
X-17.959 Y-14.057
X-16.926 Y-14.599
X-16.893 Y-14.613
X-16.86 Y-14.622
X-15.745 Y-14.897
X-15.712 Y-14.903
X-15.679 Y-14.905
X-14.498
X-14.433 Y-14.891
X-13.383 Y-14.632
X-13.317 Y-14.615
X-13.301 Y-14.61
X-13.284 Y-14.602
X-12.245 Y-14.057
X-12.223 Y-14.043
X-12.202 Y-14.027
X-11.346 Y-13.269
X-11.31 Y-13.235
X-11.295 Y-13.218
X-10.627 Y-12.25
X-10.609 Y-12.219
X-10.558 Y-12.088
X-10.185 Y-11.104
X-10.177 Y-11.071
X-10.124 Y-10.645
X-10.044 Y-9.988
X-10.032 Y-9.857
X-10.175 Y-8.676
X-10.183 Y-8.643
X-10.606 Y-7.528
X-10.614 Y-7.511
X-10.627 Y-7.49
X-11.283 Y-6.54
X-11.3 Y-6.516
X-11.323 Y-6.492
X-12.202 Y-5.713
X-12.225 Y-5.696
X-12.248 Y-5.682
X-13.296 Y-5.133
X-13.383 Y-5.109
X-14.433 Y-4.85
X-14.498 Y-4.836
X-15.679 Y-4.835
X-15.712 Y-4.837
X-15.745 Y-4.843
X-16.795 Y-5.102
X-16.906 Y-5.133
X-16.926 Y-5.142
X-17.909 Y-5.658
X-17.976 Y-5.693
X-18.107 Y-5.806
X-18.828 Y-6.445
X-18.895 Y-6.506
X-18.946 Y-6.576
X-19.58 Y-7.495
X-19.59 Y-7.511
X-19.598 Y-7.528
X-20.021 Y-8.643
X-20.028 Y-8.676
X-20.172 Y-9.857
X-20.159 Y-9.988
X-20.032 Y-11.038
X-20.027 Y-11.071
X-20.019 Y-11.104
X-19.645 Y-12.088
X-19.594 Y-12.219
X-19.551 Y-12.288
X-18.964 Y-13.138
X-18.895 Y-13.234
X-18.858 Y-13.269
X-18.822 Y-13.301
G3 X-18.62 Y-13.056 I0.101 J0.122
X-18.739 Y-13.021 I-0.101 J-0.122
G1 X-18.775 Y-13.039 Z1.116
X-18.808 Y-13.055 Z1.131
X-18.836 Y-13.07 Z1.155
X-18.851 Y-13.091 Z1.188
X-18.86 Y-13.104 Z1.227
X-18.864 Y-13.109 Z1.269
G0 Z6.56
X-25.735 Y-20.192
Z0.818
G1 Z0.66 F356.
X-25.728 Y-20.188 Z0.61
X-25.709 Y-20.176 Z0.566
X-25.679 Y-20.157 Z0.531
X-25.642 Y-20.134 Z0.509
X-25.6 Y-20.108 Z0.501
G3 X-24.365 Y-19.137 I-3.863 J6.184
G1 X-24.262 Y-19.028
X-24.199 Y-18.892
X-24.143 Y-18.734
X-24.084 Y-18.514
X-24.024 Y-18.18
X-23.967 Y-17.605
X-23.953 Y-17.026
X-23.952 Y-16.859
X-23.953 Y-16.832
X-23.956 Y-16.806
X-23.96 Y-16.779
X-23.981 Y-16.681
X-24.034 Y-16.419
X-24.06 Y-16.288
X-24.078 Y-16.156
X-24.091 Y-15.894
X-24.096 Y-15.763
Y6.022
X-24.091 Y6.153
X-24.078 Y6.416
X-24.06 Y6.547
X-24.034 Y6.678
X-23.989 Y6.986
X-23.952 Y7.564
X-23.947 Y7.853
X-23.944 Y8.142
X-23.892 Y8.277
X-23.72 Y8.51
X-23.479 Y8.67
X-22.941 Y8.883
X-22.366 Y8.946
X-22.219 Y8.95
X-22.196 Y8.951
X-22.174 Y8.954
X-22.152 Y8.958
G0 Z6.56
X-24.503 Y5.864
Z0.818
G1 Z0.66 F356.
X-24.498 Y5.87 Z0.61
X-24.483 Y5.886 Z0.566
X-24.459 Y5.913 Z0.531
X-24.43 Y5.945 Z0.509
X-24.397 Y5.982 Z0.501
G3 X-24.034 Y6.678 I-1.178 J1.057
G1 X-23.981 Y6.941
X-23.925 Y7.203
X-23.905 Y7.264
X-23.881 Y7.326
X-23.815 Y7.466
X-23.75 Y7.575
X-23.619 Y7.775
X-23.474 Y7.991
X-23.385 Y8.122
X-23.357 Y8.158
X-23.275 Y8.253
X-23.225 Y8.301
X-23.129 Y8.384
X-23.094 Y8.413
X-22.832 Y8.59
X-22.7 Y8.678
X-22.547 Y8.778
X-22.438 Y8.843
X-22.298 Y8.909
X-22.237 Y8.933
X-22.175 Y8.953
X-21.913 Y9.009
X-21.651 Y9.062
X-21.519 Y9.088
X-21.388 Y9.106
X-21.126 Y9.118
X-20.994 Y9.123
X0.791
X0.922 Y9.118
X1.184 Y9.106
X1.315 Y9.088
X1.447 Y9.062
X1.756 Y9.017
X2.334 Y8.979
X2.623 Y8.975
X2.912 Y8.972
X3.047 Y8.919
X3.28 Y8.747
X3.44 Y8.506
X3.652 Y7.967
X3.714 Y7.392
X3.718 Y7.247
X3.719 Y7.224
X3.722 Y7.202
X3.726 Y7.18
G0 Z6.56
X0.632 Y9.531
Z0.818
G1 Z0.66 F356.
X0.638 Y9.526 Z0.61
X0.655 Y9.511 Z0.566
X0.681 Y9.487 Z0.531
X0.714 Y9.458 Z0.509
X0.75 Y9.425 Z0.501
G3 X1.447 Y9.062 I1.057 J1.178
G1 X1.709 Y9.009
X1.972 Y8.953
X2.033 Y8.933
X2.094 Y8.909
X2.234 Y8.843
X2.343 Y8.778
X2.543 Y8.647
X2.759 Y8.502
X2.89 Y8.413
X2.926 Y8.384
X3.022 Y8.301
X3.071 Y8.253
X3.153 Y8.158
X3.181 Y8.122
X3.359 Y7.859
X3.446 Y7.728
X3.546 Y7.575
X3.612 Y7.466
X3.678 Y7.326
X3.702 Y7.264
X3.721 Y7.203
X3.777 Y6.941
X3.83 Y6.678
X3.856 Y6.547
X3.875 Y6.416
X3.887 Y6.153
X3.892 Y6.022
Y-15.763
X3.887 Y-15.894
X3.875 Y-16.156
X3.856 Y-16.288
X3.83 Y-16.419
X3.785 Y-16.728
X3.748 Y-17.306
X3.738 Y-17.885
X3.692 Y-18.022
X3.609 Y-18.14
X3.402 Y-18.342
X2.892 Y-18.616
X2.319 Y-18.698
X1.903 Y-18.714
X1.882 Y-18.715
X1.861 Y-18.718
X1.84 Y-18.722
G0 Z6.56
X4.299 Y-15.604
Z0.818
G1 Z0.66 F356.
X4.294 Y-15.61 Z0.61
X4.279 Y-15.627 Z0.566
X4.256 Y-15.653 Z0.531
X4.226 Y-15.686 Z0.509
X4.193 Y-15.722 Z0.501
G3 X3.83 Y-16.419 I1.178 J-1.057
G1 X3.777 Y-16.681
X3.721 Y-16.944
X3.702 Y-17.005
X3.678 Y-17.066
X3.612 Y-17.206
X3.546 Y-17.315
X3.415 Y-17.515
X3.27 Y-17.731
X3.181 Y-17.862
X3.153 Y-17.898
X3.071 Y-17.994
X3.022 Y-18.041
X2.926 Y-18.125
X2.89 Y-18.153
X2.628 Y-18.331
X2.497 Y-18.418
X2.343 Y-18.519
X2.234 Y-18.584
X2.094 Y-18.65
X2.033 Y-18.674
X1.972 Y-18.693
X1.709 Y-18.75
X1.447 Y-18.802
X1.315 Y-18.828
X1.184 Y-18.847
X0.922 Y-18.859
X0.791 Y-18.864
X-20.994
X-21.126 Y-18.859
X-21.388 Y-18.847
X-21.519 Y-18.828
X-21.651 Y-18.802
X-21.955 Y-18.758
X-22.532 Y-18.721
X-22.673 Y-18.689
X-22.792 Y-18.606
X-22.988 Y-18.393
X-23.069 Y-18.219
X-23.094 Y-18.175
X-23.125 Y-18.134
X-23.161 Y-18.097
G3 X-23.396 Y-18.136 I-0.1 J-0.123
X-23.328 Y-18.364 I0.134 J-0.084
G1 X-23.104 Y-18.469
X-21.984 Y-18.993
X-21.754 Y-19.101
G3 X-21.528 Y-18.958 I0.067 J0.144
G1 Y-18.957
X-21.534 Y-18.915
X-21.55 Y-18.876
X-21.577 Y-18.843
X-21.611 Y-18.817
X-21.651 Y-18.802
X-21.913 Y-18.75
X-22.175 Y-18.693
X-22.237 Y-18.674
X-22.298 Y-18.65
X-22.438 Y-18.584
X-22.547 Y-18.519
X-22.747 Y-18.387
X-23.035 Y-18.193
X-23.094 Y-18.153
X-23.129 Y-18.125
X-23.225 Y-18.041
X-23.275 Y-17.994
X-23.357 Y-17.898
X-23.385 Y-17.862
X-23.562 Y-17.6
X-23.65 Y-17.469
X-23.75 Y-17.315
X-23.815 Y-17.206
X-23.881 Y-17.066
X-23.905 Y-17.005
X-23.925 Y-16.944
X-23.96 Y-16.779
X-23.976 Y-16.74
X-24.001 Y-16.707
X-24.034 Y-16.681
X-24.072 Y-16.665
X-24.114 Y-16.659
G3 X-24.193 Y-16.956 I0. J-0.159
G1 X-24.156 Y-16.966 Z0.506
X-24.121 Y-16.976 Z0.52
X-24.114 Z0.524
X-24.084 Y-16.969 Z0.549
X-24.06 Y-16.963 Z0.582
X-24.046 Y-16.96 Z0.619
X-24.041 Y-16.958 Z0.659
G0 Z6.56
X-14.354 Y-9.773
Z3.31
G3 X-15.85 Y-9.968 Z3.227 I-0.748 J-0.098 F356.
X-14.354 Y-9.773 Z3.145 I0.748 J0.098
X-15.85 Y-9.968 Z3.062 I-0.748 J-0.098
X-14.354 Y-9.773 Z2.979 I0.748 J0.098
X-15.85 Y-9.968 Z2.896 I-0.748 J-0.098
X-14.354 Y-9.773 Z2.814 I0.748 J0.098
X-15.85 Y-9.968 Z2.731 I-0.748 J-0.098
X-14.354 Y-9.773 Z2.648 I0.748 J0.098
X-15.85 Y-9.968 Z2.565 I-0.748 J-0.098
X-14.354 Y-9.773 Z2.483 I0.748 J0.098
X-15.85 Y-9.968 Z2.4 I-0.748 J-0.098
X-14.354 Y-9.773 Z2.317 I0.748 J0.098
X-15.85 Y-9.968 Z2.235 I-0.748 J-0.098
X-14.354 Y-9.773 Z2.152 I0.748 J0.098
X-15.85 Y-9.968 Z2.069 I-0.748 J-0.098
X-14.354 Y-9.773 Z1.986 I0.748 J0.098
X-15.85 Y-9.968 Z1.904 I-0.748 J-0.098
X-14.354 Y-9.773 Z1.821 I0.748 J0.098
X-15.85 Y-9.968 Z1.738 I-0.748 J-0.098
X-14.354 Y-9.773 Z1.655 I0.748 J0.098
X-15.85 Y-9.968 Z1.573 I-0.748 J-0.098
X-14.354 Y-9.773 Z1.49 I0.748 J0.098
X-15.85 Y-9.968 Z1.407 I-0.748 J-0.098
X-14.354 Y-9.773 Z1.325 I0.748 J0.098
X-15.85 Y-9.968 Z1.242 I-0.748 J-0.098
X-14.354 Y-9.773 Z1.159 I0.748 J0.098
X-15.85 Y-9.968 Z1.076 I-0.748 J-0.098
X-14.354 Y-9.773 Z0.994 I0.748 J0.098
X-15.85 Y-9.968 Z0.911 I-0.748 J-0.098
X-14.354 Y-9.773 Z0.828 I0.748 J0.098
X-15.85 Y-9.968 Z0.746 I-0.748 J-0.098
X-14.354 Y-9.773 Z0.663 I0.748 J0.098
X-15.85 Y-9.968 Z0.58 I-0.748 J-0.098
X-14.348 Y-9.87 Z0.501 I0.748 J0.098
X-15.856 I-0.754 J0.
X-14.348 I0.754 J0.
G1 X-14.314 Y-9.42
X-14.315 Y-9.27
X-14.364 Y-9.128
X-14.445 Y-9.002
X-14.551 Y-8.896
X-14.674 Y-8.811
X-14.81 Y-8.747
X-14.954 Y-8.705
X-15.103 Y-8.685
X-15.253 Y-8.687
X-15.401 Y-8.708
X-15.545 Y-8.75
X-15.682 Y-8.81
X-15.811 Y-8.888
X-15.928 Y-8.981
X-16.033 Y-9.089
X-16.123 Y-9.208
X-16.198 Y-9.338
X-16.256 Y-9.477
X-16.296 Y-9.621
X-16.318 Y-9.77
X-16.322 Y-9.92
X-16.307 Y-10.069
X-16.274 Y-10.215
X-16.223 Y-10.356
X-16.155 Y-10.49
X-16.071 Y-10.614
X-15.973 Y-10.728
X-15.861 Y-10.828
X-15.738 Y-10.914
X-15.606 Y-10.984
X-15.466 Y-11.037
X-15.32 Y-11.073
X-15.171 Y-11.091
X-15.021 Y-11.09
X-14.872 Y-11.071
X-14.727 Y-11.034
X-14.587 Y-10.979
X-14.455 Y-10.908
X-14.333 Y-10.821
X-14.223 Y-10.72
X-14.125 Y-10.606
X-14.042 Y-10.481
X-13.975 Y-10.347
X-13.905 Y-10.172
X-13.847 Y-9.985
X-13.811 Y-9.826
X-13.79 Y-9.678
X-13.784 Y-9.528
X-13.793 Y-9.378
X-13.818 Y-9.23
X-13.861 Y-9.087
X-13.919 Y-8.948
X-13.994 Y-8.818
X-14.083 Y-8.697
X-14.184 Y-8.587
X-14.298 Y-8.49
X-14.422 Y-8.405
X-14.554 Y-8.333
X-14.693 Y-8.277
X-14.837 Y-8.234
X-14.984 Y-8.206
X-15.133 Y-8.193
X-15.283 Y-8.195
X-15.433 Y-8.211
X-15.58 Y-8.241
X-15.608 Y-8.251
X-15.695 Y-8.282
X-15.745 Y-8.3
X-15.785 Y-8.315
X-15.923 Y-8.373
X-15.996 Y-8.415
X-16.015 Y-8.427
X-16.032 Y-8.439
X-16.05 Y-8.453
G3 X-15.872 Y-8.712 I0.106 J-0.118
G1 X-15.664 Y-8.608
G3 X-15.785 Y-8.315 I-0.071 J0.142
G1 X-15.94 Y-8.372
X-15.971 Y-8.389
X-16.007 Y-8.417
X-16.27 Y-8.637
X-16.295 Y-8.659
X-16.316 Y-8.676
X-16.425 Y-8.779
X-16.444 Y-8.804
X-16.452 Y-8.818
G3 X-16.201 Y-9.006 I0.14 J-0.075
G1 X-16.107 Y-8.915
G3 X-16.316 Y-8.676 I-0.111 J0.114
G1 X-16.401 Y-8.748
X-16.416 Y-8.763
X-16.428 Y-8.778
X-16.446 Y-8.807
X-16.597 Y-9.07
X-16.634 Y-9.133
X-16.65 Y-9.162
X-16.719 Y-9.295
X-16.727 Y-9.327
G3 X-16.429 Y-9.427 I0.156 J-0.028
G1 X-16.374 Y-9.318
G3 X-16.65 Y-9.162 I-0.142 J0.072
G1 X-16.71 Y-9.267
X-16.721 Y-9.299
X-16.728 Y-9.332
X-16.775 Y-9.595
X-16.795 Y-9.709
X-16.798 Y-9.726
X-16.816 Y-9.875
X-16.814 Y-9.909
X-16.81 Y-9.946
G3 X-16.496 Y-9.926 I0.155 J0.033
G1 X-16.484 Y-9.771
X-16.487 Y-9.728
X-16.501 Y-9.687
X-16.526 Y-9.651
X-16.56 Y-9.624
X-16.599 Y-9.606
X-16.642 Y-9.6
X-16.685 Y-9.606
X-16.725 Y-9.623
X-16.758 Y-9.65
X-16.783 Y-9.685
X-16.798 Y-9.726
X-16.82 Y-9.857
X-16.821 Y-9.874
X-16.82 Y-9.89
X-16.756 Y-10.251
X-16.733 Y-10.382
X-16.72 Y-10.448
X-16.706 Y-10.481
X-16.536 Y-10.776
X-16.532 Y-10.783
X-16.451 Y-10.909
X-16.381 Y-10.998
X-16.365 Y-11.019
X-16.346 Y-11.038
X-16.327 Y-11.055
X-16.297 Y-11.074
X-16.264 Y-11.085
X-16.23 Y-11.089
X-16.229
G3 X-16.101 Y-10.836 I0. J0.159
G1 X-16.264 Y-10.614
G3 X-16.532 Y-10.783 I-0.128 J-0.094
G1 X-16.436 Y-10.95
X-16.422 Y-10.971
X-16.401 Y-10.992
X-16.27 Y-11.103
X-16.139 Y-11.213
X-16.007 Y-11.323
X-15.975 Y-11.349
X-15.942 Y-11.368
X-15.439 Y-11.551
X-15.418 Y-11.558
X-15.396 Y-11.563
X-15.351 Y-11.565
X-15.089
X-15.017
X-14.867 Y-11.558
X-14.765 Y-11.543
X-14.74 Y-11.539
X-14.716 Y-11.533
X-14.691 Y-11.525
G3 X-14.768 Y-11.22 I-0.059 J0.147
G1 X-15.029 Y-11.249
G3 X-15.017 Y-11.565 I0.018 J-0.158
G1 X-14.826
X-14.811 Y-11.563
X-14.782 Y-11.557
X-14.564 Y-11.478
X-14.436 Y-11.432
X-14.433 Y-11.431
X-14.393 Y-11.416
X-14.255 Y-11.358
X-14.209 Y-11.33
X-14.179 Y-11.308
G3 X-14.352 Y-11.046 I-0.104 J0.12
G1 X-14.511 Y-11.122
G3 X-14.393 Y-11.416 I0.069 J-0.143
G1 X-14.269 Y-11.371
X-14.252 Y-11.364
X-14.236 Y-11.355
X-14.17 Y-11.301
X-13.908 Y-11.081
X-13.817 Y-11.005
X-13.794 Y-10.984
X-13.776 Y-10.963
X-13.743 Y-10.907
X-13.496 Y-10.478
X-13.484 Y-10.446
X-13.471 Y-10.382
X-13.39 Y-9.923
X-13.385 Y-9.89
X-13.384 Y-9.857
X-13.406 Y-9.726
X-13.48 Y-9.307
X-13.488 Y-9.281
X-13.514 Y-9.23
X-13.758 Y-8.807
X-13.776 Y-8.777
X-13.789 Y-8.762
X-13.804 Y-8.747
X-14.17 Y-8.439
X-14.226 Y-8.393
X-14.238 Y-8.385
X-14.251 Y-8.378
X-14.301 Y-8.358
X-14.761 Y-8.191
X-14.794 Y-8.18
X-14.826 Y-8.176
X-14.958 Y-8.175
X-15.351
X-15.384 Y-8.176
X-15.4 Y-8.178
X-15.417 Y-8.182
X-15.551 Y-8.23
X-15.608 Y-8.251
G3 X-15.489 Y-8.545 I0.059 J-0.147
X-15.401 Y-8.457 I-0.059 J0.147
G1 X-15.395 Y-8.427 Z0.504
X-15.39 Y-8.398 Z0.513
X-15.402 Y-8.36 Z0.537
X-15.411 Y-8.331 Z0.571
X-15.417 Y-8.312 Z0.613
X-15.419 Y-8.306 Z0.659
G0 Z6.56
X-14.894 Y-9.825
Z0.978
G1 Z0.819 F356.
X-14.9 Y-9.819 Z0.77
X-14.914 Y-9.802 Z0.725
X-14.937 Y-9.775 Z0.69
X-14.966 Y-9.741 Z0.668
X-14.998 Y-9.704 Z0.66
G3 X-16.143 Y-8.629 I-5.533 J-4.748
G1 X-16.179 Y-8.604
X-16.223 Y-8.6
X-16.263 Y-8.619
X-16.401 Y-8.734
X-16.419 Y-8.753
X-16.434 Y-8.771
X-16.457 Y-8.807
X-16.685 Y-9.201
X-16.722 Y-9.267
X-16.728 Y-9.283
X-16.733 Y-9.299
X-16.808 Y-9.726
X-16.83 Y-9.857
X-16.831 Y-9.874
X-16.83 Y-9.89
X-16.743 Y-10.382
X-16.73 Y-10.448
X-16.718 Y-10.481
X-16.443 Y-10.957
X-16.426 Y-10.981
X-16.414 Y-10.995
X-16.007 Y-11.336
X-15.975 Y-11.362
X-15.942 Y-11.379
X-15.436 Y-11.563
X-15.415 Y-11.569
X-15.394 Y-11.574
X-15.351 Y-11.575
X-14.826
X-14.797 Y-11.571
X-14.782 Y-11.568
X-14.564 Y-11.489
X-14.269 Y-11.382
X-14.252 Y-11.375
X-14.236 Y-11.366
X-14.17 Y-11.314
X-13.841 Y-11.038
X-13.776 Y-10.979
X-13.763 Y-10.961
X-13.486 Y-10.481
X-13.479 Y-10.464
X-13.474 Y-10.448
X-13.461 Y-10.382
X-13.376 Y-9.899
X-13.374 Y-9.878
Y-9.857
X-13.383 Y-9.8
X-13.471 Y-9.302
X-13.475 Y-9.286
X-13.481 Y-9.271
X-13.519 Y-9.201
X-13.747 Y-8.807
X-13.776 Y-8.762
X-13.8 Y-8.736
X-14.214 Y-8.39
X-14.243 Y-8.37
X-14.301 Y-8.347
X-14.761 Y-8.18
X-14.794 Y-8.17
X-14.826 Y-8.165
X-15.351
X-15.384 Y-8.166
X-15.417 Y-8.171
X-15.483 Y-8.194
X-15.942 Y-8.362
X-15.958 Y-8.369
X-15.975 Y-8.378
X-16.019 Y-8.414
X-16.263 Y-8.619
G3 X-16.051 Y-8.855 I0.106 J-0.118
X-15.998 Y-8.742 I-0.106 J0.118
G1 Y-8.737
X-16.012 Y-8.699 Z0.667
X-16.025 Y-8.664 Z0.684
X-16.036 Y-8.635 Z0.71
X-16.053 Y-8.619 Z0.742
X-16.063 Y-8.609 Z0.779
X-16.067 Y-8.606 Z0.819
G0 Z6.56
X-14.952 Y-10.008
Z1.053
G1 Z0.894 F356.
X-14.949 Y-10.001 Z0.845
X-14.942 Y-9.979 Z0.8
X-14.93 Y-9.946 Z0.765
X-14.915 Y-9.904 Z0.743
X-14.899 Y-9.858 Z0.735
G3 X-14.541 Y-8.329 I-6.879 J2.418
G1 X-14.537 Y-8.284
X-14.556 Y-8.244
X-14.592 Y-8.218
X-14.779 Y-8.151
X-14.803 Y-8.145
X-14.826 Y-8.143
X-15.351
X-15.389 Y-8.145
X-15.408 Y-8.147
X-15.426 Y-8.151
X-15.942 Y-8.338
X-15.975 Y-8.354
X-15.991 Y-8.363
X-16.007 Y-8.376
X-16.401 Y-8.706
X-16.429 Y-8.732
X-16.451 Y-8.757
X-16.482 Y-8.807
X-16.709 Y-9.201
X-16.745 Y-9.267
X-16.754 Y-9.299
X-16.83 Y-9.726
X-16.851 Y-9.857
Y-9.89
X-16.811 Y-10.12
X-16.753 Y-10.448
X-16.748 Y-10.464
X-16.742 Y-10.481
X-16.725 Y-10.513
X-16.46 Y-10.971
X-16.449 Y-10.987
X-16.435 Y-11.002
X-16.396 Y-11.038
X-16.007 Y-11.365
X-15.991 Y-11.377
X-15.975 Y-11.387
X-15.942 Y-11.402
X-15.483 Y-11.569
X-15.417 Y-11.592
X-15.384 Y-11.597
X-14.826
X-14.811 Y-11.596
X-14.796 Y-11.594
X-14.765 Y-11.585
X-14.301 Y-11.416
X-14.236 Y-11.391
X-14.219 Y-11.382
X-14.203 Y-11.37
X-13.776 Y-11.012
X-13.763 Y-10.998
X-13.753 Y-10.985
X-13.737 Y-10.959
X-13.479 Y-10.513
X-13.462 Y-10.481
X-13.451 Y-10.448
X-13.416 Y-10.251
X-13.358 Y-9.923
X-13.353 Y-9.89
X-13.352 Y-9.857
X-13.383 Y-9.676
X-13.449 Y-9.299
X-13.453 Y-9.283
X-13.459 Y-9.267
X-13.494 Y-9.201
X-13.744 Y-8.769
X-13.759 Y-8.749
X-13.776 Y-8.73
X-13.839 Y-8.676
X-14.203 Y-8.37
X-14.219 Y-8.358
X-14.236 Y-8.349
X-14.301 Y-8.324
X-14.592 Y-8.218
G3 X-14.691 Y-8.52 I-0.049 J-0.151
X-14.483 Y-8.382 I0.049 J0.151
G0 Z16.56

M9
G53 Z0.
M30
