(SLIDE006)
(T1  D=1.587 CR=0. - ZMIN=0. - FLAT END MILL)
G0 G90 G94 G17
G21
G53 G0 Z0.

(2D CONTOUR6)
M5
M9
T1
S16500 M3
G4 P4.
G55
M8
G0 X-9.997 Y-10.029
Z16.56
Z6.56
G1 Z2.56 F51.
Z0.719
X-9.989 Z0.67
X-9.967 Z0.625
X-9.931 Z0.59
X-9.887 Z0.568
X-9.838 Z0.56
X-9.679 F356.
X-9.63 Y-10.021
X-9.586 Y-9.999
X-9.551 Y-9.964
X-9.528 Y-9.919
X-9.521 Y-9.87
G3 X-20.683 I-5.581 J0.
X-9.521 I5.581 J0.
G1 X-9.528 Y-9.821
X-9.551 Y-9.777
X-9.586 Y-9.742
X-9.63 Y-9.719
X-9.679 Y-9.712
X-9.838
X-9.887 Z0.568
X-9.931 Z0.59
X-9.967 Z0.625
X-9.989 Z0.67
X-9.997 Z0.719
G0 Z16.56

(2D CONTOUR3)
G55
G0 X-13.337 Y-10.029
Z16.56
Z6.56
G1 Z2.56 F51.
Z0.719
X-13.329 Z0.67
X-13.307 Z0.625
X-13.271 Z0.59
X-13.227 Z0.568
X-13.178 Z0.56
X-13.019 F356.
X-12.97 Y-10.021
X-12.926 Y-9.999
X-12.891 Y-9.964
X-12.868 Y-9.919
X-12.861 Y-9.87
G3 X-17.343 I-2.241 J0.
X-12.861 I2.241 J0.
G1 X-12.868 Y-9.821
X-12.891 Y-9.777
X-12.926 Y-9.742
X-12.97 Y-9.719
X-13.019 Y-9.712
X-13.178
X-13.227 Z0.568
X-13.271 Z0.59
X-13.307 Z0.625
X-13.329 Z0.67
X-13.337 Z0.719
G0 Z16.56
Y-10.029
Z6.56
G1 Z2.56 F51.
Z0.159
X-13.329 Z0.11
X-13.307 Z0.065
X-13.271 Z0.03
X-13.227 Z0.008
X-13.178 Z0.
X-13.019 F356.
X-12.97 Y-10.021
X-12.926 Y-9.999
X-12.891 Y-9.964
X-12.868 Y-9.919
X-12.861 Y-9.87
G3 X-17.343 I-2.241 J0.
X-12.861 I2.241 J0.
G1 X-12.868 Y-9.821
X-12.891 Y-9.777
X-12.926 Y-9.742
X-12.97 Y-9.719
X-13.019 Y-9.712
X-13.178
X-13.227 Z0.008
X-13.271 Z0.03
X-13.307 Z0.065
X-13.329 Z0.11
X-13.337 Z0.159
G0 Z16.56

(2D POCKET1)
G55
G0 X-16.236 Y-7.931
Z16.56
Z6.56
G1 Z2.56 F356.
Z0.719
X-16.244 Y-7.933 Z0.67
X-16.266 Y-7.936 Z0.625
X-16.301 Y-7.943 Z0.59
X-16.344 Y-7.95 Z0.568
X-16.392 Y-7.959 Z0.56
X-16.449 Y-7.975
X-16.501 Y-8.005
G3 X-13.703 Y-11.735 I1.399 J-1.865
X-16.501 Y-8.005 I-1.399 J1.865
G2 X-17.039 Y-8.052 I-0.307 J0.409
G3 X-17.562 Y-8.186 I-0.185 J-0.365
X-12.642 Y-11.554 I2.46 J-1.684
X-17.562 Y-8.186 I-2.46 J1.684
G2 X-18.065 Y-8.404 I-0.425 J0.291
G3 X-18.535 Y-8.688 I-0.065 J-0.423
X-11.669 Y-11.053 I3.433 J-1.183
X-18.535 Y-8.688 I-3.433 J1.183
G2 X-18.969 Y-9.033 I-0.489 J0.168
G3 X-19.36 Y-9.426 I0.047 J-0.438
X-10.844 Y-10.315 I4.258 J-0.444
X-19.36 Y-9.426 I-4.258 J0.444
G2 X-19.708 Y-9.863 I-0.516 J0.054
G3 X-20.012 Y-10.332 I0.146 J-0.427
X-10.192 Y-9.409 I4.91 J0.461
X-20.012 Y-10.332 I-4.91 J-0.461
G2 X-20.27 Y-10.831 I-0.517 J-0.049
G3 X-20.483 Y-11.35 I0.229 J-0.398
X-9.72 Y-8.39 I5.381 J1.48
X-20.483 Y-11.35 I-5.381 J-1.48
G1 X-20.468 Y-11.387 Z0.571
X-20.444 Y-11.419 Z0.581
X-20.422 Y-11.437 Z0.61
X-20.397 Y-11.452 Z0.639
X-20.378 Y-11.46 Z0.719
G0 Z16.56

(2D CONTOUR2)
G55
G0 X-10.261 Y9.1
Z16.56
Z6.56
G1 Z2.56 F51.
Z1.719
Y9.092 Z1.67
Y9.069 Z1.625
Y9.034 Z1.59
Y8.99 Z1.568
Y8.941 Z1.56
Y8.782 F356.
X-10.253 Y8.733
X-10.23 Y8.689
X-10.195 Y8.654
X-10.151 Y8.631
X-10.102 Y8.623
X1.011
G2 X3.392 Y6.242 I0. J-2.381
G1 Y-15.983
G2 X1.011 Y-18.364 I-2.381 J0.
G1 X-21.214
G2 X-23.596 Y-15.983 I0. J2.381
G1 Y6.242
G2 X-21.214 Y8.623 I2.381 J0.
G1 X-10.102
X-10.053 Y8.631
X-10.009 Y8.654
X-9.973 Y8.689
X-9.951 Y8.733
X-9.943 Y8.782
Y8.941
Y8.99 Z1.568
Y9.034 Z1.59
Y9.069 Z1.625
Y9.092 Z1.67
Y9.1 Z1.719
G0 Z16.56
X-10.261
Z6.56
G1 Z2.56 F51.
Z0.159
Y9.092 Z0.11
Y9.069 Z0.065
Y9.034 Z0.03
Y8.99 Z0.008
Y8.941 Z0.
Y8.782 F356.
X-10.253 Y8.733
X-10.23 Y8.689
X-10.195 Y8.654
X-10.151 Y8.631
X-10.102 Y8.623
X1.011
G2 X3.392 Y6.242 I0. J-2.381
G1 Y-15.983
G2 X1.011 Y-18.364 I-2.381 J0.
G1 X-21.214
G2 X-23.596 Y-15.983 I0. J2.381
G1 Y6.242
G2 X-21.214 Y8.623 I2.381 J0.
G1 X-10.102
X-10.053 Y8.631
X-10.009 Y8.654
X-9.973 Y8.689
X-9.951 Y8.733
X-9.943 Y8.782
Y8.941
Y8.99 Z0.008
Y9.034 Z0.03
Y9.069 Z0.065
Y9.092 Z0.11
Y9.1 Z0.159
G0 Z16.56

M9
G53 Z0.
M30
