(SLIDEPIECE_BOTTOM3)
(T1  D=1.587 CR=0. - ZMIN=1.06 - FLAT END MILL)
G0 G90 G94 G17
G21
G53 G0 Z0.

(2D POCKET1)
M5
M9
T1
S16500 M3
G4 P4.
G55
M8
G0 X-16.894 Y-12.037
Z16.56
Z6.56
G1 Z4.06 F356.
Z1.219 F51.
Y-12.058 Z1.139
X-16.889 Y-12.087 Z1.11
X-16.88 Y-12.114 Z1.081
X-16.859 Y-12.148 Z1.071
X-16.831 Y-12.175 Z1.06
G3 X-13.373 Y-7.565 I1.729 J2.305 F356.
X-16.831 Y-12.175 I-1.729 J-2.305
G2 X-16.5 Y-13.004 I-0.514 J-0.685
G3 X-16.006 Y-13.748 I0.642 J-0.109
X-14.198 Y-5.993 I0.904 J3.877
X-16.006 Y-13.748 I-0.904 J-3.877
G2 X-15.359 Y-14.394 I-0.197 J-0.843
G3 X-14.617 Y-14.928 I0.676 J0.157
X-15.587 Y-4.812 I-0.485 J5.058
X-14.617 Y-14.928 I0.485 J-5.058
G1 X-14.578 Y-14.92 Z1.071
X-14.543 Y-14.902 Z1.081
X-14.52 Y-14.883 Z1.11
X-14.502 Y-14.861 Z1.139
X-14.491 Y-14.843 Z1.219
G0 Z16.56

M9
G53 Z0.
M30
